(G-CODE GENERATED BY FLATCAM v8.994 - www.flatcam.org - Version Date: 2020/11/7)

(Name: Gerber_BottomLayer.GBL_ncc_cnc)
(Type: G-code from Geometry)
(Units: MM)

(Created on Wednesday, 13 July 2022 at 22:18)

(This preprocessor is the default preprocessor used by FlatCAM.)
(It is made to work with MACH3 compatible motion controllers.)

(TOOL DIAMETER: 0.1373 mm)
(Feedrate_XY: 120.0 mm/min)
(Feedrate_Z: 25.0 mm/min)
(Feedrate rapids 1500.0 mm/min)

(Z_Cut: -0.04 mm)
(Z_Move: 1.0 mm)
(Z Start: None mm)
(Z End: 15.0 mm)
(X,Y End: None mm)
(Steps per circle: 64)
(Preprocessor Geometry: default)

(X range:  -39.0586 ...   39.6721  mm)
(Y range:  -39.2749 ...   38.4336  mm)

(Spindle Speed: 1000.0 RPM)
G21
G90
G94

G01 F120.00

M5
G00 Z15.0000
G00 X0.0000 Y0.0000
T1
M6    
(MSG, Change to Tool Dia = 0.1373)
M0
G00 Z15.0000

M03 S1000.0
G01 F120.00
G00 X-0.7771 Y-1.1383
G01 F25.00
G01 Z-0.0400
G01 F120.00
G01 X-0.7412 Y-1.1536
G01 X-0.7299 Y-1.1580
G01 X-0.7137 Y-1.1631
G01 X-0.6966 Y-1.1672
G01 X-0.6795 Y-1.1700
G01 X-0.6633 Y-1.1714
G01 X-0.6515 Y-1.1718
G01 X-0.6092 Y-1.1718
G01 X-0.5936 Y-1.1712
G01 X-0.5788 Y-1.1698
G01 X-0.5641 Y-1.1674
G01 X-0.5493 Y-1.1640
G01 X-0.5377 Y-1.1605
G01 X-0.5246 Y-1.1559
G01 X-0.4829 Y-1.1383
G01 X-0.4966 Y-1.1672
G01 X-0.5020 Y-1.1803
G01 X-0.5369 Y-1.2777
G01 X-0.5423 Y-1.2951
G01 X-0.5672 Y-1.3944
G01 X-0.5699 Y-1.4064
G01 X-0.5861 Y-1.5142
G01 X-0.5880 Y-1.5318
G01 X-0.5931 Y-1.6347
G01 X-0.5934 Y-1.6467
G01 X-0.5883 Y-1.7555
G01 X-0.5874 Y-1.7676
G01 X-0.5861 Y-1.7783
G01 X-0.5698 Y-1.8860
G01 X-0.5672 Y-1.8976
G01 X-0.5417 Y-1.9992
G01 X-0.5368 Y-2.0148
G01 X-0.4999 Y-2.1171
G01 X-0.4950 Y-2.1283
G01 X-0.4528 Y-2.2173
G01 X-0.4474 Y-2.2280
G01 X-0.4421 Y-2.2374
G01 X-0.3909 Y-2.3229
G01 X-0.3797 Y-2.3395
G01 X-0.3204 Y-2.4196
G01 X-0.3130 Y-2.4290
G01 X-0.2401 Y-2.5099
G01 X-0.2326 Y-2.5177
G01 X-0.2239 Y-2.5261
G01 X-0.1432 Y-2.5988
G01 X-0.1338 Y-2.6062
G01 X-0.0556 Y-2.6642
G01 X-1.2044 Y-2.6642
G01 X-1.1262 Y-2.6062
G01 X-1.1168 Y-2.5988
G01 X-1.0361 Y-2.5261
G01 X-1.0274 Y-2.5177
G01 X-1.0199 Y-2.5099
G01 X-0.9470 Y-2.4290
G01 X-0.9396 Y-2.4196
G01 X-0.8803 Y-2.3395
G01 X-0.8691 Y-2.3229
G01 X-0.8179 Y-2.2374
G01 X-0.8126 Y-2.2280
G01 X-0.8072 Y-2.2173
G01 X-0.7650 Y-2.1283
G01 X-0.7601 Y-2.1171
G01 X-0.7564 Y-2.1075
G01 X-0.7564 Y-2.1073
G01 X-0.7233 Y-2.0149
G01 X-0.7232 Y-2.0148
G01 X-0.7183 Y-1.9992
G01 X-0.6928 Y-1.8976
G01 X-0.6902 Y-1.8860
G01 X-0.6883 Y-1.8753
G01 X-0.6726 Y-1.7676
G01 X-0.6717 Y-1.7555
G01 X-0.6666 Y-1.6467
G01 X-0.6669 Y-1.6347
G01 X-0.6720 Y-1.5318
G01 X-0.6739 Y-1.5142
G01 X-0.6739 Y-1.5137
G01 X-0.6883 Y-1.4167
G01 X-0.6884 Y-1.4165
G01 X-0.6901 Y-1.4064
G01 X-0.6928 Y-1.3944
G01 X-0.7177 Y-1.2951
G01 X-0.7231 Y-1.2777
G01 X-0.7580 Y-1.1803
G01 X-0.7634 Y-1.1672
G01 X-0.7771 Y-1.1383
G01 X-0.6300 Y-1.4356
G01 X-0.6347 Y-1.4041
G01 X-0.6377 Y-1.3886
G01 X-0.6636 Y-1.2849
G01 X-0.6697 Y-1.2642
G01 X-0.6837 Y-1.2248
G01 X-0.6714 Y-1.2260
G01 X-0.6588 Y-1.2266
G01 X-0.6092 Y-1.2267
G01 X-0.5926 Y-1.2262
G01 X-0.5763 Y-1.2248
G01 X-0.5903 Y-1.2642
G01 X-0.5964 Y-1.2849
G01 X-0.6223 Y-1.3886
G01 X-0.6253 Y-1.4041
G01 X-0.6300 Y-1.4356
G01 X-0.7766 Y-1.6521
G01 X-0.7766 Y-1.6399
G01 X-0.7814 Y-1.5419
G01 X-0.7826 Y-1.5299
G01 X-0.7982 Y-1.4261
G01 X-0.8246 Y-1.3205
G01 X-0.8598 Y-1.2217
G01 X-0.8644 Y-1.2105
G01 X-0.9094 Y-1.1158
G01 X-0.9654 Y-1.0223
G01 X-1.0277 Y-0.9380
G01 X-1.0354 Y-0.9286
G01 X-1.1060 Y-0.8510
G01 X-1.1867 Y-0.7779
G01 X-1.2708 Y-0.7153
G01 X-1.2809 Y-0.7085
G01 X-1.3709 Y-0.6548
G01 X-1.4694 Y-0.6082
G01 X-1.5745 Y-0.5706
G01 X-1.6749 Y-0.5453
G01 X-1.6868 Y-0.5430
G01 X-1.7839 Y-0.5286
G01 X-1.7959 Y-0.5274
G01 X-1.9007 Y-0.5224
G01 X-2.0041 Y-0.5274
G01 X-2.0161 Y-0.5286
G01 X-2.1185 Y-0.5439
G01 X-2.2255 Y-0.5706
G01 X-2.3306 Y-0.6082
G01 X-2.4302 Y-0.6554
G01 X-2.5248 Y-0.7122
G01 X-2.6080 Y-0.7737
G01 X-2.6174 Y-0.7814
G01 X-2.6901 Y-0.8473
G01 X-2.6987 Y-0.8559
G01 X-2.7681 Y-0.9327
G01 X-2.8307 Y-1.0168
G01 X-2.8375 Y-1.0269
G01 X-2.8906 Y-1.1158
G01 X-2.9378 Y-1.2154
G01 X-2.9754 Y-1.3205
G01 X-3.0007 Y-1.4209
G01 X-3.0024 Y-1.4291
G01 X-3.0181 Y-1.5352
G01 X-3.0234 Y-1.6399
G01 X-3.0234 Y-1.6521
G01 X-3.0182 Y-1.7555
G01 X-3.0030 Y-1.8592
G01 X-3.0007 Y-1.8711
G01 X-2.9754 Y-1.9715
G01 X-2.9402 Y-2.0703
G01 X-2.9356 Y-2.0815
G01 X-2.8906 Y-2.1762
G01 X-2.8375 Y-2.2651
G01 X-2.8307 Y-2.2752
G01 X-2.7690 Y-2.3583
G01 X-2.6987 Y-2.4361
G01 X-2.6901 Y-2.4447
G01 X-2.6133 Y-2.5141
G01 X-2.5292 Y-2.5767
G01 X-2.5191 Y-2.5835
G01 X-2.4291 Y-2.6372
G01 X-2.3355 Y-2.6816
G01 X-2.3243 Y-2.6862
G01 X-2.2255 Y-2.7214
G01 X-2.1251 Y-2.7467
G01 X-2.1132 Y-2.7490
G01 X-2.0108 Y-2.7641
G01 X-1.9061 Y-2.7694
G01 X-1.8939 Y-2.7694
G01 X-1.7892 Y-2.7641
G01 X-1.6868 Y-2.7490
G01 X-1.6749 Y-2.7467
G01 X-1.5732 Y-2.7210
G01 X-1.4722 Y-2.6849
G01 X-1.4645 Y-2.6816
G01 X-1.3758 Y-2.6396
G01 X-1.3651 Y-2.6339
G01 X-1.2752 Y-2.5798
G01 X-1.1877 Y-2.5150
G01 X-1.1099 Y-2.4447
G01 X-1.1013 Y-2.4361
G01 X-1.0310 Y-2.3583
G01 X-0.9693 Y-2.2752
G01 X-0.9625 Y-2.2651
G01 X-0.9094 Y-2.1762
G01 X-0.8644 Y-2.0815
G01 X-0.8598 Y-2.0703
G01 X-0.8250 Y-1.9728
G01 X-0.7993 Y-1.8711
G01 X-0.7970 Y-1.8592
G01 X-0.7826 Y-1.7621
G01 X-0.7816 Y-1.7538
G01 X-0.7766 Y-1.6521
G01 X-0.8314 Y-1.6494
G01 X-0.8314 Y-1.6426
G01 X-0.8365 Y-1.5413
G01 X-0.8513 Y-1.4408
G01 X-0.8526 Y-1.4342
G01 X-0.8774 Y-1.3358
G01 X-0.9115 Y-1.2402
G01 X-0.9141 Y-1.2340
G01 X-0.9575 Y-1.1422
G01 X-1.0096 Y-1.0551
G01 X-1.0134 Y-1.0495
G01 X-1.0739 Y-0.9681
G01 X-1.1420 Y-0.8928
G01 X-1.1468 Y-0.8880
G01 X-1.2221 Y-0.8199
G01 X-1.3035 Y-0.7594
G01 X-1.3091 Y-0.7556
G01 X-1.3962 Y-0.7035
G01 X-1.4880 Y-0.6601
G01 X-1.4942 Y-0.6575
G01 X-1.5898 Y-0.6234
G01 X-1.6882 Y-0.5986
G01 X-1.6948 Y-0.5973
G01 X-1.7953 Y-0.5825
G01 X-1.9000 Y-0.5774
G01 X-2.0014 Y-0.5822
G01 X-2.0081 Y-0.5829
G01 X-2.1085 Y-0.5979
G01 X-2.2102 Y-0.6234
G01 X-2.3058 Y-0.6575
G01 X-2.3120 Y-0.6601
G01 X-2.4038 Y-0.7035
G01 X-2.4909 Y-0.7556
G01 X-2.4965 Y-0.7594
G01 X-2.5753 Y-0.8178
G01 X-2.5805 Y-0.8221
G01 X-2.6556 Y-0.8904
G01 X-2.7239 Y-0.9655
G01 X-2.7282 Y-0.9707
G01 X-2.7885 Y-1.0523
G01 X-2.8408 Y-1.1393
G01 X-2.8440 Y-1.1453
G01 X-2.8873 Y-1.2370
G01 X-2.9216 Y-1.3326
G01 X-2.9235 Y-1.3390
G01 X-2.9481 Y-1.4375
G01 X-2.9635 Y-1.5413
G01 X-2.9686 Y-1.6426
G01 X-2.9686 Y-1.6494
G01 X-2.9638 Y-1.7474
G01 X-2.9631 Y-1.7541
G01 X-2.9481 Y-1.8545
G01 X-2.9226 Y-1.9562
G01 X-2.8873 Y-2.0550
G01 X-2.8425 Y-2.1498
G01 X-2.7885 Y-2.2397
G01 X-2.7261 Y-2.3239
G01 X-2.6556 Y-2.4016
G01 X-2.5779 Y-2.4721
G01 X-2.4937 Y-2.5345
G01 X-2.4038 Y-2.5885
G01 X-2.3090 Y-2.6333
G01 X-2.2102 Y-2.6686
G01 X-2.1085 Y-2.6941
G01 X-2.0047 Y-2.7095
G01 X-1.9000 Y-2.7146
G01 X-1.7986 Y-2.7098
G01 X-1.7919 Y-2.7091
G01 X-1.6915 Y-2.6941
G01 X-1.5898 Y-2.6686
G01 X-1.4910 Y-2.6333
G01 X-1.3993 Y-2.5900
G01 X-1.3933 Y-2.5868
G01 X-1.3091 Y-2.5364
G01 X-1.3035 Y-2.5326
G01 X-1.2221 Y-2.4721
G01 X-1.1468 Y-2.4040
G01 X-1.1420 Y-2.3992
G01 X-1.0739 Y-2.3239
G01 X-1.0115 Y-2.2397
G01 X-0.9575 Y-2.1498
G01 X-0.9127 Y-2.0550
G01 X-0.8774 Y-1.9562
G01 X-0.8519 Y-1.8545
G01 X-0.8365 Y-1.7507
G01 X-0.8314 Y-1.6494
G01 X-0.6861 Y-2.4445
G01 X-0.6300 Y-2.3512
G01 X-0.5739 Y-2.4445
G01 X-0.6861 Y-2.4445
G01 X-0.7937 Y-2.4994
G01 X-0.7448 Y-2.4333
G01 X-0.7359 Y-2.4204
G01 X-0.7274 Y-2.4069
G01 X-0.7271 Y-2.4063
G01 X-0.6766 Y-2.3221
G01 X-0.6763 Y-2.3216
G01 X-0.6684 Y-2.3078
G01 X-0.6593 Y-2.2900
G01 X-0.6300 Y-2.2281
G01 X-0.6008 Y-2.2899
G01 X-0.5916 Y-2.3078
G01 X-0.5838 Y-2.3215
G01 X-0.5325 Y-2.4071
G01 X-0.5240 Y-2.4205
G01 X-0.5152 Y-2.4334
G01 X-0.4663 Y-2.4994
G01 X-0.7937 Y-2.4994
G01 X-0.9120 Y-2.5543
G01 X-0.8712 Y-2.5093
G01 X-0.8596 Y-2.4956
G01 X-0.7899 Y-2.4020
G01 X-0.7756 Y-2.3805
G01 X-0.7232 Y-2.2931
G01 X-0.7198 Y-2.2872
G01 X-0.7179 Y-2.2839
G01 X-0.7168 Y-2.2819
G01 X-0.7165 Y-2.2813
G01 X-0.7162 Y-2.2807
G01 X-0.7161 Y-2.2806
G01 X-0.7160 Y-2.2805
G01 X-0.7160 Y-2.2804
G01 X-0.7091 Y-2.2669
G01 X-0.6617 Y-2.1665
G01 X-0.6538 Y-2.1467
G01 X-0.6300 Y-2.0802
G01 X-0.6062 Y-2.1467
G01 X-0.5983 Y-2.1665
G01 X-0.5509 Y-2.2669
G01 X-0.5442 Y-2.2801
G01 X-0.5368 Y-2.2931
G01 X-0.4844 Y-2.3805
G01 X-0.4701 Y-2.4020
G01 X-0.4004 Y-2.4956
G01 X-0.3888 Y-2.5093
G01 X-0.3480 Y-2.5543
G01 X-0.9120 Y-2.5543
G01 X-1.0462 Y-2.6093
G01 X-0.9978 Y-2.5654
G01 X-0.9856 Y-2.5535
G01 X-0.9129 Y-2.4735
G01 X-0.9013 Y-2.4598
G01 X-0.8368 Y-2.3731
G01 X-0.8284 Y-2.3612
G01 X-0.8213 Y-2.3499
G01 X-0.7660 Y-2.2573
G01 X-0.7576 Y-2.2410
G01 X-0.7574 Y-2.2407
G01 X-0.7155 Y-2.1520
G01 X-0.7153 Y-2.1517
G01 X-0.7103 Y-2.1403
G01 X-0.7049 Y-2.1265
G01 X-0.6700 Y-2.0288
G01 X-0.6638 Y-2.0081
G01 X-0.6383 Y-1.9062
G01 X-0.6349 Y-1.8891
G01 X-0.6300 Y-1.8564
G01 X-0.6251 Y-1.8891
G01 X-0.6217 Y-1.9062
G01 X-0.5962 Y-2.0081
G01 X-0.5900 Y-2.0288
G01 X-0.5551 Y-2.1265
G01 X-0.5497 Y-2.1403
G01 X-0.5447 Y-2.1517
G01 X-0.5024 Y-2.2410
G01 X-0.4940 Y-2.2573
G01 X-0.4387 Y-2.3499
G01 X-0.4316 Y-2.3612
G01 X-0.4232 Y-2.3731
G01 X-0.3587 Y-2.4598
G01 X-0.3471 Y-2.4735
G01 X-0.2744 Y-2.5535
G01 X-0.2622 Y-2.5654
G01 X-0.2138 Y-2.6093
G01 X-1.0462 Y-2.6093
G00 Z1.0000
G00 X-2.8865 Y-2.6093
G01 F25.00
G01 Z-0.0400
G01 F120.00
G01 X-2.8648 Y-2.5739
G01 X-2.8576 Y-2.5612
G01 X-2.8486 Y-2.5429
G01 X-2.8410 Y-2.5244
G01 X-2.8178 Y-2.5500
G01 X-2.8079 Y-2.5601
G01 X-2.7538 Y-2.6093
G01 X-2.8865 Y-2.6093
G01 X-3.0173 Y-2.6642
G01 X-2.9941 Y-2.6476
G01 X-2.9826 Y-2.6384
G01 X-2.9684 Y-2.6254
G01 X-2.9565 Y-2.6125
G01 X-2.9472 Y-2.6010
G01 X-2.9383 Y-2.5883
G01 X-2.9124 Y-2.5465
G01 X-2.9065 Y-2.5362
G01 X-2.8997 Y-2.5226
G01 X-2.8940 Y-2.5092
G01 X-2.8888 Y-2.4945
G01 X-2.8849 Y-2.4802
G01 X-2.8824 Y-2.4691
G01 X-2.8805 Y-2.4575
G01 X-2.8738 Y-2.4015
G01 X-2.8576 Y-2.4232
G01 X-2.8486 Y-2.4341
G01 X-2.7796 Y-2.5104
G01 X-2.7673 Y-2.5228
G01 X-2.6830 Y-2.5990
G01 X-2.6736 Y-2.6064
G01 X-2.5956 Y-2.6642
G01 X-3.0173 Y-2.6642
G00 Z1.0000
G00 X1.4938 Y-2.6093
G01 F25.00
G01 Z-0.0400
G01 F120.00
G01 X1.5422 Y-2.5654
G01 X1.5544 Y-2.5535
G01 X1.6271 Y-2.4735
G01 X1.6387 Y-2.4598
G01 X1.7032 Y-2.3731
G01 X1.7116 Y-2.3612
G01 X1.7187 Y-2.3499
G01 X1.7740 Y-2.2573
G01 X1.7824 Y-2.2410
G01 X1.7826 Y-2.2407
G01 X1.8245 Y-2.1520
G01 X1.8247 Y-2.1517
G01 X1.8297 Y-2.1403
G01 X1.8351 Y-2.1265
G01 X1.8700 Y-2.0288
G01 X1.8762 Y-2.0081
G01 X1.9017 Y-1.9062
G01 X1.9051 Y-1.8891
G01 X1.9100 Y-1.8564
G01 X1.9149 Y-1.8891
G01 X1.9183 Y-1.9062
G01 X1.9438 Y-2.0081
G01 X1.9500 Y-2.0288
G01 X1.9849 Y-2.1265
G01 X1.9903 Y-2.1403
G01 X1.9953 Y-2.1517
G01 X2.0376 Y-2.2410
G01 X2.0460 Y-2.2573
G01 X2.1014 Y-2.3500
G01 X2.1092 Y-2.3623
G01 X2.1169 Y-2.3733
G01 X2.1813 Y-2.4598
G01 X2.1929 Y-2.4735
G01 X2.2656 Y-2.5535
G01 X2.2778 Y-2.5654
G01 X2.3262 Y-2.6093
G01 X1.4938 Y-2.6093
G01 X1.6280 Y-2.5543
G01 X1.6693 Y-2.5087
G01 X1.6827 Y-2.4927
G01 X1.7474 Y-2.4057
G01 X1.7572 Y-2.3917
G01 X1.7658 Y-2.3782
G01 X1.8222 Y-2.2836
G01 X1.8318 Y-2.2650
G01 X1.8322 Y-2.2642
G01 X1.8742 Y-2.1754
G01 X1.8743 Y-2.1751
G01 X1.8789 Y-2.1650
G01 X1.8862 Y-2.1466
G01 X1.9100 Y-2.0802
G01 X1.9338 Y-2.1467
G01 X1.9417 Y-2.1665
G01 X1.9891 Y-2.2669
G01 X1.9958 Y-2.2801
G01 X2.0032 Y-2.2931
G01 X2.0556 Y-2.3805
G01 X2.0699 Y-2.4020
G01 X2.1396 Y-2.4956
G01 X2.1512 Y-2.5093
G01 X2.1920 Y-2.5543
G01 X1.6280 Y-2.5543
G01 X1.7463 Y-2.4994
G01 X1.7952 Y-2.4333
G01 X1.8041 Y-2.4204
G01 X1.8126 Y-2.4069
G01 X1.8129 Y-2.4063
G01 X1.8634 Y-2.3221
G01 X1.8637 Y-2.3216
G01 X1.8716 Y-2.3078
G01 X1.8807 Y-2.2900
G01 X1.9100 Y-2.2281
G01 X1.9392 Y-2.2899
G01 X1.9484 Y-2.3078
G01 X1.9562 Y-2.3215
G01 X2.0075 Y-2.4071
G01 X2.0160 Y-2.4205
G01 X2.0248 Y-2.4334
G01 X2.0737 Y-2.4994
G01 X1.7463 Y-2.4994
G01 X1.8539 Y-2.4445
G01 X1.9100 Y-2.3512
G01 X1.9661 Y-2.4445
G01 X1.8539 Y-2.4445
G01 X1.7634 Y-1.6521
G01 X1.7634 Y-1.6399
G01 X1.7586 Y-1.5419
G01 X1.7579 Y-1.5335
G01 X1.7421 Y-1.4275
G01 X1.7162 Y-1.3234
G01 X1.7133 Y-1.3141
G01 X1.6783 Y-1.2167
G01 X1.6312 Y-1.1169
G01 X1.5746 Y-1.0223
G01 X1.5123 Y-0.9380
G01 X1.5046 Y-0.9286
G01 X1.4387 Y-0.8559
G01 X1.4301 Y-0.8473
G01 X1.3523 Y-0.7770
G01 X1.2692 Y-0.7153
G01 X1.2591 Y-0.7085
G01 X1.1749 Y-0.6581
G01 X1.1642 Y-0.6524
G01 X1.0706 Y-0.6082
G01 X0.9719 Y-0.5727
G01 X0.9603 Y-0.5692
G01 X0.8599 Y-0.5442
G01 X0.7495 Y-0.5278
G01 X0.6461 Y-0.5226
G01 X0.6339 Y-0.5226
G01 X0.5292 Y-0.5279
G01 X0.4268 Y-0.5430
G01 X0.4149 Y-0.5453
G01 X0.3145 Y-0.5706
G01 X0.2094 Y-0.6082
G01 X0.1158 Y-0.6524
G01 X0.1051 Y-0.6581
G01 X0.0152 Y-0.7122
G01 X-0.0680 Y-0.7737
G01 X-0.0774 Y-0.7814
G01 X-0.1540 Y-0.8510
G01 X-0.2290 Y-0.9337
G01 X-0.2907 Y-1.0168
G01 X-0.2975 Y-1.0269
G01 X-0.3506 Y-1.1158
G01 X-0.3956 Y-1.2105
G01 X-0.4002 Y-1.2217
G01 X-0.4350 Y-1.3192
G01 X-0.4607 Y-1.4209
G01 X-0.4624 Y-1.4291
G01 X-0.4781 Y-1.5352
G01 X-0.4834 Y-1.6399
G01 X-0.4834 Y-1.6521
G01 X-0.4781 Y-1.7568
G01 X-0.4630 Y-1.8592
G01 X-0.4607 Y-1.8711
G01 X-0.4350 Y-1.9728
G01 X-0.3983 Y-2.0753
G01 X-0.3536 Y-2.1702
G01 X-0.3479 Y-2.1809
G01 X-0.2938 Y-2.2708
G01 X-0.2290 Y-2.3583
G01 X-0.1587 Y-2.4361
G01 X-0.1501 Y-2.4447
G01 X-0.0733 Y-2.5141
G01 X0.0108 Y-2.5767
G01 X0.0209 Y-2.5835
G01 X0.1109 Y-2.6372
G01 X0.2045 Y-2.6816
G01 X0.2157 Y-2.6862
G01 X0.3132 Y-2.7210
G01 X0.4149 Y-2.7467
G01 X0.4268 Y-2.7490
G01 X0.5239 Y-2.7634
G01 X0.5359 Y-2.7646
G01 X0.6407 Y-2.7696
G01 X0.7441 Y-2.7646
G01 X0.7561 Y-2.7634
G01 X0.8599 Y-2.7478
G01 X0.9603 Y-2.7228
G01 X0.9719 Y-2.7193
G01 X1.0706 Y-2.6838
G01 X1.1676 Y-2.6380
G01 X1.1749 Y-2.6339
G01 X1.2591 Y-2.5835
G01 X1.2692 Y-2.5767
G01 X1.3523 Y-2.5150
G01 X1.4301 Y-2.4447
G01 X1.4387 Y-2.4361
G01 X1.5090 Y-2.3583
G01 X1.5707 Y-2.2752
G01 X1.5775 Y-2.2651
G01 X1.6306 Y-2.1762
G01 X1.6756 Y-2.0815
G01 X1.6802 Y-2.0703
G01 X1.7154 Y-1.9715
G01 X1.7407 Y-1.8711
G01 X1.7430 Y-1.8592
G01 X1.7582 Y-1.7555
G01 X1.7634 Y-1.6521
G01 X1.7086 Y-1.6494
G01 X1.7086 Y-1.6426
G01 X1.7038 Y-1.5446
G01 X1.7031 Y-1.5379
G01 X1.6881 Y-1.4375
G01 X1.6626 Y-1.3358
G01 X1.6273 Y-1.2370
G01 X1.5840 Y-1.1453
G01 X1.5808 Y-1.1393
G01 X1.5276 Y-1.0509
G01 X1.4661 Y-0.9681
G01 X1.3980 Y-0.8928
G01 X1.3932 Y-0.8880
G01 X1.3179 Y-0.8199
G01 X1.2337 Y-0.7575
G01 X1.1467 Y-0.7052
G01 X1.1407 Y-0.7020
G01 X1.0490 Y-0.6587
G01 X0.9502 Y-0.6234
G01 X0.8518 Y-0.5986
G01 X0.8452 Y-0.5973
G01 X0.7447 Y-0.5825
G01 X0.6400 Y-0.5774
G01 X0.5386 Y-0.5822
G01 X0.5319 Y-0.5829
G01 X0.4348 Y-0.5973
G01 X0.4282 Y-0.5986
G01 X0.3298 Y-0.6234
G01 X0.2310 Y-0.6587
G01 X0.1362 Y-0.7035
G01 X0.0491 Y-0.7556
G01 X0.0435 Y-0.7594
G01 X-0.0353 Y-0.8178
G01 X-0.0405 Y-0.8221
G01 X-0.1156 Y-0.8904
G01 X-0.1861 Y-0.9681
G01 X-0.2485 Y-1.0523
G01 X-0.3008 Y-1.1393
G01 X-0.3040 Y-1.1453
G01 X-0.3459 Y-1.2340
G01 X-0.3485 Y-1.2402
G01 X-0.3826 Y-1.3358
G01 X-0.4081 Y-1.4375
G01 X-0.4235 Y-1.5413
G01 X-0.4286 Y-1.6426
G01 X-0.4286 Y-1.6494
G01 X-0.4238 Y-1.7474
G01 X-0.4231 Y-1.7541
G01 X-0.4081 Y-1.8545
G01 X-0.3826 Y-1.9562
G01 X-0.3473 Y-2.0550
G01 X-0.3040 Y-2.1467
G01 X-0.3008 Y-2.1527
G01 X-0.2476 Y-2.2411
G01 X-0.1861 Y-2.3239
G01 X-0.1156 Y-2.4016
G01 X-0.0379 Y-2.4721
G01 X0.0435 Y-2.5326
G01 X0.0491 Y-2.5364
G01 X0.1333 Y-2.5868
G01 X0.1393 Y-2.5900
G01 X0.2310 Y-2.6333
G01 X0.3266 Y-2.6676
G01 X0.3330 Y-2.6695
G01 X0.4315 Y-2.6941
G01 X0.5353 Y-2.7095
G01 X0.6400 Y-2.7146
G01 X0.7447 Y-2.7095
G01 X0.8485 Y-2.6941
G01 X0.9502 Y-2.6686
G01 X1.0490 Y-2.6333
G01 X1.1407 Y-2.5900
G01 X1.1467 Y-2.5868
G01 X1.2337 Y-2.5345
G01 X1.3153 Y-2.4742
G01 X1.3205 Y-2.4699
G01 X1.3956 Y-2.4016
G01 X1.4639 Y-2.3265
G01 X1.4682 Y-2.3213
G01 X1.5285 Y-2.2397
G01 X1.5825 Y-2.1498
G01 X1.6259 Y-2.0580
G01 X1.6285 Y-2.0518
G01 X1.6626 Y-1.9562
G01 X1.6874 Y-1.8578
G01 X1.6887 Y-1.8512
G01 X1.7035 Y-1.7507
G01 X1.7086 Y-1.6494
G01 X1.9100 Y-1.4356
G01 X1.9053 Y-1.4041
G01 X1.9023 Y-1.3886
G01 X1.8764 Y-1.2849
G01 X1.8703 Y-1.2642
G01 X1.8563 Y-1.2248
G01 X1.8686 Y-1.2260
G01 X1.8812 Y-1.2266
G01 X1.9308 Y-1.2267
G01 X1.9474 Y-1.2262
G01 X1.9637 Y-1.2248
G01 X1.9497 Y-1.2642
G01 X1.9436 Y-1.2849
G01 X1.9177 Y-1.3886
G01 X1.9147 Y-1.4041
G01 X1.9100 Y-1.4356
G01 X1.7629 Y-1.1383
G01 X1.7988 Y-1.1536
G01 X1.8101 Y-1.1580
G01 X1.8263 Y-1.1631
G01 X1.8434 Y-1.1672
G01 X1.8605 Y-1.1700
G01 X1.8767 Y-1.1714
G01 X1.8885 Y-1.1718
G01 X1.9308 Y-1.1718
G01 X1.9464 Y-1.1712
G01 X1.9612 Y-1.1698
G01 X1.9759 Y-1.1674
G01 X1.9907 Y-1.1640
G01 X2.0040 Y-1.1600
G01 X2.0154 Y-1.1559
G01 X2.0571 Y-1.1383
G01 X2.0434 Y-1.1672
G01 X2.0380 Y-1.1803
G01 X2.0031 Y-1.2777
G01 X1.9977 Y-1.2951
G01 X1.9728 Y-1.3944
G01 X1.9701 Y-1.4064
G01 X1.9539 Y-1.5142
G01 X1.9520 Y-1.5318
G01 X1.9469 Y-1.6347
G01 X1.9466 Y-1.6467
G01 X1.9517 Y-1.7555
G01 X1.9526 Y-1.7676
G01 X1.9539 Y-1.7783
G01 X1.9702 Y-1.8860
G01 X1.9728 Y-1.8976
G01 X1.9983 Y-1.9992
G01 X2.0032 Y-2.0148
G01 X2.0401 Y-2.1171
G01 X2.0450 Y-2.1283
G01 X2.0872 Y-2.2173
G01 X2.0926 Y-2.2280
G01 X2.0979 Y-2.2374
G01 X2.1491 Y-2.3229
G01 X2.1603 Y-2.3395
G01 X2.2196 Y-2.4196
G01 X2.2270 Y-2.4290
G01 X2.2999 Y-2.5099
G01 X2.3074 Y-2.5177
G01 X2.3161 Y-2.5261
G01 X2.3968 Y-2.5988
G01 X2.4062 Y-2.6062
G01 X2.4844 Y-2.6642
G01 X1.3356 Y-2.6642
G01 X1.4138 Y-2.6062
G01 X1.4232 Y-2.5988
G01 X1.5039 Y-2.5261
G01 X1.5126 Y-2.5177
G01 X1.5201 Y-2.5099
G01 X1.5930 Y-2.4290
G01 X1.6004 Y-2.4196
G01 X1.6597 Y-2.3395
G01 X1.6709 Y-2.3229
G01 X1.7221 Y-2.2374
G01 X1.7274 Y-2.2280
G01 X1.7328 Y-2.2173
G01 X1.7750 Y-2.1283
G01 X1.7799 Y-2.1171
G01 X1.7836 Y-2.1075
G01 X1.7836 Y-2.1073
G01 X1.8167 Y-2.0149
G01 X1.8168 Y-2.0148
G01 X1.8217 Y-1.9992
G01 X1.8472 Y-1.8976
G01 X1.8498 Y-1.8860
G01 X1.8517 Y-1.8753
G01 X1.8674 Y-1.7676
G01 X1.8683 Y-1.7555
G01 X1.8734 Y-1.6467
G01 X1.8731 Y-1.6347
G01 X1.8680 Y-1.5318
G01 X1.8661 Y-1.5142
G01 X1.8661 Y-1.5137
G01 X1.8517 Y-1.4167
G01 X1.8516 Y-1.4165
G01 X1.8499 Y-1.4064
G01 X1.8472 Y-1.3944
G01 X1.8223 Y-1.2951
G01 X1.8169 Y-1.2777
G01 X1.7820 Y-1.1803
G01 X1.7766 Y-1.1672
G01 X1.7629 Y-1.1383
G00 Z1.0000
G00 X4.2486 Y-1.6494
G01 F25.00
G01 Z-0.0400
G01 F120.00
G01 X4.2486 Y-1.6426
G01 X4.2438 Y-1.5446
G01 X4.2431 Y-1.5379
G01 X4.2281 Y-1.4375
G01 X4.2026 Y-1.3358
G01 X4.1685 Y-1.2402
G01 X4.1659 Y-1.2340
G01 X4.1225 Y-1.1422
G01 X4.0685 Y-1.0523
G01 X4.0061 Y-0.9681
G01 X3.9380 Y-0.8928
G01 X3.9332 Y-0.8880
G01 X3.8579 Y-0.8199
G01 X3.7765 Y-0.7594
G01 X3.7709 Y-0.7556
G01 X3.6838 Y-0.7035
G01 X3.5920 Y-0.6601
G01 X3.5858 Y-0.6575
G01 X3.4902 Y-0.6234
G01 X3.3918 Y-0.5986
G01 X3.3852 Y-0.5973
G01 X3.2847 Y-0.5825
G01 X3.1834 Y-0.5774
G01 X3.1766 Y-0.5774
G01 X3.0786 Y-0.5822
G01 X3.0719 Y-0.5829
G01 X2.9715 Y-0.5979
G01 X2.8730 Y-0.6225
G01 X2.8666 Y-0.6244
G01 X2.7710 Y-0.6587
G01 X2.6762 Y-0.7035
G01 X2.5891 Y-0.7556
G01 X2.5835 Y-0.7594
G01 X2.5047 Y-0.8178
G01 X2.4995 Y-0.8221
G01 X2.4244 Y-0.8904
G01 X2.3561 Y-0.9655
G01 X2.3518 Y-0.9707
G01 X2.2915 Y-1.0523
G01 X2.2392 Y-1.1393
G01 X2.2360 Y-1.1453
G01 X2.1927 Y-1.2370
G01 X2.1574 Y-1.3358
G01 X2.1326 Y-1.4342
G01 X2.1313 Y-1.4408
G01 X2.1165 Y-1.5413
G01 X2.1114 Y-1.6460
G01 X2.1162 Y-1.7474
G01 X2.1169 Y-1.7541
G01 X2.1319 Y-1.8545
G01 X2.1574 Y-1.9562
G01 X2.1915 Y-2.0518
G01 X2.1941 Y-2.0580
G01 X2.2375 Y-2.1498
G01 X2.2915 Y-2.2397
G01 X2.3539 Y-2.3239
G01 X2.4220 Y-2.3992
G01 X2.4268 Y-2.4040
G01 X2.5021 Y-2.4721
G01 X2.5863 Y-2.5345
G01 X2.6733 Y-2.5868
G01 X2.6793 Y-2.5900
G01 X2.7710 Y-2.6333
G01 X2.8698 Y-2.6686
G01 X2.9682 Y-2.6934
G01 X2.9748 Y-2.6947
G01 X3.0753 Y-2.7095
G01 X3.1800 Y-2.7146
G01 X3.2814 Y-2.7098
G01 X3.2881 Y-2.7091
G01 X3.3885 Y-2.6941
G01 X3.4902 Y-2.6686
G01 X3.5858 Y-2.6345
G01 X3.5920 Y-2.6319
G01 X3.6838 Y-2.5885
G01 X3.7709 Y-2.5364
G01 X3.7765 Y-2.5326
G01 X3.8579 Y-2.4721
G01 X3.9356 Y-2.4016
G01 X4.0061 Y-2.3239
G01 X4.0666 Y-2.2425
G01 X4.0704 Y-2.2369
G01 X4.1225 Y-2.1498
G01 X4.1673 Y-2.0550
G01 X4.2016 Y-1.9594
G01 X4.2035 Y-1.9530
G01 X4.2281 Y-1.8545
G01 X4.2431 Y-1.7541
G01 X4.2438 Y-1.7474
G01 X4.2486 Y-1.6494
G01 X4.3034 Y-1.6521
G01 X4.3034 Y-1.6399
G01 X4.2986 Y-1.5412
G01 X4.2974 Y-1.5299
G01 X4.2830 Y-1.4328
G01 X4.2807 Y-1.4209
G01 X4.2550 Y-1.3192
G01 X4.2183 Y-1.2167
G01 X4.1736 Y-1.1218
G01 X4.1679 Y-1.1111
G01 X4.1138 Y-1.0212
G01 X4.0508 Y-0.9361
G01 X4.0446 Y-0.9286
G01 X3.9787 Y-0.8559
G01 X3.9701 Y-0.8473
G01 X3.8923 Y-0.7770
G01 X3.8048 Y-0.7122
G01 X3.7149 Y-0.6581
G01 X3.7042 Y-0.6524
G01 X3.6093 Y-0.6077
G01 X3.5119 Y-0.5727
G01 X3.5003 Y-0.5692
G01 X3.3985 Y-0.5439
G01 X3.2961 Y-0.5286
G01 X3.2841 Y-0.5274
G01 X3.1793 Y-0.5224
G01 X3.0759 Y-0.5274
G01 X3.0639 Y-0.5286
G01 X2.9668 Y-0.5430
G01 X2.9549 Y-0.5453
G01 X2.8532 Y-0.5710
G01 X2.7557 Y-0.6058
G01 X2.7445 Y-0.6104
G01 X2.6498 Y-0.6554
G01 X2.5563 Y-0.7114
G01 X2.4720 Y-0.7737
G01 X2.4626 Y-0.7814
G01 X2.3850 Y-0.8520
G01 X2.3154 Y-0.9286
G01 X2.3077 Y-0.9380
G01 X2.2454 Y-1.0223
G01 X2.1894 Y-1.1158
G01 X2.1444 Y-1.2105
G01 X2.1398 Y-1.2217
G01 X2.1046 Y-1.3205
G01 X2.0785 Y-1.4245
G01 X2.0770 Y-1.4328
G01 X2.0618 Y-1.5365
G01 X2.0566 Y-1.6399
G01 X2.0566 Y-1.6521
G01 X2.0618 Y-1.7555
G01 X2.0770 Y-1.8592
G01 X2.0793 Y-1.8711
G01 X2.1046 Y-1.9715
G01 X2.1422 Y-2.0766
G01 X2.1864 Y-2.1702
G01 X2.1921 Y-2.1809
G01 X2.2462 Y-2.2708
G01 X2.3077 Y-2.3540
G01 X2.3154 Y-2.3634
G01 X2.3813 Y-2.4361
G01 X2.3899 Y-2.4447
G01 X2.4667 Y-2.5141
G01 X2.5563 Y-2.5806
G01 X2.6509 Y-2.6372
G01 X2.7445 Y-2.6816
G01 X2.7557 Y-2.6862
G01 X2.8545 Y-2.7214
G01 X2.9549 Y-2.7467
G01 X2.9668 Y-2.7490
G01 X3.0639 Y-2.7634
G01 X3.0759 Y-2.7646
G01 X3.1793 Y-2.7696
G01 X3.2841 Y-2.7646
G01 X3.2925 Y-2.7639
G01 X3.3999 Y-2.7478
G01 X3.5068 Y-2.7210
G01 X3.6106 Y-2.6838
G01 X3.7102 Y-2.6366
G01 X3.8048 Y-2.5798
G01 X3.8933 Y-2.5141
G01 X3.9750 Y-2.4400
G01 X4.0490 Y-2.3583
G01 X4.1138 Y-2.2708
G01 X4.1679 Y-2.1809
G01 X4.1736 Y-2.1702
G01 X4.2156 Y-2.0815
G01 X4.2202 Y-2.0703
G01 X4.2554 Y-1.9715
G01 X4.2821 Y-1.8645
G01 X4.2981 Y-1.7568
G01 X4.3034 Y-1.6521
G01 X4.4500 Y-1.4356
G01 X4.4453 Y-1.4041
G01 X4.4423 Y-1.3886
G01 X4.4164 Y-1.2849
G01 X4.4103 Y-1.2642
G01 X4.3963 Y-1.2248
G01 X4.4086 Y-1.2260
G01 X4.4212 Y-1.2266
G01 X4.4708 Y-1.2267
G01 X4.4874 Y-1.2262
G01 X4.5037 Y-1.2248
G01 X4.4897 Y-1.2642
G01 X4.4836 Y-1.2849
G01 X4.4577 Y-1.3886
G01 X4.4547 Y-1.4041
G01 X4.4500 Y-1.4356
G01 X4.3029 Y-1.1383
G01 X4.3388 Y-1.1536
G01 X4.3501 Y-1.1580
G01 X4.3663 Y-1.1631
G01 X4.3834 Y-1.1672
G01 X4.4005 Y-1.1700
G01 X4.4167 Y-1.1714
G01 X4.4285 Y-1.1718
G01 X4.4708 Y-1.1718
G01 X4.4864 Y-1.1712
G01 X4.5012 Y-1.1698
G01 X4.5159 Y-1.1674
G01 X4.5307 Y-1.1640
G01 X4.5440 Y-1.1600
G01 X4.5554 Y-1.1559
G01 X4.5971 Y-1.1383
G01 X4.5834 Y-1.1672
G01 X4.5780 Y-1.1803
G01 X4.5431 Y-1.2777
G01 X4.5377 Y-1.2951
G01 X4.5128 Y-1.3944
G01 X4.5101 Y-1.4064
G01 X4.4939 Y-1.5142
G01 X4.4920 Y-1.5318
G01 X4.4869 Y-1.6347
G01 X4.4866 Y-1.6467
G01 X4.4917 Y-1.7555
G01 X4.4926 Y-1.7676
G01 X4.5083 Y-1.8753
G01 X4.5102 Y-1.8860
G01 X4.5128 Y-1.8976
G01 X4.5383 Y-1.9992
G01 X4.5432 Y-2.0148
G01 X4.5801 Y-2.1171
G01 X4.5850 Y-2.1283
G01 X4.6272 Y-2.2173
G01 X4.6326 Y-2.2280
G01 X4.6379 Y-2.2374
G01 X4.6891 Y-2.3229
G01 X4.7003 Y-2.3395
G01 X4.7596 Y-2.4196
G01 X4.7670 Y-2.4290
G01 X4.8399 Y-2.5099
G01 X4.8474 Y-2.5177
G01 X4.8561 Y-2.5261
G01 X4.9368 Y-2.5988
G01 X4.9462 Y-2.6062
G01 X5.0244 Y-2.6642
G01 X3.8756 Y-2.6642
G01 X3.9538 Y-2.6062
G01 X3.9632 Y-2.5988
G01 X4.0439 Y-2.5261
G01 X4.0526 Y-2.5177
G01 X4.1260 Y-2.4371
G01 X4.1330 Y-2.4290
G01 X4.1404 Y-2.4196
G01 X4.1997 Y-2.3395
G01 X4.2109 Y-2.3229
G01 X4.2621 Y-2.2374
G01 X4.2674 Y-2.2280
G01 X4.2728 Y-2.2173
G01 X4.3150 Y-2.1283
G01 X4.3199 Y-2.1171
G01 X4.3568 Y-2.0148
G01 X4.3617 Y-1.9992
G01 X4.3624 Y-1.9966
G01 X4.3629 Y-1.9950
G01 X4.3630 Y-1.9945
G01 X4.3634 Y-1.9930
G01 X4.3872 Y-1.8976
G01 X4.3898 Y-1.8860
G01 X4.3917 Y-1.8753
G01 X4.4074 Y-1.7676
G01 X4.4083 Y-1.7555
G01 X4.4134 Y-1.6467
G01 X4.4131 Y-1.6347
G01 X4.4080 Y-1.5318
G01 X4.4061 Y-1.5142
G01 X4.4061 Y-1.5137
G01 X4.3917 Y-1.4167
G01 X4.3916 Y-1.4165
G01 X4.3899 Y-1.4064
G01 X4.3872 Y-1.3944
G01 X4.3623 Y-1.2951
G01 X4.3569 Y-1.2777
G01 X4.3220 Y-1.1803
G01 X4.3166 Y-1.1672
G01 X4.3029 Y-1.1383
G01 X4.3939 Y-2.4445
G01 X4.4500 Y-2.3512
G01 X4.5061 Y-2.4445
G01 X4.3939 Y-2.4445
G01 X4.2863 Y-2.4994
G01 X4.3352 Y-2.4333
G01 X4.3441 Y-2.4204
G01 X4.3526 Y-2.4069
G01 X4.3529 Y-2.4063
G01 X4.4034 Y-2.3221
G01 X4.4037 Y-2.3216
G01 X4.4116 Y-2.3078
G01 X4.4207 Y-2.2900
G01 X4.4500 Y-2.2281
G01 X4.4792 Y-2.2899
G01 X4.4884 Y-2.3078
G01 X4.4962 Y-2.3215
G01 X4.5475 Y-2.4071
G01 X4.5560 Y-2.4205
G01 X4.5648 Y-2.4334
G01 X4.6137 Y-2.4994
G01 X4.2863 Y-2.4994
G01 X4.1680 Y-2.5543
G01 X4.2088 Y-2.5093
G01 X4.2204 Y-2.4956
G01 X4.2901 Y-2.4020
G01 X4.3044 Y-2.3805
G01 X4.3568 Y-2.2931
G01 X4.3640 Y-2.2804
G01 X4.3709 Y-2.2669
G01 X4.3722 Y-2.2642
G01 X4.4142 Y-2.1754
G01 X4.4142 Y-2.1753
G01 X4.4183 Y-2.1665
G01 X4.4262 Y-2.1467
G01 X4.4500 Y-2.0802
G01 X4.4738 Y-2.1467
G01 X4.4817 Y-2.1665
G01 X4.5291 Y-2.2669
G01 X4.5358 Y-2.2801
G01 X4.5432 Y-2.2931
G01 X4.5956 Y-2.3805
G01 X4.6099 Y-2.4020
G01 X4.6796 Y-2.4956
G01 X4.6912 Y-2.5093
G01 X4.7320 Y-2.5543
G01 X4.1680 Y-2.5543
G01 X4.0338 Y-2.6093
G01 X4.0822 Y-2.5654
G01 X4.0944 Y-2.5535
G01 X4.1671 Y-2.4735
G01 X4.1787 Y-2.4598
G01 X4.2432 Y-2.3731
G01 X4.2516 Y-2.3612
G01 X4.2587 Y-2.3499
G01 X4.3140 Y-2.2573
G01 X4.3224 Y-2.2410
G01 X4.3647 Y-2.1517
G01 X4.3697 Y-2.1403
G01 X4.3711 Y-2.1370
G01 X4.3720 Y-2.1348
G01 X4.3722 Y-2.1343
G01 X4.3724 Y-2.1337
G01 X4.3725 Y-2.1336
G01 X4.3751 Y-2.1265
G01 X4.4100 Y-2.0288
G01 X4.4162 Y-2.0081
G01 X4.4417 Y-1.9062
G01 X4.4451 Y-1.8891
G01 X4.4500 Y-1.8564
G01 X4.4549 Y-1.8891
G01 X4.4583 Y-1.9062
G01 X4.4838 Y-2.0081
G01 X4.4900 Y-2.0288
G01 X4.5249 Y-2.1265
G01 X4.5303 Y-2.1403
G01 X4.5353 Y-2.1517
G01 X4.5776 Y-2.2410
G01 X4.5860 Y-2.2573
G01 X4.6413 Y-2.3499
G01 X4.6484 Y-2.3612
G01 X4.6568 Y-2.3731
G01 X4.7213 Y-2.4598
G01 X4.7329 Y-2.4735
G01 X4.8056 Y-2.5535
G01 X4.8178 Y-2.5654
G01 X4.8662 Y-2.6093
G01 X4.0338 Y-2.6093
G00 Z1.0000
G00 X6.5738 Y-2.6093
G01 F25.00
G01 Z-0.0400
G01 F120.00
G01 X6.6222 Y-2.5654
G01 X6.6344 Y-2.5535
G01 X6.7071 Y-2.4735
G01 X6.7187 Y-2.4598
G01 X6.7832 Y-2.3731
G01 X6.7916 Y-2.3612
G01 X6.7987 Y-2.3499
G01 X6.8540 Y-2.2573
G01 X6.8624 Y-2.2410
G01 X6.9047 Y-2.1517
G01 X6.9097 Y-2.1403
G01 X6.9151 Y-2.1265
G01 X6.9500 Y-2.0288
G01 X6.9562 Y-2.0081
G01 X6.9566 Y-2.0063
G01 X6.9805 Y-1.9111
G01 X6.9817 Y-1.9062
G01 X6.9851 Y-1.8891
G01 X6.9900 Y-1.8564
G01 X6.9949 Y-1.8891
G01 X6.9983 Y-1.9062
G01 X7.0238 Y-2.0081
G01 X7.0300 Y-2.0288
G01 X7.0649 Y-2.1265
G01 X7.0703 Y-2.1403
G01 X7.0753 Y-2.1517
G01 X7.1176 Y-2.2410
G01 X7.1260 Y-2.2573
G01 X7.1813 Y-2.3499
G01 X7.1884 Y-2.3612
G01 X7.1968 Y-2.3731
G01 X7.2613 Y-2.4598
G01 X7.2729 Y-2.4735
G01 X7.3456 Y-2.5535
G01 X7.3578 Y-2.5654
G01 X7.4062 Y-2.6093
G01 X6.5738 Y-2.6093
G01 X6.7080 Y-2.5543
G01 X6.7493 Y-2.5087
G01 X6.7627 Y-2.4927
G01 X6.8274 Y-2.4057
G01 X6.8372 Y-2.3917
G01 X6.8458 Y-2.3782
G01 X6.9022 Y-2.2836
G01 X6.9118 Y-2.2650
G01 X6.9122 Y-2.2642
G01 X6.9542 Y-2.1754
G01 X6.9543 Y-2.1751
G01 X6.9589 Y-2.1650
G01 X6.9662 Y-2.1466
G01 X6.9900 Y-2.0802
G01 X7.0138 Y-2.1467
G01 X7.0217 Y-2.1665
G01 X7.0691 Y-2.2669
G01 X7.0758 Y-2.2801
G01 X7.0832 Y-2.2931
G01 X7.1356 Y-2.3805
G01 X7.1499 Y-2.4020
G01 X7.2196 Y-2.4956
G01 X7.2312 Y-2.5093
G01 X7.2720 Y-2.5543
G01 X6.7080 Y-2.5543
G01 X6.8263 Y-2.4994
G01 X6.8752 Y-2.4333
G01 X6.8841 Y-2.4204
G01 X6.8926 Y-2.4069
G01 X6.8929 Y-2.4063
G01 X6.9434 Y-2.3221
G01 X6.9437 Y-2.3216
G01 X6.9516 Y-2.3078
G01 X6.9607 Y-2.2900
G01 X6.9900 Y-2.2281
G01 X7.0192 Y-2.2899
G01 X7.0284 Y-2.3078
G01 X7.0362 Y-2.3215
G01 X7.0875 Y-2.4071
G01 X7.0960 Y-2.4205
G01 X7.1048 Y-2.4334
G01 X7.1537 Y-2.4994
G01 X6.8263 Y-2.4994
G01 X6.9339 Y-2.4445
G01 X6.9900 Y-2.3512
G01 X7.0461 Y-2.4445
G01 X6.9339 Y-2.4445
G01 X6.9900 Y-1.4356
G01 X6.9853 Y-1.4041
G01 X6.9823 Y-1.3886
G01 X6.9564 Y-1.2849
G01 X6.9503 Y-1.2642
G01 X6.9363 Y-1.2248
G01 X6.9486 Y-1.2260
G01 X6.9612 Y-1.2266
G01 X7.0108 Y-1.2267
G01 X7.0274 Y-1.2262
G01 X7.0437 Y-1.2248
G01 X7.0297 Y-1.2642
G01 X7.0236 Y-1.2849
G01 X6.9977 Y-1.3886
G01 X6.9947 Y-1.4041
G01 X6.9900 Y-1.4356
G01 X7.1371 Y-1.1383
G01 X7.1234 Y-1.1672
G01 X7.1180 Y-1.1803
G01 X7.0831 Y-1.2777
G01 X7.0777 Y-1.2951
G01 X7.0528 Y-1.3944
G01 X7.0501 Y-1.4064
G01 X7.0339 Y-1.5142
G01 X7.0320 Y-1.5318
G01 X7.0269 Y-1.6347
G01 X7.0266 Y-1.6467
G01 X7.0317 Y-1.7555
G01 X7.0326 Y-1.7676
G01 X7.0483 Y-1.8753
G01 X7.0502 Y-1.8860
G01 X7.0528 Y-1.8976
G01 X7.0783 Y-1.9992
G01 X7.0832 Y-2.0148
G01 X7.1201 Y-2.1171
G01 X7.1250 Y-2.1283
G01 X7.1672 Y-2.2173
G01 X7.1726 Y-2.2280
G01 X7.1779 Y-2.2374
G01 X7.2291 Y-2.3229
G01 X7.2403 Y-2.3395
G01 X7.2996 Y-2.4196
G01 X7.3070 Y-2.4290
G01 X7.3799 Y-2.5099
G01 X7.3874 Y-2.5177
G01 X7.3961 Y-2.5261
G01 X7.4768 Y-2.5988
G01 X7.4862 Y-2.6062
G01 X7.5644 Y-2.6642
G01 X6.4156 Y-2.6642
G01 X6.4938 Y-2.6062
G01 X6.5032 Y-2.5988
G01 X6.5839 Y-2.5261
G01 X6.5926 Y-2.5177
G01 X6.6660 Y-2.4371
G01 X6.6730 Y-2.4290
G01 X6.6804 Y-2.4196
G01 X6.7397 Y-2.3395
G01 X6.7509 Y-2.3229
G01 X6.8021 Y-2.2374
G01 X6.8074 Y-2.2280
G01 X6.8128 Y-2.2173
G01 X6.8550 Y-2.1283
G01 X6.8599 Y-2.1171
G01 X6.8968 Y-2.0148
G01 X6.9017 Y-1.9992
G01 X6.9272 Y-1.8976
G01 X6.9298 Y-1.8860
G01 X6.9317 Y-1.8753
G01 X6.9474 Y-1.7676
G01 X6.9483 Y-1.7555
G01 X6.9534 Y-1.6467
G01 X6.9531 Y-1.6347
G01 X6.9480 Y-1.5318
G01 X6.9461 Y-1.5142
G01 X6.9299 Y-1.4064
G01 X6.9272 Y-1.3944
G01 X6.9023 Y-1.2951
G01 X6.8969 Y-1.2777
G01 X6.8620 Y-1.1803
G01 X6.8566 Y-1.1672
G01 X6.8429 Y-1.1383
G01 X6.8788 Y-1.1536
G01 X6.8901 Y-1.1580
G01 X6.9063 Y-1.1631
G01 X6.9234 Y-1.1672
G01 X6.9405 Y-1.1700
G01 X6.9567 Y-1.1714
G01 X6.9685 Y-1.1718
G01 X7.0108 Y-1.1718
G01 X7.0264 Y-1.1712
G01 X7.0412 Y-1.1698
G01 X7.0559 Y-1.1674
G01 X7.0707 Y-1.1640
G01 X7.0840 Y-1.1600
G01 X7.0954 Y-1.1559
G01 X7.1371 Y-1.1383
G00 Z1.0000
G00 X9.3286 Y-1.6494
G01 F25.00
G01 Z-0.0400
G01 F120.00
G01 X9.3286 Y-1.6426
G01 X9.3238 Y-1.5446
G01 X9.3231 Y-1.5379
G01 X9.3081 Y-1.4375
G01 X9.2826 Y-1.3358
G01 X9.2485 Y-1.2402
G01 X9.2459 Y-1.2340
G01 X9.2025 Y-1.1422
G01 X9.1485 Y-1.0523
G01 X9.0861 Y-0.9681
G01 X9.0180 Y-0.8928
G01 X9.0132 Y-0.8880
G01 X8.9379 Y-0.8199
G01 X8.8565 Y-0.7594
G01 X8.8509 Y-0.7556
G01 X8.7638 Y-0.7035
G01 X8.6720 Y-0.6601
G01 X8.6658 Y-0.6575
G01 X8.5702 Y-0.6234
G01 X8.4718 Y-0.5986
G01 X8.4652 Y-0.5973
G01 X8.3647 Y-0.5825
G01 X8.2634 Y-0.5774
G01 X8.2566 Y-0.5774
G01 X8.1586 Y-0.5822
G01 X8.1519 Y-0.5829
G01 X8.0515 Y-0.5979
G01 X7.9530 Y-0.6225
G01 X7.9466 Y-0.6244
G01 X7.8510 Y-0.6587
G01 X7.7562 Y-0.7035
G01 X7.6691 Y-0.7556
G01 X7.6635 Y-0.7594
G01 X7.5847 Y-0.8178
G01 X7.5795 Y-0.8221
G01 X7.5044 Y-0.8904
G01 X7.4361 Y-0.9655
G01 X7.4318 Y-0.9707
G01 X7.3715 Y-1.0523
G01 X7.3192 Y-1.1393
G01 X7.3160 Y-1.1453
G01 X7.2727 Y-1.2370
G01 X7.2374 Y-1.3358
G01 X7.2126 Y-1.4342
G01 X7.2113 Y-1.4408
G01 X7.1965 Y-1.5413
G01 X7.1914 Y-1.6460
G01 X7.1962 Y-1.7474
G01 X7.1969 Y-1.7541
G01 X7.2119 Y-1.8545
G01 X7.2374 Y-1.9562
G01 X7.2715 Y-2.0518
G01 X7.2741 Y-2.0580
G01 X7.3175 Y-2.1498
G01 X7.3715 Y-2.2397
G01 X7.4339 Y-2.3239
G01 X7.5020 Y-2.3992
G01 X7.5068 Y-2.4040
G01 X7.5821 Y-2.4721
G01 X7.6663 Y-2.5345
G01 X7.7533 Y-2.5868
G01 X7.7593 Y-2.5900
G01 X7.8510 Y-2.6333
G01 X7.9498 Y-2.6686
G01 X8.0482 Y-2.6934
G01 X8.0548 Y-2.6947
G01 X8.1553 Y-2.7095
G01 X8.2600 Y-2.7146
G01 X8.3614 Y-2.7098
G01 X8.3681 Y-2.7091
G01 X8.4685 Y-2.6941
G01 X8.5702 Y-2.6686
G01 X8.6658 Y-2.6345
G01 X8.6720 Y-2.6319
G01 X8.7638 Y-2.5885
G01 X8.8509 Y-2.5364
G01 X8.8565 Y-2.5326
G01 X8.9379 Y-2.4721
G01 X9.0156 Y-2.4016
G01 X9.0861 Y-2.3239
G01 X9.1466 Y-2.2425
G01 X9.1504 Y-2.2369
G01 X9.2025 Y-2.1498
G01 X9.2473 Y-2.0550
G01 X9.2816 Y-1.9594
G01 X9.2835 Y-1.9530
G01 X9.3081 Y-1.8545
G01 X9.3231 Y-1.7541
G01 X9.3238 Y-1.7474
G01 X9.3286 Y-1.6494
G01 X9.3834 Y-1.6521
G01 X9.3834 Y-1.6399
G01 X9.3786 Y-1.5412
G01 X9.3774 Y-1.5299
G01 X9.3630 Y-1.4328
G01 X9.3607 Y-1.4209
G01 X9.3350 Y-1.3192
G01 X9.2983 Y-1.2167
G01 X9.2536 Y-1.1218
G01 X9.2479 Y-1.1111
G01 X9.1938 Y-1.0212
G01 X9.1308 Y-0.9361
G01 X9.1246 Y-0.9286
G01 X9.0587 Y-0.8559
G01 X9.0501 Y-0.8473
G01 X8.9723 Y-0.7770
G01 X8.8848 Y-0.7122
G01 X8.7949 Y-0.6581
G01 X8.7842 Y-0.6524
G01 X8.6906 Y-0.6082
G01 X8.5919 Y-0.5727
G01 X8.5803 Y-0.5692
G01 X8.4785 Y-0.5439
G01 X8.3761 Y-0.5286
G01 X8.3641 Y-0.5274
G01 X8.2607 Y-0.5224
G01 X8.1559 Y-0.5274
G01 X8.1439 Y-0.5286
G01 X8.0468 Y-0.5430
G01 X8.0349 Y-0.5453
G01 X7.9332 Y-0.5710
G01 X7.8357 Y-0.6058
G01 X7.8245 Y-0.6104
G01 X7.7298 Y-0.6554
G01 X7.6363 Y-0.7114
G01 X7.5520 Y-0.7737
G01 X7.5426 Y-0.7814
G01 X7.4650 Y-0.8520
G01 X7.3954 Y-0.9286
G01 X7.3877 Y-0.9380
G01 X7.3254 Y-1.0223
G01 X7.2694 Y-1.1158
G01 X7.2244 Y-1.2105
G01 X7.2198 Y-1.2217
G01 X7.1846 Y-1.3205
G01 X7.1585 Y-1.4245
G01 X7.1570 Y-1.4328
G01 X7.1418 Y-1.5365
G01 X7.1366 Y-1.6399
G01 X7.1366 Y-1.6521
G01 X7.1418 Y-1.7555
G01 X7.1570 Y-1.8592
G01 X7.1593 Y-1.8711
G01 X7.1846 Y-1.9715
G01 X7.2222 Y-2.0766
G01 X7.2664 Y-2.1702
G01 X7.2721 Y-2.1809
G01 X7.3254 Y-2.2697
G01 X7.3877 Y-2.3540
G01 X7.3954 Y-2.3634
G01 X7.4613 Y-2.4361
G01 X7.4699 Y-2.4447
G01 X7.5467 Y-2.5141
G01 X7.6352 Y-2.5798
G01 X7.7309 Y-2.6372
G01 X7.8245 Y-2.6816
G01 X7.8357 Y-2.6862
G01 X7.9345 Y-2.7214
G01 X8.0349 Y-2.7467
G01 X8.0468 Y-2.7490
G01 X8.1439 Y-2.7634
G01 X8.1559 Y-2.7646
G01 X8.2593 Y-2.7696
G01 X8.3641 Y-2.7646
G01 X8.3725 Y-2.7639
G01 X8.4799 Y-2.7478
G01 X8.5868 Y-2.7210
G01 X8.6906 Y-2.6838
G01 X8.7902 Y-2.6366
G01 X8.8848 Y-2.5798
G01 X8.9733 Y-2.5141
G01 X9.0550 Y-2.4400
G01 X9.1290 Y-2.3583
G01 X9.1938 Y-2.2708
G01 X9.2479 Y-2.1809
G01 X9.2536 Y-2.1702
G01 X9.2956 Y-2.0815
G01 X9.3002 Y-2.0703
G01 X9.3354 Y-1.9715
G01 X9.3621 Y-1.8645
G01 X9.3781 Y-1.7568
G01 X9.3834 Y-1.6521
G01 X9.5300 Y-1.4356
G01 X9.5253 Y-1.4041
G01 X9.5223 Y-1.3886
G01 X9.4964 Y-1.2849
G01 X9.4903 Y-1.2642
G01 X9.4763 Y-1.2248
G01 X9.4886 Y-1.2260
G01 X9.5012 Y-1.2266
G01 X9.5508 Y-1.2267
G01 X9.5674 Y-1.2262
G01 X9.5837 Y-1.2248
G01 X9.5697 Y-1.2642
G01 X9.5636 Y-1.2849
G01 X9.5377 Y-1.3886
G01 X9.5347 Y-1.4041
G01 X9.5300 Y-1.4356
G01 X9.6771 Y-1.1383
G01 X9.6634 Y-1.1672
G01 X9.6580 Y-1.1803
G01 X9.6231 Y-1.2777
G01 X9.6177 Y-1.2951
G01 X9.5928 Y-1.3944
G01 X9.5901 Y-1.4064
G01 X9.5739 Y-1.5142
G01 X9.5720 Y-1.5318
G01 X9.5669 Y-1.6347
G01 X9.5666 Y-1.6467
G01 X9.5717 Y-1.7555
G01 X9.5726 Y-1.7676
G01 X9.5739 Y-1.7783
G01 X9.5883 Y-1.8753
G01 X9.5884 Y-1.8755
G01 X9.5902 Y-1.8860
G01 X9.5928 Y-1.8976
G01 X9.6183 Y-1.9992
G01 X9.6232 Y-2.0148
G01 X9.6601 Y-2.1171
G01 X9.6650 Y-2.1283
G01 X9.7072 Y-2.2173
G01 X9.7126 Y-2.2280
G01 X9.7179 Y-2.2374
G01 X9.7691 Y-2.3229
G01 X9.7803 Y-2.3395
G01 X9.8396 Y-2.4196
G01 X9.8470 Y-2.4290
G01 X9.8540 Y-2.4371
G01 X9.9274 Y-2.5177
G01 X9.9361 Y-2.5261
G01 X10.0168 Y-2.5988
G01 X10.0262 Y-2.6062
G01 X10.1044 Y-2.6642
G01 X8.9556 Y-2.6642
G01 X9.0338 Y-2.6062
G01 X9.0432 Y-2.5988
G01 X9.1239 Y-2.5261
G01 X9.1326 Y-2.5177
G01 X9.1401 Y-2.5099
G01 X9.2130 Y-2.4290
G01 X9.2204 Y-2.4196
G01 X9.2797 Y-2.3395
G01 X9.2909 Y-2.3229
G01 X9.3421 Y-2.2374
G01 X9.3474 Y-2.2280
G01 X9.3528 Y-2.2173
G01 X9.3950 Y-2.1283
G01 X9.3999 Y-2.1171
G01 X9.4368 Y-2.0148
G01 X9.4417 Y-1.9992
G01 X9.4672 Y-1.8976
G01 X9.4698 Y-1.8860
G01 X9.4861 Y-1.7783
G01 X9.4874 Y-1.7676
G01 X9.4883 Y-1.7555
G01 X9.4934 Y-1.6467
G01 X9.4931 Y-1.6347
G01 X9.4880 Y-1.5318
G01 X9.4861 Y-1.5142
G01 X9.4861 Y-1.5137
G01 X9.4717 Y-1.4167
G01 X9.4716 Y-1.4165
G01 X9.4699 Y-1.4064
G01 X9.4672 Y-1.3944
G01 X9.4423 Y-1.2951
G01 X9.4369 Y-1.2777
G01 X9.4020 Y-1.1803
G01 X9.3966 Y-1.1672
G01 X9.3829 Y-1.1383
G01 X9.4188 Y-1.1536
G01 X9.4301 Y-1.1580
G01 X9.4463 Y-1.1631
G01 X9.4634 Y-1.1672
G01 X9.4805 Y-1.1700
G01 X9.4967 Y-1.1714
G01 X9.5085 Y-1.1718
G01 X9.5508 Y-1.1718
G01 X9.5664 Y-1.1712
G01 X9.5812 Y-1.1698
G01 X9.5959 Y-1.1674
G01 X9.6107 Y-1.1640
G01 X9.6223 Y-1.1605
G01 X9.6354 Y-1.1559
G01 X9.6771 Y-1.1383
G01 X9.4739 Y-2.4445
G01 X9.5300 Y-2.3512
G01 X9.5861 Y-2.4445
G01 X9.4739 Y-2.4445
G01 X9.3663 Y-2.4994
G01 X9.4152 Y-2.4333
G01 X9.4241 Y-2.4204
G01 X9.4326 Y-2.4069
G01 X9.4837 Y-2.3216
G01 X9.4916 Y-2.3078
G01 X9.4963 Y-2.2990
G01 X9.4967 Y-2.2982
G01 X9.4967 Y-2.2981
G01 X9.4968 Y-2.2979
G01 X9.4972 Y-2.2972
G01 X9.4985 Y-2.2946
G01 X9.5007 Y-2.2900
G01 X9.5300 Y-2.2281
G01 X9.5592 Y-2.2899
G01 X9.5684 Y-2.3078
G01 X9.5762 Y-2.3215
G01 X9.6275 Y-2.4071
G01 X9.6360 Y-2.4205
G01 X9.6448 Y-2.4334
G01 X9.6937 Y-2.4994
G01 X9.3663 Y-2.4994
G01 X9.2480 Y-2.5543
G01 X9.2888 Y-2.5093
G01 X9.3004 Y-2.4956
G01 X9.3701 Y-2.4020
G01 X9.3844 Y-2.3805
G01 X9.4368 Y-2.2931
G01 X9.4440 Y-2.2804
G01 X9.4509 Y-2.2669
G01 X9.4983 Y-2.1665
G01 X9.5062 Y-2.1467
G01 X9.5300 Y-2.0802
G01 X9.5529 Y-2.1443
G01 X9.5538 Y-2.1467
G01 X9.5617 Y-2.1665
G01 X9.6091 Y-2.2669
G01 X9.6158 Y-2.2801
G01 X9.6232 Y-2.2931
G01 X9.6756 Y-2.3805
G01 X9.6899 Y-2.4020
G01 X9.7596 Y-2.4956
G01 X9.7712 Y-2.5093
G01 X9.8120 Y-2.5543
G01 X9.2480 Y-2.5543
G01 X9.1138 Y-2.6093
G01 X9.1622 Y-2.5654
G01 X9.1744 Y-2.5535
G01 X9.2471 Y-2.4735
G01 X9.2587 Y-2.4598
G01 X9.3232 Y-2.3731
G01 X9.3316 Y-2.3612
G01 X9.3387 Y-2.3499
G01 X9.3940 Y-2.2573
G01 X9.4024 Y-2.2410
G01 X9.4447 Y-2.1517
G01 X9.4497 Y-2.1403
G01 X9.4551 Y-2.1265
G01 X9.4900 Y-2.0288
G01 X9.4962 Y-2.0081
G01 X9.5217 Y-1.9062
G01 X9.5251 Y-1.8891
G01 X9.5300 Y-1.8564
G01 X9.5349 Y-1.8891
G01 X9.5383 Y-1.9062
G01 X9.5395 Y-1.9111
G01 X9.5634 Y-2.0063
G01 X9.5638 Y-2.0081
G01 X9.5700 Y-2.0288
G01 X9.6049 Y-2.1265
G01 X9.6103 Y-2.1403
G01 X9.6153 Y-2.1517
G01 X9.6576 Y-2.2410
G01 X9.6660 Y-2.2573
G01 X9.7213 Y-2.3499
G01 X9.7284 Y-2.3612
G01 X9.7368 Y-2.3731
G01 X9.8013 Y-2.4598
G01 X9.8129 Y-2.4735
G01 X9.8856 Y-2.5535
G01 X9.8978 Y-2.5654
G01 X9.9462 Y-2.6093
G01 X9.1138 Y-2.6093
G00 Z1.0000
G00 X11.6538 Y-2.6093
G01 F25.00
G01 Z-0.0400
G01 F120.00
G01 X11.7022 Y-2.5654
G01 X11.7144 Y-2.5535
G01 X11.7871 Y-2.4735
G01 X11.7987 Y-2.4598
G01 X11.8632 Y-2.3731
G01 X11.8716 Y-2.3612
G01 X11.8787 Y-2.3499
G01 X11.9340 Y-2.2573
G01 X11.9424 Y-2.2410
G01 X11.9426 Y-2.2407
G01 X11.9845 Y-2.1520
G01 X11.9847 Y-2.1517
G01 X11.9897 Y-2.1403
G01 X11.9951 Y-2.1265
G01 X12.0300 Y-2.0288
G01 X12.0362 Y-2.0081
G01 X12.0617 Y-1.9062
G01 X12.0651 Y-1.8891
G01 X12.0700 Y-1.8564
G01 X12.0749 Y-1.8891
G01 X12.0783 Y-1.9062
G01 X12.1038 Y-2.0081
G01 X12.1100 Y-2.0288
G01 X12.1449 Y-2.1265
G01 X12.1503 Y-2.1403
G01 X12.1553 Y-2.1517
G01 X12.1976 Y-2.2410
G01 X12.2060 Y-2.2573
G01 X12.2613 Y-2.3499
G01 X12.2684 Y-2.3612
G01 X12.2768 Y-2.3731
G01 X12.3413 Y-2.4598
G01 X12.3529 Y-2.4735
G01 X12.4256 Y-2.5535
G01 X12.4378 Y-2.5654
G01 X12.4862 Y-2.6093
G01 X11.6538 Y-2.6093
G01 X11.7880 Y-2.5543
G01 X11.8293 Y-2.5087
G01 X11.8427 Y-2.4927
G01 X11.9074 Y-2.4057
G01 X11.9172 Y-2.3917
G01 X11.9258 Y-2.3782
G01 X11.9822 Y-2.2836
G01 X11.9918 Y-2.2650
G01 X11.9922 Y-2.2642
G01 X12.0342 Y-2.1754
G01 X12.0343 Y-2.1751
G01 X12.0389 Y-2.1650
G01 X12.0462 Y-2.1466
G01 X12.0700 Y-2.0802
G01 X12.0938 Y-2.1467
G01 X12.1017 Y-2.1665
G01 X12.1491 Y-2.2669
G01 X12.1558 Y-2.2801
G01 X12.1632 Y-2.2931
G01 X12.2156 Y-2.3805
G01 X12.2299 Y-2.4020
G01 X12.2996 Y-2.4956
G01 X12.3112 Y-2.5093
G01 X12.3520 Y-2.5543
G01 X11.7880 Y-2.5543
G01 X11.9063 Y-2.4994
G01 X11.9552 Y-2.4333
G01 X11.9641 Y-2.4204
G01 X11.9726 Y-2.4069
G01 X11.9729 Y-2.4063
G01 X12.0234 Y-2.3221
G01 X12.0237 Y-2.3216
G01 X12.0316 Y-2.3078
G01 X12.0407 Y-2.2900
G01 X12.0700 Y-2.2281
G01 X12.0992 Y-2.2899
G01 X12.1084 Y-2.3078
G01 X12.1162 Y-2.3215
G01 X12.1675 Y-2.4071
G01 X12.1760 Y-2.4205
G01 X12.1848 Y-2.4334
G01 X12.2337 Y-2.4994
G01 X11.9063 Y-2.4994
G01 X12.0139 Y-2.4445
G01 X12.0700 Y-2.3512
G01 X12.1261 Y-2.4445
G01 X12.0139 Y-2.4445
G01 X11.9234 Y-1.6521
G01 X11.9234 Y-1.6399
G01 X11.9186 Y-1.5419
G01 X11.9179 Y-1.5335
G01 X11.9021 Y-1.4275
G01 X11.8762 Y-1.3234
G01 X11.8733 Y-1.3141
G01 X11.8383 Y-1.2167
G01 X11.7936 Y-1.1218
G01 X11.7879 Y-1.1111
G01 X11.7375 Y-1.0269
G01 X11.7307 Y-1.0168
G01 X11.6681 Y-0.9327
G01 X11.5940 Y-0.8510
G01 X11.5133 Y-0.7779
G01 X11.4292 Y-0.7153
G01 X11.4191 Y-0.7085
G01 X11.3302 Y-0.6554
G01 X11.2306 Y-0.6082
G01 X11.1255 Y-0.5706
G01 X11.0251 Y-0.5453
G01 X11.0132 Y-0.5430
G01 X10.9161 Y-0.5286
G01 X10.9041 Y-0.5274
G01 X10.8007 Y-0.5224
G01 X10.6959 Y-0.5274
G01 X10.6839 Y-0.5286
G01 X10.5815 Y-0.5439
G01 X10.4745 Y-0.5706
G01 X10.3694 Y-0.6082
G01 X10.2758 Y-0.6524
G01 X10.2651 Y-0.6581
G01 X10.1763 Y-0.7114
G01 X10.0920 Y-0.7737
G01 X10.0826 Y-0.7814
G01 X10.0099 Y-0.8473
G01 X10.0013 Y-0.8559
G01 X9.9319 Y-0.9327
G01 X9.8662 Y-1.0212
G01 X9.8088 Y-1.1169
G01 X9.7644 Y-1.2105
G01 X9.7606 Y-1.2195
G01 X9.7267 Y-1.3141
G01 X9.7232 Y-1.3257
G01 X9.6982 Y-1.4261
G01 X9.6826 Y-1.5299
G01 X9.6814 Y-1.5419
G01 X9.6764 Y-1.6453
G01 X9.6819 Y-1.7568
G01 X9.6970 Y-1.8592
G01 X9.6993 Y-1.8711
G01 X9.7246 Y-1.9715
G01 X9.7598 Y-2.0703
G01 X9.7644 Y-2.0815
G01 X9.8088 Y-2.1751
G01 X9.8662 Y-2.2708
G01 X9.9277 Y-2.3540
G01 X9.9354 Y-2.3634
G01 X10.0060 Y-2.4410
G01 X10.0826 Y-2.5106
G01 X10.0920 Y-2.5183
G01 X10.1752 Y-2.5798
G01 X10.2709 Y-2.6372
G01 X10.3645 Y-2.6816
G01 X10.3757 Y-2.6862
G01 X10.4745 Y-2.7214
G01 X10.5749 Y-2.7467
G01 X10.5868 Y-2.7490
G01 X10.6892 Y-2.7641
G01 X10.7939 Y-2.7694
G01 X10.8037 Y-2.7695
G01 X10.9041 Y-2.7646
G01 X10.9161 Y-2.7634
G01 X11.0199 Y-2.7478
G01 X11.1203 Y-2.7228
G01 X11.1319 Y-2.7193
G01 X11.2293 Y-2.6843
G01 X11.3302 Y-2.6366
G01 X11.4191 Y-2.5835
G01 X11.4292 Y-2.5767
G01 X11.5123 Y-2.5150
G01 X11.5901 Y-2.4447
G01 X11.5987 Y-2.4361
G01 X11.6681 Y-2.3593
G01 X11.7307 Y-2.2752
G01 X11.7355 Y-2.2682
G01 X11.7906 Y-2.1762
G01 X11.8356 Y-2.0815
G01 X11.8402 Y-2.0703
G01 X11.8750 Y-1.9728
G01 X11.9007 Y-1.8711
G01 X11.9030 Y-1.8592
G01 X11.9182 Y-1.7555
G01 X11.9234 Y-1.6521
G01 X11.8686 Y-1.6494
G01 X11.8686 Y-1.6426
G01 X11.8635 Y-1.5413
G01 X11.8481 Y-1.4375
G01 X11.8226 Y-1.3358
G01 X11.7885 Y-1.2402
G01 X11.7859 Y-1.2340
G01 X11.7425 Y-1.1422
G01 X11.6904 Y-1.0551
G01 X11.6866 Y-1.0495
G01 X11.6261 Y-0.9681
G01 X11.5580 Y-0.8928
G01 X11.5532 Y-0.8880
G01 X11.4779 Y-0.8199
G01 X11.3965 Y-0.7594
G01 X11.3909 Y-0.7556
G01 X11.3038 Y-0.7035
G01 X11.2120 Y-0.6601
G01 X11.2058 Y-0.6575
G01 X11.1102 Y-0.6234
G01 X11.0118 Y-0.5986
G01 X11.0052 Y-0.5973
G01 X10.9081 Y-0.5829
G01 X10.9014 Y-0.5822
G01 X10.8000 Y-0.5774
G01 X10.6986 Y-0.5822
G01 X10.6919 Y-0.5829
G01 X10.5915 Y-0.5979
G01 X10.4930 Y-0.6225
G01 X10.4866 Y-0.6244
G01 X10.3910 Y-0.6587
G01 X10.2962 Y-0.7035
G01 X10.2091 Y-0.7556
G01 X10.2035 Y-0.7594
G01 X10.1221 Y-0.8199
G01 X10.0468 Y-0.8880
G01 X10.0420 Y-0.8928
G01 X9.9750 Y-0.9668
G01 X9.9134 Y-1.0495
G01 X9.9096 Y-1.0551
G01 X9.8575 Y-1.1422
G01 X9.8141 Y-1.2340
G01 X9.8115 Y-1.2402
G01 X9.7774 Y-1.3358
G01 X9.7526 Y-1.4342
G01 X9.7513 Y-1.4408
G01 X9.7365 Y-1.5413
G01 X9.7314 Y-1.6426
G01 X9.7314 Y-1.6494
G01 X9.7365 Y-1.7507
G01 X9.7513 Y-1.8512
G01 X9.7526 Y-1.8578
G01 X9.7774 Y-1.9562
G01 X9.8127 Y-2.0550
G01 X9.8560 Y-2.1467
G01 X9.8592 Y-2.1527
G01 X9.9115 Y-2.2397
G01 X9.9739 Y-2.3239
G01 X10.0420 Y-2.3992
G01 X10.0468 Y-2.4040
G01 X10.1221 Y-2.4721
G01 X10.2035 Y-2.5326
G01 X10.2091 Y-2.5364
G01 X10.2962 Y-2.5885
G01 X10.3880 Y-2.6319
G01 X10.3942 Y-2.6345
G01 X10.4898 Y-2.6686
G01 X10.5882 Y-2.6934
G01 X10.5948 Y-2.6947
G01 X10.6969 Y-2.7096
G01 X10.8000 Y-2.7146
G01 X10.9014 Y-2.7098
G01 X10.9081 Y-2.7091
G01 X11.0052 Y-2.6947
G01 X11.0118 Y-2.6934
G01 X11.1102 Y-2.6686
G01 X11.2058 Y-2.6345
G01 X11.2120 Y-2.6319
G01 X11.3038 Y-2.5885
G01 X11.3937 Y-2.5345
G01 X11.4779 Y-2.4721
G01 X11.5568 Y-2.4004
G01 X11.6261 Y-2.3239
G01 X11.6885 Y-2.2397
G01 X11.7425 Y-2.1498
G01 X11.7873 Y-2.0550
G01 X11.8226 Y-1.9562
G01 X11.8481 Y-1.8545
G01 X11.8635 Y-1.7507
G01 X11.8686 Y-1.6494
G01 X12.0700 Y-1.4356
G01 X12.0653 Y-1.4041
G01 X12.0623 Y-1.3886
G01 X12.0364 Y-1.2849
G01 X12.0303 Y-1.2642
G01 X12.0163 Y-1.2248
G01 X12.0286 Y-1.2260
G01 X12.0412 Y-1.2266
G01 X12.0908 Y-1.2267
G01 X12.1074 Y-1.2262
G01 X12.1237 Y-1.2248
G01 X12.1097 Y-1.2642
G01 X12.1036 Y-1.2849
G01 X12.0777 Y-1.3886
G01 X12.0747 Y-1.4041
G01 X12.0700 Y-1.4356
G01 X12.2171 Y-1.1383
G01 X12.2034 Y-1.1672
G01 X12.1980 Y-1.1803
G01 X12.1631 Y-1.2777
G01 X12.1577 Y-1.2951
G01 X12.1328 Y-1.3944
G01 X12.1301 Y-1.4064
G01 X12.1139 Y-1.5142
G01 X12.1120 Y-1.5318
G01 X12.1069 Y-1.6347
G01 X12.1066 Y-1.6467
G01 X12.1117 Y-1.7555
G01 X12.1126 Y-1.7676
G01 X12.1139 Y-1.7783
G01 X12.1302 Y-1.8860
G01 X12.1328 Y-1.8976
G01 X12.1583 Y-1.9992
G01 X12.1632 Y-2.0148
G01 X12.2001 Y-2.1171
G01 X12.2050 Y-2.1283
G01 X12.2472 Y-2.2173
G01 X12.2526 Y-2.2280
G01 X12.2579 Y-2.2374
G01 X12.3091 Y-2.3229
G01 X12.3203 Y-2.3395
G01 X12.3796 Y-2.4196
G01 X12.3870 Y-2.4290
G01 X12.3940 Y-2.4371
G01 X12.4674 Y-2.5177
G01 X12.4761 Y-2.5261
G01 X12.5568 Y-2.5988
G01 X12.5662 Y-2.6062
G01 X12.6444 Y-2.6642
G01 X11.4956 Y-2.6642
G01 X11.5738 Y-2.6062
G01 X11.5832 Y-2.5988
G01 X11.6639 Y-2.5261
G01 X11.6726 Y-2.5177
G01 X11.6801 Y-2.5099
G01 X11.7530 Y-2.4290
G01 X11.7604 Y-2.4196
G01 X11.8197 Y-2.3395
G01 X11.8309 Y-2.3229
G01 X11.8821 Y-2.2374
G01 X11.8874 Y-2.2280
G01 X11.8928 Y-2.2173
G01 X11.9350 Y-2.1283
G01 X11.9399 Y-2.1171
G01 X11.9436 Y-2.1075
G01 X11.9436 Y-2.1073
G01 X11.9767 Y-2.0149
G01 X11.9768 Y-2.0148
G01 X11.9817 Y-1.9992
G01 X12.0072 Y-1.8976
G01 X12.0098 Y-1.8860
G01 X12.0261 Y-1.7783
G01 X12.0274 Y-1.7676
G01 X12.0283 Y-1.7555
G01 X12.0334 Y-1.6467
G01 X12.0331 Y-1.6347
G01 X12.0280 Y-1.5318
G01 X12.0261 Y-1.5142
G01 X12.0261 Y-1.5137
G01 X12.0117 Y-1.4167
G01 X12.0116 Y-1.4165
G01 X12.0099 Y-1.4064
G01 X12.0072 Y-1.3944
G01 X11.9823 Y-1.2951
G01 X11.9769 Y-1.2777
G01 X11.9420 Y-1.1803
G01 X11.9366 Y-1.1672
G01 X11.9229 Y-1.1383
G01 X11.9588 Y-1.1536
G01 X11.9701 Y-1.1580
G01 X11.9863 Y-1.1631
G01 X12.0034 Y-1.1672
G01 X12.0205 Y-1.1700
G01 X12.0367 Y-1.1714
G01 X12.0485 Y-1.1718
G01 X12.0908 Y-1.1718
G01 X12.1064 Y-1.1712
G01 X12.1212 Y-1.1698
G01 X12.1359 Y-1.1674
G01 X12.1507 Y-1.1640
G01 X12.1623 Y-1.1605
G01 X12.1754 Y-1.1559
G01 X12.2171 Y-1.1383
G00 Z1.0000
G00 X14.4086 Y-1.6494
G01 F25.00
G01 Z-0.0400
G01 F120.00
G01 X14.4086 Y-1.6426
G01 X14.4038 Y-1.5446
G01 X14.4031 Y-1.5379
G01 X14.3881 Y-1.4375
G01 X14.3626 Y-1.3358
G01 X14.3285 Y-1.2402
G01 X14.3259 Y-1.2340
G01 X14.2825 Y-1.1422
G01 X14.2285 Y-1.0523
G01 X14.1661 Y-0.9681
G01 X14.0980 Y-0.8928
G01 X14.0932 Y-0.8880
G01 X14.0179 Y-0.8199
G01 X13.9365 Y-0.7594
G01 X13.9309 Y-0.7556
G01 X13.8438 Y-0.7035
G01 X13.7520 Y-0.6601
G01 X13.7458 Y-0.6575
G01 X13.6502 Y-0.6234
G01 X13.5518 Y-0.5986
G01 X13.5452 Y-0.5973
G01 X13.4447 Y-0.5825
G01 X13.3434 Y-0.5774
G01 X13.3366 Y-0.5774
G01 X13.2386 Y-0.5822
G01 X13.2319 Y-0.5829
G01 X13.1315 Y-0.5979
G01 X13.0330 Y-0.6225
G01 X13.0266 Y-0.6244
G01 X12.9310 Y-0.6587
G01 X12.8362 Y-0.7035
G01 X12.7491 Y-0.7556
G01 X12.7435 Y-0.7594
G01 X12.6647 Y-0.8178
G01 X12.6595 Y-0.8221
G01 X12.5844 Y-0.8904
G01 X12.5161 Y-0.9655
G01 X12.5118 Y-0.9707
G01 X12.4515 Y-1.0523
G01 X12.3992 Y-1.1393
G01 X12.3960 Y-1.1453
G01 X12.3527 Y-1.2370
G01 X12.3174 Y-1.3358
G01 X12.2926 Y-1.4342
G01 X12.2913 Y-1.4408
G01 X12.2765 Y-1.5413
G01 X12.2714 Y-1.6460
G01 X12.2762 Y-1.7474
G01 X12.2769 Y-1.7541
G01 X12.2919 Y-1.8545
G01 X12.3174 Y-1.9562
G01 X12.3515 Y-2.0518
G01 X12.3541 Y-2.0580
G01 X12.3975 Y-2.1498
G01 X12.4515 Y-2.2397
G01 X12.5139 Y-2.3239
G01 X12.5820 Y-2.3992
G01 X12.5868 Y-2.4040
G01 X12.6621 Y-2.4721
G01 X12.7463 Y-2.5345
G01 X12.8333 Y-2.5868
G01 X12.8393 Y-2.5900
G01 X12.9310 Y-2.6333
G01 X13.0298 Y-2.6686
G01 X13.1282 Y-2.6934
G01 X13.1348 Y-2.6947
G01 X13.2353 Y-2.7095
G01 X13.3400 Y-2.7146
G01 X13.4414 Y-2.7098
G01 X13.4481 Y-2.7091
G01 X13.5485 Y-2.6941
G01 X13.6502 Y-2.6686
G01 X13.7458 Y-2.6345
G01 X13.7520 Y-2.6319
G01 X13.8438 Y-2.5885
G01 X13.9309 Y-2.5364
G01 X13.9365 Y-2.5326
G01 X14.0179 Y-2.4721
G01 X14.0956 Y-2.4016
G01 X14.1661 Y-2.3239
G01 X14.2266 Y-2.2425
G01 X14.2304 Y-2.2369
G01 X14.2825 Y-2.1498
G01 X14.3273 Y-2.0550
G01 X14.3616 Y-1.9594
G01 X14.3635 Y-1.9530
G01 X14.3881 Y-1.8545
G01 X14.4031 Y-1.7541
G01 X14.4038 Y-1.7474
G01 X14.4086 Y-1.6494
G01 X14.4634 Y-1.6521
G01 X14.4634 Y-1.6399
G01 X14.4586 Y-1.5412
G01 X14.4574 Y-1.5299
G01 X14.4430 Y-1.4328
G01 X14.4407 Y-1.4209
G01 X14.4150 Y-1.3192
G01 X14.3783 Y-1.2167
G01 X14.3336 Y-1.1218
G01 X14.3279 Y-1.1111
G01 X14.2738 Y-1.0212
G01 X14.2108 Y-0.9361
G01 X14.2046 Y-0.9286
G01 X14.1387 Y-0.8559
G01 X14.1301 Y-0.8473
G01 X14.0523 Y-0.7770
G01 X13.9648 Y-0.7122
G01 X13.8749 Y-0.6581
G01 X13.8642 Y-0.6524
G01 X13.7706 Y-0.6082
G01 X13.6719 Y-0.5727
G01 X13.6603 Y-0.5692
G01 X13.5585 Y-0.5439
G01 X13.4561 Y-0.5286
G01 X13.4441 Y-0.5274
G01 X13.3407 Y-0.5224
G01 X13.2359 Y-0.5274
G01 X13.2239 Y-0.5286
G01 X13.1268 Y-0.5430
G01 X13.1149 Y-0.5453
G01 X13.0132 Y-0.5710
G01 X12.9157 Y-0.6058
G01 X12.9045 Y-0.6104
G01 X12.8098 Y-0.6554
G01 X12.7163 Y-0.7114
G01 X12.6320 Y-0.7737
G01 X12.6226 Y-0.7814
G01 X12.5450 Y-0.8520
G01 X12.4754 Y-0.9286
G01 X12.4677 Y-0.9380
G01 X12.4054 Y-1.0223
G01 X12.3494 Y-1.1158
G01 X12.3044 Y-1.2105
G01 X12.2998 Y-1.2217
G01 X12.2646 Y-1.3205
G01 X12.2385 Y-1.4245
G01 X12.2370 Y-1.4328
G01 X12.2218 Y-1.5365
G01 X12.2166 Y-1.6399
G01 X12.2166 Y-1.6521
G01 X12.2219 Y-1.7568
G01 X12.2370 Y-1.8592
G01 X12.2393 Y-1.8711
G01 X12.2646 Y-1.9715
G01 X12.3022 Y-2.0766
G01 X12.3464 Y-2.1702
G01 X12.3521 Y-2.1809
G01 X12.4054 Y-2.2697
G01 X12.4677 Y-2.3540
G01 X12.4754 Y-2.3634
G01 X12.5413 Y-2.4361
G01 X12.5499 Y-2.4447
G01 X12.6267 Y-2.5141
G01 X12.7163 Y-2.5806
G01 X12.8109 Y-2.6372
G01 X12.9045 Y-2.6816
G01 X12.9157 Y-2.6862
G01 X13.0145 Y-2.7214
G01 X13.1149 Y-2.7467
G01 X13.1268 Y-2.7490
G01 X13.2239 Y-2.7634
G01 X13.2359 Y-2.7646
G01 X13.3393 Y-2.7696
G01 X13.4441 Y-2.7646
G01 X13.4525 Y-2.7639
G01 X13.5599 Y-2.7478
G01 X13.6668 Y-2.7210
G01 X13.7706 Y-2.6838
G01 X13.8702 Y-2.6366
G01 X13.9648 Y-2.5798
G01 X14.0533 Y-2.5141
G01 X14.1350 Y-2.4400
G01 X14.2090 Y-2.3583
G01 X14.2738 Y-2.2708
G01 X14.3279 Y-2.1809
G01 X14.3336 Y-2.1702
G01 X14.3756 Y-2.0815
G01 X14.3802 Y-2.0703
G01 X14.4154 Y-1.9715
G01 X14.4421 Y-1.8645
G01 X14.4581 Y-1.7568
G01 X14.4634 Y-1.6521
G01 X14.6100 Y-1.4356
G01 X14.6053 Y-1.4041
G01 X14.6023 Y-1.3886
G01 X14.5764 Y-1.2849
G01 X14.5703 Y-1.2642
G01 X14.5561 Y-1.2241
G01 X14.5739 Y-1.2254
G01 X14.6248 Y-1.2272
G01 X14.6437 Y-1.2267
G01 X14.6636 Y-1.2249
G01 X14.6497 Y-1.2642
G01 X14.6435 Y-1.2850
G01 X14.6177 Y-1.3886
G01 X14.6147 Y-1.4041
G01 X14.6100 Y-1.4356
G01 X14.7569 Y-1.1386
G01 X14.7434 Y-1.1672
G01 X14.7378 Y-1.1809
G01 X14.7028 Y-1.2784
G01 X14.6976 Y-1.2954
G01 X14.6728 Y-1.3944
G01 X14.6701 Y-1.4064
G01 X14.6539 Y-1.5142
G01 X14.6520 Y-1.5318
G01 X14.6469 Y-1.6347
G01 X14.6466 Y-1.6467
G01 X14.6517 Y-1.7555
G01 X14.6526 Y-1.7676
G01 X14.6539 Y-1.7783
G01 X14.6683 Y-1.8753
G01 X14.6684 Y-1.8755
G01 X14.6702 Y-1.8860
G01 X14.6728 Y-1.8976
G01 X14.6984 Y-1.9995
G01 X14.7032 Y-2.0148
G01 X14.7401 Y-2.1171
G01 X14.7450 Y-2.1283
G01 X14.7872 Y-2.2173
G01 X14.7926 Y-2.2280
G01 X14.7979 Y-2.2374
G01 X14.8491 Y-2.3229
G01 X14.8603 Y-2.3395
G01 X14.9196 Y-2.4196
G01 X14.9270 Y-2.4290
G01 X14.9340 Y-2.4371
G01 X15.0074 Y-2.5177
G01 X15.0161 Y-2.5261
G01 X15.0968 Y-2.5988
G01 X15.1062 Y-2.6062
G01 X15.1844 Y-2.6642
G01 X14.0356 Y-2.6642
G01 X14.1138 Y-2.6062
G01 X14.1232 Y-2.5988
G01 X14.2039 Y-2.5261
G01 X14.2126 Y-2.5177
G01 X14.2201 Y-2.5099
G01 X14.2930 Y-2.4290
G01 X14.3004 Y-2.4196
G01 X14.3597 Y-2.3395
G01 X14.3709 Y-2.3229
G01 X14.4221 Y-2.2374
G01 X14.4274 Y-2.2280
G01 X14.4328 Y-2.2173
G01 X14.4750 Y-2.1283
G01 X14.4799 Y-2.1171
G01 X14.5168 Y-2.0148
G01 X14.5217 Y-1.9992
G01 X14.5472 Y-1.8976
G01 X14.5498 Y-1.8860
G01 X14.5661 Y-1.7783
G01 X14.5674 Y-1.7676
G01 X14.5683 Y-1.7555
G01 X14.5734 Y-1.6467
G01 X14.5731 Y-1.6347
G01 X14.5680 Y-1.5318
G01 X14.5661 Y-1.5142
G01 X14.5661 Y-1.5137
G01 X14.5517 Y-1.4167
G01 X14.5516 Y-1.4165
G01 X14.5499 Y-1.4064
G01 X14.5472 Y-1.3944
G01 X14.5223 Y-1.2951
G01 X14.5169 Y-1.2777
G01 X14.4820 Y-1.1803
G01 X14.4764 Y-1.1669
G01 X14.4624 Y-1.1372
G01 X14.4927 Y-1.1510
G01 X14.5043 Y-1.1557
G01 X14.5206 Y-1.1612
G01 X14.5375 Y-1.1655
G01 X14.5531 Y-1.1683
G01 X14.5685 Y-1.1701
G01 X14.6258 Y-1.1723
G01 X14.6404 Y-1.1719
G01 X14.6560 Y-1.1705
G01 X14.6707 Y-1.1682
G01 X14.6850 Y-1.1650
G01 X14.6971 Y-1.1616
G01 X14.7078 Y-1.1580
G01 X14.7569 Y-1.1386
G01 X14.5539 Y-2.4445
G01 X14.6100 Y-2.3512
G01 X14.6661 Y-2.4445
G01 X14.5539 Y-2.4445
G01 X14.4463 Y-2.4994
G01 X14.4952 Y-2.4333
G01 X14.5041 Y-2.4204
G01 X14.5126 Y-2.4069
G01 X14.5637 Y-2.3216
G01 X14.5716 Y-2.3078
G01 X14.5763 Y-2.2990
G01 X14.5767 Y-2.2982
G01 X14.5767 Y-2.2981
G01 X14.5768 Y-2.2979
G01 X14.5772 Y-2.2972
G01 X14.5785 Y-2.2946
G01 X14.5807 Y-2.2900
G01 X14.6100 Y-2.2281
G01 X14.6392 Y-2.2899
G01 X14.6484 Y-2.3078
G01 X14.6562 Y-2.3215
G01 X14.7075 Y-2.4071
G01 X14.7160 Y-2.4205
G01 X14.7248 Y-2.4334
G01 X14.7737 Y-2.4994
G01 X14.4463 Y-2.4994
G01 X14.3280 Y-2.5543
G01 X14.3688 Y-2.5093
G01 X14.3804 Y-2.4956
G01 X14.4501 Y-2.4020
G01 X14.4644 Y-2.3805
G01 X14.5168 Y-2.2931
G01 X14.5240 Y-2.2804
G01 X14.5309 Y-2.2669
G01 X14.5783 Y-2.1665
G01 X14.5862 Y-2.1467
G01 X14.6100 Y-2.0802
G01 X14.6329 Y-2.1443
G01 X14.6338 Y-2.1467
G01 X14.6417 Y-2.1665
G01 X14.6891 Y-2.2669
G01 X14.6958 Y-2.2801
G01 X14.7032 Y-2.2931
G01 X14.7556 Y-2.3805
G01 X14.7699 Y-2.4020
G01 X14.8396 Y-2.4956
G01 X14.8512 Y-2.5093
G01 X14.8920 Y-2.5543
G01 X14.3280 Y-2.5543
G01 X14.1938 Y-2.6093
G01 X14.2422 Y-2.5654
G01 X14.2544 Y-2.5535
G01 X14.3271 Y-2.4735
G01 X14.3387 Y-2.4598
G01 X14.4032 Y-2.3731
G01 X14.4116 Y-2.3612
G01 X14.4187 Y-2.3499
G01 X14.4740 Y-2.2573
G01 X14.4824 Y-2.2410
G01 X14.5247 Y-2.1517
G01 X14.5297 Y-2.1403
G01 X14.5351 Y-2.1265
G01 X14.5700 Y-2.0288
G01 X14.5762 Y-2.0081
G01 X14.6017 Y-1.9062
G01 X14.6051 Y-1.8891
G01 X14.6100 Y-1.8564
G01 X14.6149 Y-1.8891
G01 X14.6183 Y-1.9062
G01 X14.6195 Y-1.9111
G01 X14.6434 Y-2.0063
G01 X14.6438 Y-2.0081
G01 X14.6500 Y-2.0288
G01 X14.6849 Y-2.1265
G01 X14.6903 Y-2.1403
G01 X14.6953 Y-2.1517
G01 X14.7376 Y-2.2410
G01 X14.7460 Y-2.2573
G01 X14.8013 Y-2.3499
G01 X14.8084 Y-2.3612
G01 X14.8168 Y-2.3731
G01 X14.8813 Y-2.4598
G01 X14.8929 Y-2.4735
G01 X14.9656 Y-2.5535
G01 X14.9778 Y-2.5654
G01 X15.0262 Y-2.6093
G01 X14.1938 Y-2.6093
G00 Z1.0000
G00 X16.3646 Y-2.7191
G01 F25.00
G01 Z-0.0400
G01 F120.00
G01 X16.4071 Y-2.6990
G01 X16.3870 Y-2.7191
G01 X16.3646 Y-2.7191
G00 Z1.0000
G00 X16.9486 Y-1.6494
G01 F25.00
G01 Z-0.0400
G01 F120.00
G01 X16.9486 Y-1.6426
G01 X16.9435 Y-1.5413
G01 X16.9287 Y-1.4408
G01 X16.9274 Y-1.4342
G01 X16.9026 Y-1.3358
G01 X16.8685 Y-1.2402
G01 X16.8659 Y-1.2340
G01 X16.8225 Y-1.1422
G01 X16.7704 Y-1.0551
G01 X16.7666 Y-1.0495
G01 X16.7061 Y-0.9681
G01 X16.6380 Y-0.8928
G01 X16.6332 Y-0.8880
G01 X16.5579 Y-0.8199
G01 X16.4737 Y-0.7575
G01 X16.3838 Y-0.7035
G01 X16.2920 Y-0.6601
G01 X16.2858 Y-0.6575
G01 X16.1902 Y-0.6234
G01 X16.0918 Y-0.5986
G01 X16.0852 Y-0.5973
G01 X15.9847 Y-0.5825
G01 X15.8800 Y-0.5774
G01 X15.7786 Y-0.5822
G01 X15.7719 Y-0.5829
G01 X15.6715 Y-0.5979
G01 X15.5730 Y-0.6225
G01 X15.5666 Y-0.6244
G01 X15.4710 Y-0.6587
G01 X15.3793 Y-0.7020
G01 X15.3733 Y-0.7052
G01 X15.2863 Y-0.7575
G01 X15.2047 Y-0.8178
G01 X15.1995 Y-0.8221
G01 X15.1244 Y-0.8904
G01 X15.0539 Y-0.9681
G01 X14.9934 Y-1.0495
G01 X14.9896 Y-1.0551
G01 X14.9375 Y-1.1422
G01 X14.8941 Y-1.2340
G01 X14.8915 Y-1.2402
G01 X14.8574 Y-1.3358
G01 X14.8319 Y-1.4375
G01 X14.8169 Y-1.5379
G01 X14.8162 Y-1.5446
G01 X14.8114 Y-1.6460
G01 X14.8162 Y-1.7474
G01 X14.8169 Y-1.7541
G01 X14.8319 Y-1.8545
G01 X14.8574 Y-1.9562
G01 X14.8927 Y-2.0550
G01 X14.9360 Y-2.1467
G01 X14.9392 Y-2.1527
G01 X14.9915 Y-2.2397
G01 X15.0518 Y-2.3213
G01 X15.0561 Y-2.3265
G01 X15.1232 Y-2.4004
G01 X15.2021 Y-2.4721
G01 X15.2835 Y-2.5326
G01 X15.2891 Y-2.5364
G01 X15.3762 Y-2.5885
G01 X15.4680 Y-2.6319
G01 X15.4742 Y-2.6345
G01 X15.5698 Y-2.6686
G01 X15.6715 Y-2.6941
G01 X15.7719 Y-2.7091
G01 X15.7786 Y-2.7098
G01 X15.8800 Y-2.7146
G01 X15.9814 Y-2.7098
G01 X15.9881 Y-2.7091
G01 X16.0885 Y-2.6941
G01 X16.1870 Y-2.6695
G01 X16.1934 Y-2.6676
G01 X16.2890 Y-2.6333
G01 X16.3807 Y-2.5900
G01 X16.3867 Y-2.5868
G01 X16.4737 Y-2.5345
G01 X16.5579 Y-2.4721
G01 X16.6332 Y-2.4040
G01 X16.6380 Y-2.3992
G01 X16.7061 Y-2.3239
G01 X16.7666 Y-2.2425
G01 X16.7704 Y-2.2369
G01 X16.8225 Y-2.1498
G01 X16.8673 Y-2.0550
G01 X16.9026 Y-1.9562
G01 X16.9281 Y-1.8545
G01 X16.9435 Y-1.7507
G01 X16.9486 Y-1.6494
G01 X17.0034 Y-1.6521
G01 X17.0034 Y-1.6399
G01 X16.9986 Y-1.5419
G01 X16.9974 Y-1.5299
G01 X16.9818 Y-1.4261
G01 X16.9568 Y-1.3257
G01 X16.9533 Y-1.3141
G01 X16.9183 Y-1.2167
G01 X16.8736 Y-1.1218
G01 X16.8679 Y-1.1111
G01 X16.8155 Y-1.0238
G01 X16.8107 Y-1.0168
G01 X16.7481 Y-0.9327
G01 X16.6787 Y-0.8559
G01 X16.6701 Y-0.8473
G01 X16.5923 Y-0.7770
G01 X16.5092 Y-0.7153
G01 X16.4991 Y-0.7085
G01 X16.4102 Y-0.6554
G01 X16.3093 Y-0.6077
G01 X16.2119 Y-0.5727
G01 X16.2003 Y-0.5692
G01 X16.0985 Y-0.5439
G01 X15.9961 Y-0.5286
G01 X15.9841 Y-0.5274
G01 X15.8807 Y-0.5224
G01 X15.7705 Y-0.5278
G01 X15.6615 Y-0.5439
G01 X15.5545 Y-0.5706
G01 X15.4507 Y-0.6077
G01 X15.3509 Y-0.6548
G01 X15.2563 Y-0.7114
G01 X15.1677 Y-0.7770
G01 X15.0860 Y-0.8510
G01 X15.0119 Y-0.9327
G01 X14.9462 Y-1.0212
G01 X14.8894 Y-1.1158
G01 X14.8422 Y-1.2154
G01 X14.8050 Y-1.3192
G01 X14.7782 Y-1.4261
G01 X14.7619 Y-1.5352
G01 X14.7564 Y-1.6453
G01 X14.7619 Y-1.7568
G01 X14.7782 Y-1.8659
G01 X14.8050 Y-1.9728
G01 X14.8398 Y-2.0703
G01 X14.8444 Y-2.0815
G01 X14.8864 Y-2.1702
G01 X14.8921 Y-2.1809
G01 X14.9454 Y-2.2697
G01 X15.0077 Y-2.3540
G01 X15.0154 Y-2.3634
G01 X15.0850 Y-2.4400
G01 X15.1667 Y-2.5141
G01 X15.2563 Y-2.5806
G01 X15.3451 Y-2.6339
G01 X15.3558 Y-2.6396
G01 X15.4445 Y-2.6816
G01 X15.4557 Y-2.6862
G01 X15.5545 Y-2.7214
G01 X15.6549 Y-2.7467
G01 X15.6668 Y-2.7490
G01 X15.7692 Y-2.7641
G01 X15.8793 Y-2.7696
G01 X15.9908 Y-2.7641
G01 X16.0999 Y-2.7478
G01 X16.2055 Y-2.7214
G01 X16.3093 Y-2.6843
G01 X16.4091 Y-2.6372
G01 X16.4991 Y-2.5835
G01 X16.5092 Y-2.5767
G01 X16.5923 Y-2.5150
G01 X16.6701 Y-2.4447
G01 X16.6787 Y-2.4361
G01 X16.7446 Y-2.3634
G01 X16.7523 Y-2.3540
G01 X16.8146 Y-2.2697
G01 X16.8712 Y-2.1751
G01 X16.9178 Y-2.0766
G01 X16.9550 Y-1.9728
G01 X16.9807 Y-1.8711
G01 X16.9830 Y-1.8592
G01 X16.9982 Y-1.7555
G01 X17.0034 Y-1.6521
G01 X17.0961 Y-1.2242
G01 X17.1086 Y-1.2254
G01 X17.1220 Y-1.2261
G01 X17.1698 Y-1.2262
G01 X17.1864 Y-1.2257
G01 X17.2039 Y-1.2242
G01 X17.1897 Y-1.2642
G01 X17.1836 Y-1.2849
G01 X17.1577 Y-1.3886
G01 X17.1547 Y-1.4041
G01 X17.1500 Y-1.4356
G01 X17.1453 Y-1.4041
G01 X17.1423 Y-1.3886
G01 X17.1164 Y-1.2849
G01 X17.1103 Y-1.2642
G01 X17.0961 Y-1.2242
G01 X17.2972 Y-1.1379
G01 X17.2836 Y-1.1669
G01 X17.2780 Y-1.1803
G01 X17.2431 Y-1.2777
G01 X17.2379 Y-1.2941
G01 X17.2104 Y-1.4047
G01 X17.2084 Y-1.4165
G01 X17.1937 Y-1.5152
G01 X17.1917 Y-1.5364
G01 X17.1868 Y-1.6352
G01 X17.1866 Y-1.6511
G01 X17.1922 Y-1.7629
G01 X17.1937 Y-1.7768
G01 X17.2012 Y-1.8273
G01 X17.0727 Y-1.9558
G01 X17.0875 Y-1.8965
G01 X17.0905 Y-1.8827
G01 X17.1061 Y-1.7778
G01 X17.1078 Y-1.7629
G01 X17.1131 Y-1.6573
G01 X17.1134 Y-1.6453
G01 X17.1078 Y-1.5288
G01 X17.1061 Y-1.5139
G01 X17.0899 Y-1.4064
G01 X17.0872 Y-1.3944
G01 X17.0872 Y-1.3942
G01 X17.0634 Y-1.2990
G01 X17.0623 Y-1.2951
G01 X17.0569 Y-1.2777
G01 X17.0220 Y-1.1803
G01 X17.0164 Y-1.1669
G01 X17.0028 Y-1.1379
G01 X17.0478 Y-1.1562
G01 X17.0588 Y-1.1601
G01 X17.0706 Y-1.1635
G01 X17.0859 Y-1.1670
G01 X17.1003 Y-1.1693
G01 X17.1149 Y-1.1708
G01 X17.1302 Y-1.1713
G01 X17.1711 Y-1.1713
G01 X17.1821 Y-1.1709
G01 X17.1990 Y-1.1694
G01 X17.2158 Y-1.1667
G01 X17.2323 Y-1.1627
G01 X17.2481 Y-1.1577
G01 X17.2972 Y-1.1379
G00 Z1.0000
G00 X19.6361 Y-1.2242
G01 F25.00
G01 Z-0.0400
G01 F120.00
G01 X19.6486 Y-1.2254
G01 X19.6620 Y-1.2261
G01 X19.7098 Y-1.2262
G01 X19.7264 Y-1.2257
G01 X19.7439 Y-1.2242
G01 X19.7297 Y-1.2642
G01 X19.7236 Y-1.2849
G01 X19.6977 Y-1.3886
G01 X19.6947 Y-1.4041
G01 X19.6900 Y-1.4356
G01 X19.6853 Y-1.4041
G01 X19.6823 Y-1.3886
G01 X19.6564 Y-1.2849
G01 X19.6503 Y-1.2642
G01 X19.6361 Y-1.2242
G01 X19.8372 Y-1.1379
G01 X19.8236 Y-1.1669
G01 X19.8181 Y-1.1799
G01 X19.7811 Y-1.2835
G01 X19.7768 Y-1.2985
G01 X19.7511 Y-1.4014
G01 X19.7484 Y-1.4165
G01 X19.7326 Y-1.5244
G01 X19.7317 Y-1.5365
G01 X19.7266 Y-1.6453
G01 X19.7269 Y-1.6575
G01 X19.7317 Y-1.7555
G01 X19.7317 Y-1.7556
G01 X19.7326 Y-1.7676
G01 X19.7484 Y-1.8755
G01 X19.7511 Y-1.8906
G01 X19.7768 Y-1.9935
G01 X19.7811 Y-2.0085
G01 X19.8181 Y-2.1121
G01 X19.8236 Y-2.1251
G01 X19.8371 Y-2.1537
G01 X19.7953 Y-2.1361
G01 X19.7823 Y-2.1315
G01 X19.7707 Y-2.1281
G01 X19.7559 Y-2.1246
G01 X19.7412 Y-2.1222
G01 X19.7264 Y-2.1208
G01 X19.7108 Y-2.1202
G01 X19.6692 Y-2.1202
G01 X19.6685 Y-2.1202
G01 X19.6567 Y-2.1206
G01 X19.6405 Y-2.1220
G01 X19.6235 Y-2.1248
G01 X19.6063 Y-2.1289
G01 X19.5902 Y-2.1340
G01 X19.5789 Y-2.1384
G01 X19.5429 Y-2.1537
G01 X19.5564 Y-2.1251
G01 X19.5619 Y-2.1121
G01 X19.5989 Y-2.0085
G01 X19.6032 Y-1.9935
G01 X19.6289 Y-1.8906
G01 X19.6316 Y-1.8755
G01 X19.6474 Y-1.7676
G01 X19.6483 Y-1.7556
G01 X19.6531 Y-1.6575
G01 X19.6534 Y-1.6453
G01 X19.6483 Y-1.5365
G01 X19.6474 Y-1.5244
G01 X19.6316 Y-1.4165
G01 X19.6289 Y-1.4014
G01 X19.6032 Y-1.2985
G01 X19.5989 Y-1.2835
G01 X19.5619 Y-1.1799
G01 X19.5564 Y-1.1669
G01 X19.5428 Y-1.1379
G01 X19.5878 Y-1.1562
G01 X19.5988 Y-1.1601
G01 X19.6106 Y-1.1635
G01 X19.6259 Y-1.1670
G01 X19.6403 Y-1.1693
G01 X19.6549 Y-1.1708
G01 X19.6702 Y-1.1713
G01 X19.7111 Y-1.1713
G01 X19.7221 Y-1.1709
G01 X19.7390 Y-1.1694
G01 X19.7558 Y-1.1667
G01 X19.7723 Y-1.1627
G01 X19.7881 Y-1.1577
G01 X19.8372 Y-1.1379
G01 X19.6900 Y-1.8564
G01 X19.6947 Y-1.8879
G01 X19.6977 Y-1.9034
G01 X19.7236 Y-2.0071
G01 X19.7297 Y-2.0278
G01 X19.7437 Y-2.0672
G01 X19.7274 Y-2.0658
G01 X19.7108 Y-2.0653
G01 X19.6692 Y-2.0653
G01 X19.6689 Y-2.0653
G01 X19.6612 Y-2.0654
G01 X19.6486 Y-2.0661
G01 X19.6363 Y-2.0672
G01 X19.6503 Y-2.0278
G01 X19.6564 Y-2.0071
G01 X19.6823 Y-1.9034
G01 X19.6853 Y-1.8879
G01 X19.6900 Y-1.8564
G01 X19.6692 Y-2.1752
G01 X19.6526 Y-2.1759
G01 X19.6372 Y-2.1781
G01 X19.6217 Y-2.1816
G01 X19.6062 Y-2.1866
G01 X19.5607 Y-2.2059
G01 X19.5495 Y-2.2111
G01 X19.5405 Y-2.2161
G01 X19.5323 Y-2.2212
G01 X19.5236 Y-2.2274
G01 X19.5166 Y-2.2329
G01 X19.5094 Y-2.2393
G01 X19.5016 Y-2.2470
G01 X19.4709 Y-2.2805
G01 X19.4626 Y-2.2904
G01 X19.4524 Y-2.3048
G01 X19.4323 Y-2.3379
G01 X19.3466 Y-2.4490
G01 X19.2491 Y-2.5496
G01 X19.1410 Y-2.6377
G01 X19.0228 Y-2.7137
G01 X18.8974 Y-2.7757
G01 X18.7656 Y-2.8226
G01 X18.6294 Y-2.8541
G01 X18.4901 Y-2.8701
G01 X18.3362 Y-2.8701
G01 X18.3205 Y-2.8711
G01 X18.3050 Y-2.8734
G01 X18.2567 Y-2.8832
G01 X18.2432 Y-2.8872
G01 X18.2285 Y-2.8930
G01 X18.2152 Y-2.8995
G01 X18.2037 Y-2.9063
G01 X18.1665 Y-2.9315
G01 X18.1550 Y-2.9401
G01 X18.1414 Y-2.9523
G01 X17.5871 Y-3.5062
G01 X17.5781 Y-3.5162
G01 X17.5699 Y-3.5269
G01 X17.5416 Y-3.5696
G01 X17.5344 Y-3.5825
G01 X17.5281 Y-3.5963
G01 X17.5229 Y-3.6109
G01 X17.5191 Y-3.6255
G01 X17.5105 Y-3.6696
G01 X17.5086 Y-3.6824
G01 X17.5075 Y-3.7013
G01 X17.5076 Y-3.7106
G01 X17.5084 Y-3.7205
G01 X17.5106 Y-3.7356
G01 X17.5195 Y-3.7805
G01 X17.5230 Y-3.7937
G01 X17.5279 Y-3.8076
G01 X17.5341 Y-3.8213
G01 X17.5408 Y-3.8333
G01 X17.5667 Y-3.8728
G01 X17.5733 Y-3.8821
G01 X17.5805 Y-3.8909
G01 X17.5890 Y-3.9000
G01 X17.5976 Y-3.9081
G01 X17.6072 Y-3.9160
G01 X17.6515 Y-3.9463
G01 X17.6625 Y-3.9528
G01 X17.6724 Y-3.9578
G01 X17.6812 Y-3.9617
G01 X17.6913 Y-3.9655
G01 X17.7005 Y-3.9683
G01 X17.7106 Y-3.9708
G01 X17.7606 Y-3.9804
G01 X17.7734 Y-3.9819
G01 X17.7846 Y-3.9825
G01 X20.0252 Y-3.9824
G01 X20.0369 Y-3.9817
G01 X20.0492 Y-3.9801
G01 X20.0934 Y-3.9715
G01 X20.1077 Y-3.9680
G01 X20.1221 Y-3.9633
G01 X20.1369 Y-3.9569
G01 X20.1519 Y-3.9486
G01 X20.1919 Y-3.9218
G01 X20.1998 Y-3.9161
G01 X20.2092 Y-3.9085
G01 X20.2180 Y-3.9003
G01 X20.8108 Y-3.3080
G01 X20.8178 Y-3.3006
G01 X20.8245 Y-3.2926
G01 X20.8349 Y-3.2781
G01 X20.8588 Y-3.2403
G01 X20.8642 Y-3.2311
G01 X20.8693 Y-3.2211
G01 X20.8736 Y-3.2110
G01 X20.8772 Y-3.2010
G01 X20.8803 Y-3.1905
G01 X20.8834 Y-3.1759
G01 X20.8905 Y-3.1302
G01 X20.8917 Y-3.1205
G01 X20.8925 Y-3.1103
G01 X20.8925 Y-3.0969
G01 X20.8915 Y-3.0828
G01 X20.8895 Y-3.0695
G01 X20.8861 Y-3.0552
G01 X20.8739 Y-3.0121
G01 X20.8702 Y-3.0010
G01 X20.8664 Y-2.9914
G01 X20.8627 Y-2.9832
G01 X20.8541 Y-2.9676
G01 X20.8478 Y-2.9582
G01 X20.8420 Y-2.9505
G01 X20.8083 Y-2.9106
G01 X20.7958 Y-2.8978
G01 X20.7821 Y-2.8863
G01 X20.7693 Y-2.8776
G01 X20.7562 Y-2.8701
G01 X20.7111 Y-2.8486
G01 X20.6975 Y-2.8430
G01 X20.6873 Y-2.8396
G01 X20.6783 Y-2.8371
G01 X20.6141 Y-2.8225
G01 X20.4826 Y-2.7757
G01 X20.3572 Y-2.7137
G01 X20.2390 Y-2.6377
G01 X20.1309 Y-2.5496
G01 X20.0334 Y-2.4490
G01 X19.9477 Y-2.3379
G01 X19.9276 Y-2.3048
G01 X19.9174 Y-2.2904
G01 X19.9093 Y-2.2808
G01 X19.8803 Y-2.2490
G01 X19.8673 Y-2.2363
G01 X19.8599 Y-2.2301
G01 X19.8513 Y-2.2237
G01 X19.8421 Y-2.2177
G01 X19.8338 Y-2.2129
G01 X19.8218 Y-2.2070
G01 X19.7796 Y-2.1889
G01 X19.7653 Y-2.1837
G01 X19.7503 Y-2.1796
G01 X19.7346 Y-2.1768
G01 X19.7205 Y-2.1754
G01 X19.6692 Y-2.1752
G01 X19.6692 Y-2.2301
G01 X19.6574 Y-2.2306
G01 X19.6468 Y-2.2321
G01 X19.6360 Y-2.2346
G01 X19.6242 Y-2.2386
G01 X19.5826 Y-2.2562
G01 X19.5748 Y-2.2599
G01 X19.5615 Y-2.2678
G01 X19.5493 Y-2.2773
G01 X19.5400 Y-2.2864
G01 X19.5116 Y-2.3174
G01 X19.5057 Y-2.3244
G01 X19.4987 Y-2.3344
G01 X19.4777 Y-2.3690
G01 X19.3881 Y-2.4850
G01 X19.2863 Y-2.5901
G01 X19.1733 Y-2.6822
G01 X19.0499 Y-2.7616
G01 X18.9188 Y-2.8264
G01 X18.7810 Y-2.8754
G01 X18.6387 Y-2.9083
G01 X18.4932 Y-2.9250
G01 X18.3386 Y-2.9250
G01 X18.3279 Y-2.9255
G01 X18.3176 Y-2.9269
G01 X18.2713 Y-2.9362
G01 X18.2624 Y-2.9387
G01 X18.2524 Y-2.9424
G01 X18.2440 Y-2.9464
G01 X18.2345 Y-2.9518
G01 X18.1941 Y-2.9792
G01 X18.1872 Y-2.9847
G01 X18.1803 Y-2.9911
G01 X17.6281 Y-3.5428
G01 X17.6222 Y-3.5492
G01 X17.6174 Y-3.5550
G01 X17.6123 Y-3.5621
G01 X17.5892 Y-3.5971
G01 X17.5846 Y-3.6049
G01 X17.5801 Y-3.6143
G01 X17.5763 Y-3.6244
G01 X17.5734 Y-3.6344
G01 X17.5645 Y-3.6794
G01 X17.5632 Y-3.6883
G01 X17.5625 Y-3.6972
G01 X17.5625 Y-3.7079
G01 X17.5632 Y-3.7168
G01 X17.5646 Y-3.7257
G01 X17.5725 Y-3.7656
G01 X17.5759 Y-3.7788
G01 X17.5807 Y-3.7913
G01 X17.5870 Y-3.8035
G01 X17.6144 Y-3.8452
G01 X17.6199 Y-3.8525
G01 X17.6271 Y-3.8604
G01 X17.6347 Y-3.8676
G01 X17.6431 Y-3.8742
G01 X17.6838 Y-3.9017
G01 X17.6947 Y-3.9077
G01 X17.7046 Y-3.9119
G01 X17.7150 Y-3.9153
G01 X17.7248 Y-3.9177
G01 X17.7662 Y-3.9257
G01 X17.7734 Y-3.9267
G01 X17.7823 Y-3.9274
G01 X20.0225 Y-3.9275
G01 X20.0329 Y-3.9269
G01 X20.0441 Y-3.9252
G01 X20.0864 Y-3.9168
G01 X20.0954 Y-3.9144
G01 X20.1028 Y-3.9118
G01 X20.1141 Y-3.9068
G01 X20.1234 Y-3.9017
G01 X20.1640 Y-3.8743
G01 X20.1722 Y-3.8679
G01 X20.1792 Y-3.8614
G01 X20.7720 Y-3.2691
G01 X20.7797 Y-3.2606
G01 X20.7877 Y-3.2498
G01 X20.8146 Y-3.2072
G01 X20.8213 Y-3.1938
G01 X20.8245 Y-3.1855
G01 X20.8266 Y-3.1785
G01 X20.8296 Y-3.1645
G01 X20.8363 Y-3.1212
G01 X20.8374 Y-3.1108
G01 X20.8377 Y-3.1006
G01 X20.8370 Y-3.0901
G01 X20.8355 Y-3.0801
G01 X20.8332 Y-3.0698
G01 X20.8213 Y-3.0281
G01 X20.8187 Y-3.0199
G01 X20.8133 Y-3.0072
G01 X20.8064 Y-2.9950
G01 X20.7983 Y-2.9838
G01 X20.7642 Y-2.9438
G01 X20.7529 Y-2.9333
G01 X20.7455 Y-2.9277
G01 X20.7389 Y-2.9233
G01 X20.7274 Y-2.9171
G01 X20.6882 Y-2.8985
G01 X20.6770 Y-2.8940
G01 X20.6639 Y-2.8901
G01 X20.5988 Y-2.8754
G01 X20.4612 Y-2.8264
G01 X20.3301 Y-2.7616
G01 X20.2067 Y-2.6822
G01 X20.0937 Y-2.5901
G01 X19.9918 Y-2.4850
G01 X19.9023 Y-2.3690
G01 X19.8813 Y-2.3344
G01 X19.8743 Y-2.3244
G01 X19.8684 Y-2.3174
G01 X19.8400 Y-2.2864
G01 X19.8330 Y-2.2793
G01 X19.8210 Y-2.2695
G01 X19.8133 Y-2.2644
G01 X19.8064 Y-2.2605
G01 X19.7980 Y-2.2565
G01 X19.7593 Y-2.2400
G01 X19.7483 Y-2.2359
G01 X19.7379 Y-2.2331
G01 X19.7270 Y-2.2312
G01 X19.7164 Y-2.2302
G01 X19.6692 Y-2.2301
G01 X19.6692 Y-2.2850
G01 X19.6623 Y-2.2853
G01 X19.6554 Y-2.2864
G01 X19.6487 Y-2.2881
G01 X19.6422 Y-2.2905
G01 X19.5995 Y-2.3090
G01 X19.5907 Y-2.3144
G01 X19.5829 Y-2.3210
G01 X19.5525 Y-2.3540
G01 X19.5482 Y-2.3592
G01 X19.5444 Y-2.3648
G01 X19.5230 Y-2.4001
G01 X19.4297 Y-2.5210
G01 X19.3235 Y-2.6306
G01 X19.2056 Y-2.7267
G01 X19.0770 Y-2.8094
G01 X18.9403 Y-2.8771
G01 X18.7964 Y-2.9282
G01 X18.6481 Y-2.9625
G01 X18.4963 Y-2.9799
G01 X18.3392 Y-2.9799
G01 X18.3276 Y-2.9809
G01 X18.2856 Y-2.9892
G01 X18.2790 Y-2.9910
G01 X18.2742 Y-2.9928
G01 X18.2695 Y-2.9950
G01 X18.2636 Y-2.9984
G01 X18.2265 Y-3.0236
G01 X18.2191 Y-3.0300
G01 X17.6669 Y-3.5817
G01 X17.6622 Y-3.5868
G01 X17.6581 Y-3.5924
G01 X17.6337 Y-3.6297
G01 X17.6294 Y-3.6388
G01 X17.6262 Y-3.6501
G01 X17.6183 Y-3.6909
G01 X17.6175 Y-3.6975
G01 X17.6173 Y-3.7041
G01 X17.6186 Y-3.7157
G01 X17.6262 Y-3.7543
G01 X17.6278 Y-3.7608
G01 X17.6307 Y-3.7686
G01 X17.6345 Y-3.7760
G01 X17.6591 Y-3.8133
G01 X17.6666 Y-3.8223
G01 X17.6755 Y-3.8299
G01 X17.7114 Y-3.8542
G01 X17.7174 Y-3.8576
G01 X17.7237 Y-3.8604
G01 X17.7302 Y-3.8626
G01 X17.7353 Y-3.8638
G01 X17.7760 Y-3.8717
G01 X17.7859 Y-3.8726
G01 X20.0219 Y-3.8726
G01 X20.0319 Y-3.8716
G01 X20.0721 Y-3.8637
G01 X20.0771 Y-3.8625
G01 X20.0836 Y-3.8604
G01 X20.0899 Y-3.8576
G01 X20.0958 Y-3.8542
G01 X20.1316 Y-3.8299
G01 X20.1403 Y-3.8226
G01 X20.7332 Y-3.2303
G01 X20.7377 Y-3.2253
G01 X20.7426 Y-3.2184
G01 X20.7680 Y-3.1781
G01 X20.7726 Y-3.1674
G01 X20.7754 Y-3.1561
G01 X20.7822 Y-3.1118
G01 X20.7827 Y-3.1053
G01 X20.7826 Y-3.0987
G01 X20.7819 Y-3.0922
G01 X20.7806 Y-3.0858
G01 X20.7680 Y-3.0414
G01 X20.7656 Y-3.0350
G01 X20.7626 Y-3.0288
G01 X20.7590 Y-3.0229
G01 X20.7548 Y-3.0175
G01 X20.7234 Y-2.9806
G01 X20.7157 Y-2.9738
G01 X20.7070 Y-2.9683
G01 X20.6653 Y-2.9484
G01 X20.6575 Y-2.9453
G01 X20.6511 Y-2.9435
G01 X20.5834 Y-2.9282
G01 X20.4397 Y-2.8771
G01 X20.3030 Y-2.8094
G01 X20.1744 Y-2.7267
G01 X20.0565 Y-2.6306
G01 X19.9503 Y-2.5210
G01 X19.8569 Y-2.4001
G01 X19.8356 Y-2.3648
G01 X19.8308 Y-2.3579
G01 X19.7995 Y-2.3235
G01 X19.7946 Y-2.3187
G01 X19.7865 Y-2.3124
G01 X19.7790 Y-2.3082
G01 X19.7362 Y-2.2898
G01 X19.7279 Y-2.2872
G01 X19.7194 Y-2.2855
G01 X19.7125 Y-2.2850
G01 X19.6692 Y-2.2850
G00 Z1.0000
G00 X20.8494 Y-2.8743
G01 F25.00
G01 Z-0.0400
G01 F120.00
G01 X20.9487 Y-2.8791
G01 X20.9607 Y-2.8794
G01 X21.0772 Y-2.8738
G01 X21.0918 Y-2.8721
G01 X21.1967 Y-2.8565
G01 X21.2105 Y-2.8535
G01 X21.2698 Y-2.8387
G01 X20.9402 Y-3.1682
G01 X20.9453 Y-3.1351
G01 X20.9468 Y-3.1210
G01 X20.9475 Y-3.1017
G01 X20.9467 Y-3.0837
G01 X20.9445 Y-3.0658
G01 X20.9413 Y-3.0494
G01 X20.9255 Y-2.9931
G01 X20.9202 Y-2.9779
G01 X20.9142 Y-2.9636
G01 X20.9067 Y-2.9489
G01 X20.8990 Y-2.9359
G01 X20.8920 Y-2.9257
G01 X20.8848 Y-2.9161
G01 X20.8494 Y-2.8743
G01 X20.9611 Y-2.9343
G01 X20.9738 Y-2.9340
G01 X21.0748 Y-2.9290
G01 X21.0890 Y-2.9278
G01 X21.1051 Y-2.9257
G01 X20.9946 Y-3.0362
G01 X20.9915 Y-3.0242
G01 X20.9762 Y-2.9714
G01 X20.9695 Y-2.9532
G01 X20.9611 Y-2.9343
G00 Z1.0000
G00 X22.0130 Y-2.1731
G01 F25.00
G01 Z-0.0400
G01 F120.00
G01 X22.0454 Y-2.1047
G01 X22.0493 Y-2.0957
G01 X22.0850 Y-1.9964
G01 X22.0881 Y-1.9868
G01 X22.1157 Y-1.8766
G01 X22.1317 Y-1.7702
G01 X22.1335 Y-1.7528
G01 X22.1383 Y-1.6544
G01 X22.1384 Y-1.6403
G01 X22.1329 Y-1.5318
G01 X22.1318 Y-1.5221
G01 X22.1204 Y-1.4455
G01 X22.4470 Y-1.1189
G01 X22.4146 Y-1.1873
G01 X22.4107 Y-1.1963
G01 X22.3750 Y-1.2956
G01 X22.3719 Y-1.3052
G01 X22.3443 Y-1.4154
G01 X22.3283 Y-1.5218
G01 X22.3265 Y-1.5392
G01 X22.3217 Y-1.6376
G01 X22.3216 Y-1.6517
G01 X22.3271 Y-1.7602
G01 X22.3282 Y-1.7699
G01 X22.3396 Y-1.8465
G01 X22.0130 Y-2.1731
G01 X22.1527 Y-1.9558
G01 X22.1681 Y-1.8939
G01 X22.1716 Y-1.8758
G01 X22.1874 Y-1.7679
G01 X22.1883 Y-1.7556
G01 X22.1933 Y-1.6524
G01 X22.1932 Y-1.6352
G01 X22.1879 Y-1.5298
G01 X22.1863 Y-1.5152
G01 X22.1788 Y-1.4648
G01 X22.3073 Y-1.3362
G01 X22.2925 Y-1.3955
G01 X22.2894 Y-1.4100
G01 X22.2737 Y-1.5151
G01 X22.2717 Y-1.5360
G01 X22.2668 Y-1.6359
G01 X22.2667 Y-1.6534
G01 X22.2722 Y-1.7632
G01 X22.2737 Y-1.7768
G01 X22.2812 Y-1.8273
G01 X22.1527 Y-1.9558
G00 Z1.0000
G00 X22.9729 Y-0.5930
G01 F25.00
G01 Z-0.0400
G01 F120.00
G01 X23.0547 Y-0.5112
G01 X23.1852 Y-0.5112
G01 X23.1634 Y-0.5167
G01 X23.1531 Y-0.5198
G01 X23.0537 Y-0.5554
G01 X23.0413 Y-0.5606
G01 X22.9729 Y-0.5930
G00 Z1.0000
G00 X24.0951 Y-0.5661
G01 F25.00
G01 Z-0.0400
G01 F120.00
G01 X25.4449 Y-0.5661
G01 X25.3644 Y-0.6143
G01 X25.3643 Y-0.6144
G01 X25.3542 Y-0.6208
G01 X25.2660 Y-0.6859
G01 X25.2494 Y-0.6996
G01 X25.1760 Y-0.7661
G01 X25.1671 Y-0.7746
G01 X25.0872 Y-0.8628
G01 X25.0796 Y-0.8724
G01 X25.0211 Y-0.9514
G01 X25.0090 Y-0.9693
G01 X24.9527 Y-1.0637
G01 X24.9471 Y-1.0748
G01 X24.9009 Y-1.1731
G01 X24.8964 Y-1.1845
G01 X24.8632 Y-1.2772
G01 X24.8595 Y-1.2886
G01 X24.8567 Y-1.2988
G01 X24.8326 Y-1.3948
G01 X24.8291 Y-1.4117
G01 X24.8139 Y-1.5139
G01 X24.8125 Y-1.5258
G01 X24.8066 Y-1.6413
G01 X24.8068 Y-1.6569
G01 X24.8121 Y-1.7622
G01 X24.8137 Y-1.7768
G01 X24.8212 Y-1.8273
G01 X24.6927 Y-1.9558
G01 X24.7075 Y-1.8965
G01 X24.7105 Y-1.8827
G01 X24.7261 Y-1.7778
G01 X24.7278 Y-1.7632
G01 X24.7334 Y-1.6467
G01 X24.7331 Y-1.6347
G01 X24.7280 Y-1.5318
G01 X24.7262 Y-1.5144
G01 X24.7116 Y-1.4165
G01 X24.7096 Y-1.4047
G01 X24.7072 Y-1.3942
G01 X24.6833 Y-1.2988
G01 X24.6800 Y-1.2870
G01 X24.6436 Y-1.1845
G01 X24.6381 Y-1.1706
G01 X24.5881 Y-1.0652
G01 X24.5822 Y-1.0548
G01 X24.5310 Y-0.9693
G01 X24.5198 Y-0.9526
G01 X24.4605 Y-0.8726
G01 X24.4539 Y-0.8641
G01 X24.4463 Y-0.8552
G01 X24.3799 Y-0.7820
G01 X24.3714 Y-0.7731
G01 X24.2911 Y-0.7000
G01 X24.2830 Y-0.6930
G01 X24.2734 Y-0.6855
G01 X24.1861 Y-0.6210
G01 X24.1760 Y-0.6146
G01 X24.0951 Y-0.5661
G01 X24.2787 Y-0.6210
G01 X25.2613 Y-0.6210
G01 X25.2338 Y-0.6414
G01 X25.2338 Y-0.6415
G01 X25.2300 Y-0.6443
G01 X25.2164 Y-0.6554
G01 X25.1380 Y-0.7264
G01 X25.1223 Y-0.7419
G01 X25.0529 Y-0.8185
G01 X25.0425 Y-0.8307
G01 X24.9758 Y-0.9202
G01 X24.9683 Y-0.9309
G01 X24.9614 Y-0.9419
G01 X24.9104 Y-1.0270
G01 X24.9029 Y-1.0405
G01 X24.8552 Y-1.1406
G01 X24.8474 Y-1.1588
G01 X24.8113 Y-1.2595
G01 X24.8054 Y-1.2780
G01 X24.7780 Y-1.3871
G01 X24.7748 Y-1.4036
G01 X24.7700 Y-1.4356
G01 X24.7652 Y-1.4036
G01 X24.7620 Y-1.3871
G01 X24.7346 Y-1.2780
G01 X24.7287 Y-1.2595
G01 X24.6926 Y-1.1588
G01 X24.6848 Y-1.1406
G01 X24.6371 Y-1.0405
G01 X24.6296 Y-1.0270
G01 X24.5786 Y-0.9419
G01 X24.5717 Y-0.9309
G01 X24.5642 Y-0.9202
G01 X24.4975 Y-0.8307
G01 X24.4871 Y-0.8185
G01 X24.4177 Y-0.7419
G01 X24.4020 Y-0.7264
G01 X24.3236 Y-0.6554
G01 X24.3100 Y-0.6443
G01 X24.2787 Y-0.6210
G01 X24.4281 Y-0.6760
G01 X25.1119 Y-0.6760
G01 X25.0952 Y-0.6912
G01 X25.0825 Y-0.7041
G01 X25.0124 Y-0.7813
G01 X25.0036 Y-0.7915
G01 X24.9920 Y-0.8062
G01 X24.9326 Y-0.8862
G01 X24.9193 Y-0.9057
G01 X24.8624 Y-1.0003
G01 X24.8557 Y-1.0121
G01 X24.8492 Y-1.0248
G01 X24.8056 Y-1.1170
G01 X24.8000 Y-1.1296
G01 X24.7936 Y-1.1457
G01 X24.7700 Y-1.2118
G01 X24.7464 Y-1.1458
G01 X24.7400 Y-1.1296
G01 X24.7343 Y-1.1169
G01 X24.6908 Y-1.0248
G01 X24.6843 Y-1.0121
G01 X24.6776 Y-1.0003
G01 X24.6207 Y-0.9057
G01 X24.6074 Y-0.8863
G01 X24.5480 Y-0.8062
G01 X24.5364 Y-0.7915
G01 X24.5276 Y-0.7814
G01 X24.4575 Y-0.7041
G01 X24.4448 Y-0.6912
G01 X24.4281 Y-0.6760
G01 X24.5559 Y-0.7309
G01 X24.9841 Y-0.7309
G01 X24.9648 Y-0.7524
G01 X24.9509 Y-0.7694
G01 X24.8873 Y-0.8551
G01 X24.8736 Y-0.8751
G01 X24.8165 Y-0.9700
G01 X24.8088 Y-0.9835
G01 X24.7993 Y-1.0020
G01 X24.7700 Y-1.0639
G01 X24.7407 Y-1.0019
G01 X24.7312 Y-0.9835
G01 X24.7235 Y-0.9700
G01 X24.6663 Y-0.8750
G01 X24.6527 Y-0.8552
G01 X24.5889 Y-0.7692
G01 X24.5752 Y-0.7523
G01 X24.5559 Y-0.7309
G01 X24.6696 Y-0.7858
G01 X24.8704 Y-0.7858
G01 X24.8407 Y-0.8258
G01 X24.8281 Y-0.8444
G01 X24.7700 Y-0.9408
G01 X24.7120 Y-0.8445
G01 X24.6992 Y-0.8258
G01 X24.6696 Y-0.7858
G01 X25.7252 Y-0.5112
G01 X25.7034 Y-0.5167
G01 X25.6985 Y-0.5181
G01 X25.6973 Y-0.5185
G01 X25.6966 Y-0.5187
G01 X25.6950 Y-0.5192
G01 X25.6924 Y-0.5200
G01 X25.5969 Y-0.5542
G01 X25.5822 Y-0.5602
G01 X25.4839 Y-0.6070
G01 X25.3924 Y-0.6616
G01 X25.3806 Y-0.6694
G01 X25.2919 Y-0.7354
G01 X25.2062 Y-0.8132
G01 X25.1294 Y-0.8979
G01 X25.0630 Y-0.9871
G01 X25.0554 Y-0.9987
G01 X25.0010 Y-1.0899
G01 X24.9515 Y-1.1944
G01 X24.9125 Y-1.3033
G01 X24.8848 Y-1.4131
G01 X24.8827 Y-1.4247
G01 X24.8673 Y-1.5298
G01 X24.8615 Y-1.6447
G01 X24.8617 Y-1.6548
G01 X24.8671 Y-1.7602
G01 X24.8682 Y-1.7699
G01 X24.8796 Y-1.8465
G01 X24.5530 Y-2.1731
G01 X24.5890 Y-2.0964
G01 X24.6253 Y-1.9955
G01 X24.6298 Y-1.9806
G01 X24.6542 Y-1.8832
G01 X24.6573 Y-1.8676
G01 X24.6727 Y-1.7622
G01 X24.6784 Y-1.6517
G01 X24.6783 Y-1.6376
G01 X24.6729 Y-1.5312
G01 X24.6560 Y-1.4167
G01 X24.6301 Y-1.3123
G01 X24.6275 Y-1.3033
G01 X24.5919 Y-1.2032
G01 X24.5868 Y-1.1904
G01 X24.5433 Y-1.0983
G01 X24.5387 Y-1.0893
G01 X24.4844 Y-0.9984
G01 X24.4748 Y-0.9841
G01 X24.4114 Y-0.8989
G01 X24.3394 Y-0.8190
G01 X24.3277 Y-0.8073
G01 X24.2520 Y-0.7387
G01 X24.2410 Y-0.7298
G01 X24.1553 Y-0.6665
G01 X24.0632 Y-0.6110
G01 X24.0543 Y-0.6060
G01 X23.9590 Y-0.5608
G01 X23.9482 Y-0.5561
G01 X23.8469 Y-0.5198
G01 X23.8366 Y-0.5167
G01 X23.8148 Y-0.5112
G01 X25.7252 Y-0.5112
G01 X26.6351 Y-0.5661
G01 X27.9849 Y-0.5661
G01 X27.9043 Y-0.6144
G01 X27.8942 Y-0.6208
G01 X27.8060 Y-0.6859
G01 X27.7894 Y-0.6996
G01 X27.7160 Y-0.7661
G01 X27.7071 Y-0.7746
G01 X27.6272 Y-0.8628
G01 X27.6196 Y-0.8724
G01 X27.5611 Y-0.9514
G01 X27.5490 Y-0.9693
G01 X27.4927 Y-1.0637
G01 X27.4871 Y-1.0748
G01 X27.4409 Y-1.1731
G01 X27.4364 Y-1.1845
G01 X27.4032 Y-1.2772
G01 X27.3995 Y-1.2886
G01 X27.3967 Y-1.2988
G01 X27.3726 Y-1.3948
G01 X27.3691 Y-1.4117
G01 X27.3539 Y-1.5139
G01 X27.3525 Y-1.5258
G01 X27.3466 Y-1.6413
G01 X27.3468 Y-1.6569
G01 X27.3521 Y-1.7622
G01 X27.3537 Y-1.7768
G01 X27.3612 Y-1.8273
G01 X27.2327 Y-1.9558
G01 X27.2475 Y-1.8965
G01 X27.2505 Y-1.8827
G01 X27.2661 Y-1.7778
G01 X27.2678 Y-1.7632
G01 X27.2734 Y-1.6467
G01 X27.2731 Y-1.6347
G01 X27.2680 Y-1.5318
G01 X27.2662 Y-1.5144
G01 X27.2516 Y-1.4165
G01 X27.2496 Y-1.4047
G01 X27.2472 Y-1.3942
G01 X27.2233 Y-1.2988
G01 X27.2200 Y-1.2870
G01 X27.1836 Y-1.1845
G01 X27.1781 Y-1.1706
G01 X27.1281 Y-1.0652
G01 X27.1222 Y-1.0548
G01 X27.0710 Y-0.9693
G01 X27.0598 Y-0.9526
G01 X27.0005 Y-0.8726
G01 X26.9939 Y-0.8641
G01 X26.9863 Y-0.8552
G01 X26.9199 Y-0.7820
G01 X26.9114 Y-0.7731
G01 X26.8311 Y-0.7000
G01 X26.8230 Y-0.6930
G01 X26.8134 Y-0.6855
G01 X26.7261 Y-0.6210
G01 X26.7160 Y-0.6146
G01 X26.6351 Y-0.5661
G01 X26.8187 Y-0.6210
G01 X27.8013 Y-0.6210
G01 X27.7700 Y-0.6443
G01 X27.7564 Y-0.6554
G01 X27.6780 Y-0.7264
G01 X27.6623 Y-0.7419
G01 X27.5929 Y-0.8185
G01 X27.5825 Y-0.8307
G01 X27.5158 Y-0.9202
G01 X27.5083 Y-0.9309
G01 X27.5014 Y-0.9419
G01 X27.4504 Y-1.0270
G01 X27.4429 Y-1.0405
G01 X27.3952 Y-1.1406
G01 X27.3874 Y-1.1588
G01 X27.3513 Y-1.2595
G01 X27.3454 Y-1.2780
G01 X27.3180 Y-1.3871
G01 X27.3148 Y-1.4036
G01 X27.3100 Y-1.4356
G01 X27.3052 Y-1.4036
G01 X27.3020 Y-1.3871
G01 X27.2746 Y-1.2780
G01 X27.2687 Y-1.2595
G01 X27.2326 Y-1.1588
G01 X27.2248 Y-1.1406
G01 X27.1771 Y-1.0405
G01 X27.1696 Y-1.0270
G01 X27.1186 Y-0.9419
G01 X27.1117 Y-0.9309
G01 X27.1042 Y-0.9202
G01 X27.0375 Y-0.8307
G01 X27.0271 Y-0.8185
G01 X26.9577 Y-0.7419
G01 X26.9420 Y-0.7264
G01 X26.8636 Y-0.6554
G01 X26.8500 Y-0.6443
G01 X26.8187 Y-0.6210
G01 X26.9681 Y-0.6760
G01 X27.6519 Y-0.6760
G01 X27.6352 Y-0.6912
G01 X27.6225 Y-0.7041
G01 X27.5524 Y-0.7813
G01 X27.5436 Y-0.7915
G01 X27.5320 Y-0.8062
G01 X27.4726 Y-0.8862
G01 X27.4593 Y-0.9057
G01 X27.4024 Y-1.0003
G01 X27.3957 Y-1.0121
G01 X27.3892 Y-1.0248
G01 X27.3456 Y-1.1170
G01 X27.3400 Y-1.1296
G01 X27.3336 Y-1.1457
G01 X27.3100 Y-1.2118
G01 X27.2864 Y-1.1458
G01 X27.2800 Y-1.1296
G01 X27.2743 Y-1.1169
G01 X27.2308 Y-1.0248
G01 X27.2243 Y-1.0121
G01 X27.2176 Y-1.0003
G01 X27.1607 Y-0.9057
G01 X27.1474 Y-0.8863
G01 X27.0880 Y-0.8062
G01 X27.0764 Y-0.7915
G01 X27.0676 Y-0.7814
G01 X26.9975 Y-0.7041
G01 X26.9848 Y-0.6912
G01 X26.9681 Y-0.6760
G01 X27.0959 Y-0.7309
G01 X27.5241 Y-0.7309
G01 X27.5048 Y-0.7524
G01 X27.4909 Y-0.7694
G01 X27.4273 Y-0.8551
G01 X27.4136 Y-0.8751
G01 X27.3565 Y-0.9700
G01 X27.3488 Y-0.9835
G01 X27.3393 Y-1.0020
G01 X27.3100 Y-1.0639
G01 X27.2807 Y-1.0019
G01 X27.2712 Y-0.9835
G01 X27.2635 Y-0.9700
G01 X27.2063 Y-0.8750
G01 X27.1927 Y-0.8552
G01 X27.1289 Y-0.7692
G01 X27.1152 Y-0.7523
G01 X27.0959 Y-0.7309
G01 X27.2096 Y-0.7858
G01 X27.4104 Y-0.7858
G01 X27.3807 Y-0.8258
G01 X27.3681 Y-0.8444
G01 X27.3100 Y-0.9408
G01 X27.2520 Y-0.8445
G01 X27.2392 Y-0.8258
G01 X27.2096 Y-0.7858
G00 Z1.0000
G00 X27.0930 Y-2.1731
G01 F25.00
G01 Z-0.0400
G01 F120.00
G01 X27.1290 Y-2.0964
G01 X27.1653 Y-1.9955
G01 X27.1698 Y-1.9806
G01 X27.1942 Y-1.8832
G01 X27.1973 Y-1.8676
G01 X27.2127 Y-1.7622
G01 X27.2184 Y-1.6517
G01 X27.2183 Y-1.6376
G01 X27.2129 Y-1.5312
G01 X27.1960 Y-1.4167
G01 X27.1939 Y-1.4075
G01 X27.1675 Y-1.3033
G01 X27.1319 Y-1.2032
G01 X27.1268 Y-1.1904
G01 X27.0833 Y-1.0983
G01 X27.0787 Y-1.0893
G01 X27.0244 Y-0.9984
G01 X27.0148 Y-0.9841
G01 X26.9506 Y-0.8979
G01 X26.8794 Y-0.8190
G01 X26.8677 Y-0.8073
G01 X26.7920 Y-0.7387
G01 X26.7810 Y-0.7298
G01 X26.6953 Y-0.6665
G01 X26.6032 Y-0.6110
G01 X26.5943 Y-0.6060
G01 X26.4990 Y-0.5608
G01 X26.4882 Y-0.5561
G01 X26.3869 Y-0.5198
G01 X26.3766 Y-0.5167
G01 X26.3548 Y-0.5112
G01 X28.2652 Y-0.5112
G01 X28.2434 Y-0.5167
G01 X28.2324 Y-0.5200
G01 X28.1369 Y-0.5542
G01 X28.1222 Y-0.5602
G01 X28.0239 Y-0.6070
G01 X27.9324 Y-0.6616
G01 X27.9206 Y-0.6694
G01 X27.8319 Y-0.7354
G01 X27.7462 Y-0.8132
G01 X27.6694 Y-0.8979
G01 X27.6030 Y-0.9871
G01 X27.5954 Y-0.9987
G01 X27.5410 Y-1.0899
G01 X27.4915 Y-1.1944
G01 X27.4525 Y-1.3033
G01 X27.4248 Y-1.4131
G01 X27.4227 Y-1.4247
G01 X27.4073 Y-1.5298
G01 X27.4015 Y-1.6447
G01 X27.4017 Y-1.6548
G01 X27.4071 Y-1.7602
G01 X27.4082 Y-1.7699
G01 X27.4196 Y-1.8465
G01 X27.0930 Y-2.1731
G00 Z1.0000
G00 X29.1071 Y-2.6990
G01 F25.00
G01 Z-0.0400
G01 F120.00
G01 X23.9801 Y-7.8260
G01 X23.3233 Y-7.8260
G01 X23.3696 Y-7.7980
G01 X23.4165 Y-7.7635
G01 X23.4285 Y-7.7536
G01 X23.4717 Y-7.7142
G01 X28.3795 Y-2.8064
G01 X28.4561 Y-2.8178
G01 X28.4658 Y-2.8189
G01 X28.5743 Y-2.8244
G01 X28.5884 Y-2.8243
G01 X28.6868 Y-2.8195
G01 X28.7042 Y-2.8177
G01 X28.8106 Y-2.8017
G01 X28.9208 Y-2.7741
G01 X28.9304 Y-2.7710
G01 X29.0297 Y-2.7353
G01 X29.0387 Y-2.7314
G01 X29.1071 Y-2.6990
G00 Z1.0000
G00 X29.7496 Y-0.7858
G01 F25.00
G01 Z-0.0400
G01 F120.00
G01 X29.9504 Y-0.7858
G01 X29.9207 Y-0.8258
G01 X29.9081 Y-0.8444
G01 X29.8500 Y-0.9408
G01 X29.7920 Y-0.8445
G01 X29.7792 Y-0.8258
G01 X29.7496 Y-0.7858
G01 X29.6359 Y-0.7309
G01 X30.0641 Y-0.7309
G01 X30.0448 Y-0.7524
G01 X30.0309 Y-0.7694
G01 X29.9673 Y-0.8551
G01 X29.9536 Y-0.8751
G01 X29.8965 Y-0.9700
G01 X29.8888 Y-0.9835
G01 X29.8793 Y-1.0020
G01 X29.8500 Y-1.0639
G01 X29.8207 Y-1.0019
G01 X29.8114 Y-0.9838
G01 X29.8037 Y-0.9703
G01 X29.7487 Y-0.8787
G01 X29.7331 Y-0.8557
G01 X29.6727 Y-0.7743
G01 X29.6626 Y-0.7612
G01 X29.6521 Y-0.7488
G01 X29.6359 Y-0.7309
G01 X29.5081 Y-0.6760
G01 X30.1919 Y-0.6760
G01 X30.1752 Y-0.6912
G01 X30.1625 Y-0.7041
G01 X30.0924 Y-0.7813
G01 X30.0836 Y-0.7915
G01 X30.0720 Y-0.8062
G01 X30.0126 Y-0.8862
G01 X29.9993 Y-0.9057
G01 X29.9424 Y-1.0003
G01 X29.9357 Y-1.0121
G01 X29.9292 Y-1.0248
G01 X29.8856 Y-1.1170
G01 X29.8800 Y-1.1296
G01 X29.8736 Y-1.1457
G01 X29.8500 Y-1.2118
G01 X29.8263 Y-1.1455
G01 X29.8189 Y-1.1270
G01 X29.7718 Y-1.0270
G01 X29.7619 Y-1.0077
G01 X29.7056 Y-0.9136
G01 X29.6963 Y-0.8989
G01 X29.6877 Y-0.8867
G01 X29.6286 Y-0.8070
G01 X29.6168 Y-0.7920
G01 X29.6076 Y-0.7814
G01 X29.5375 Y-0.7041
G01 X29.5248 Y-0.6912
G01 X29.5081 Y-0.6760
G01 X29.3587 Y-0.6210
G01 X30.3413 Y-0.6210
G01 X30.3100 Y-0.6443
G01 X30.2964 Y-0.6554
G01 X30.2180 Y-0.7264
G01 X30.2023 Y-0.7419
G01 X30.1329 Y-0.8185
G01 X30.1225 Y-0.8307
G01 X30.0558 Y-0.9202
G01 X30.0483 Y-0.9309
G01 X30.0414 Y-0.9419
G01 X29.9904 Y-1.0270
G01 X29.9829 Y-1.0405
G01 X29.9352 Y-1.1406
G01 X29.9274 Y-1.1588
G01 X29.8913 Y-1.2595
G01 X29.8854 Y-1.2780
G01 X29.8580 Y-1.3871
G01 X29.8548 Y-1.4036
G01 X29.8500 Y-1.4356
G01 X29.8452 Y-1.4036
G01 X29.8420 Y-1.3871
G01 X29.8142 Y-1.2767
G01 X29.8088 Y-1.2595
G01 X29.7753 Y-1.1659
G01 X29.7670 Y-1.1454
G01 X29.7225 Y-1.0511
G01 X29.7165 Y-1.0393
G01 X29.7096 Y-1.0270
G01 X29.6588 Y-0.9422
G01 X29.6519 Y-0.9312
G01 X29.6445 Y-0.9206
G01 X29.5808 Y-0.8349
G01 X29.5667 Y-0.8180
G01 X29.5001 Y-0.7445
G01 X29.4869 Y-0.7310
G01 X29.4021 Y-0.6541
G01 X29.3896 Y-0.6440
G01 X29.3587 Y-0.6210
G01 X29.1751 Y-0.5661
G01 X30.5249 Y-0.5661
G01 X30.4443 Y-0.6144
G01 X30.4342 Y-0.6208
G01 X30.3460 Y-0.6859
G01 X30.3294 Y-0.6996
G01 X30.2560 Y-0.7661
G01 X30.2471 Y-0.7746
G01 X30.1672 Y-0.8628
G01 X30.1596 Y-0.8724
G01 X30.1011 Y-0.9514
G01 X30.0890 Y-0.9693
G01 X30.0327 Y-1.0637
G01 X30.0271 Y-1.0748
G01 X29.9809 Y-1.1731
G01 X29.9764 Y-1.1845
G01 X29.9432 Y-1.2772
G01 X29.9395 Y-1.2886
G01 X29.9367 Y-1.2988
G01 X29.9126 Y-1.3948
G01 X29.9091 Y-1.4117
G01 X29.8939 Y-1.5139
G01 X29.8925 Y-1.5258
G01 X29.8866 Y-1.6413
G01 X29.8868 Y-1.6569
G01 X29.8921 Y-1.7622
G01 X29.8937 Y-1.7768
G01 X29.9012 Y-1.8273
G01 X29.7727 Y-1.9558
G01 X29.7875 Y-1.8965
G01 X29.7905 Y-1.8827
G01 X29.8061 Y-1.7778
G01 X29.8078 Y-1.7632
G01 X29.8134 Y-1.6467
G01 X29.8131 Y-1.6347
G01 X29.8080 Y-1.5318
G01 X29.8062 Y-1.5144
G01 X29.7916 Y-1.4165
G01 X29.7896 Y-1.4047
G01 X29.7872 Y-1.3942
G01 X29.7633 Y-1.2988
G01 X29.7600 Y-1.2870
G01 X29.7236 Y-1.1845
G01 X29.7181 Y-1.1706
G01 X29.6681 Y-1.0652
G01 X29.6622 Y-1.0548
G01 X29.6110 Y-0.9693
G01 X29.5998 Y-0.9526
G01 X29.5405 Y-0.8726
G01 X29.5339 Y-0.8641
G01 X29.5263 Y-0.8552
G01 X29.4599 Y-0.7820
G01 X29.4514 Y-0.7731
G01 X29.3711 Y-0.7000
G01 X29.3630 Y-0.6930
G01 X29.3534 Y-0.6855
G01 X29.2661 Y-0.6210
G01 X29.2560 Y-0.6146
G01 X29.1751 Y-0.5661
G00 Z1.0000
G00 X30.8052 Y-0.5112
G01 F25.00
G01 Z-0.0400
G01 F120.00
G01 X30.7834 Y-0.5167
G01 X30.7724 Y-0.5200
G01 X30.6769 Y-0.5542
G01 X30.6622 Y-0.5602
G01 X30.5639 Y-0.6070
G01 X30.4724 Y-0.6616
G01 X30.4606 Y-0.6694
G01 X30.3719 Y-0.7354
G01 X30.2862 Y-0.8132
G01 X30.2094 Y-0.8979
G01 X30.1430 Y-0.9871
G01 X30.1354 Y-0.9987
G01 X30.0810 Y-1.0899
G01 X30.0315 Y-1.1944
G01 X29.9925 Y-1.3033
G01 X29.9648 Y-1.4131
G01 X29.9627 Y-1.4247
G01 X29.9473 Y-1.5298
G01 X29.9415 Y-1.6447
G01 X29.9417 Y-1.6548
G01 X29.9471 Y-1.7602
G01 X29.9482 Y-1.7699
G01 X29.9596 Y-1.8465
G01 X29.6330 Y-2.1731
G01 X29.6690 Y-2.0964
G01 X29.7053 Y-1.9955
G01 X29.7098 Y-1.9806
G01 X29.7342 Y-1.8832
G01 X29.7373 Y-1.8676
G01 X29.7527 Y-1.7622
G01 X29.7584 Y-1.6517
G01 X29.7583 Y-1.6376
G01 X29.7529 Y-1.5312
G01 X29.7360 Y-1.4167
G01 X29.7339 Y-1.4075
G01 X29.7075 Y-1.3033
G01 X29.6719 Y-1.2032
G01 X29.6668 Y-1.1904
G01 X29.6233 Y-1.0983
G01 X29.6187 Y-1.0893
G01 X29.5644 Y-0.9984
G01 X29.5548 Y-0.9841
G01 X29.4906 Y-0.8979
G01 X29.4194 Y-0.8190
G01 X29.4077 Y-0.8073
G01 X29.3320 Y-0.7387
G01 X29.3210 Y-0.7298
G01 X29.2353 Y-0.6665
G01 X29.1432 Y-0.6110
G01 X29.1343 Y-0.6060
G01 X29.0390 Y-0.5608
G01 X29.0282 Y-0.5561
G01 X28.9269 Y-0.5198
G01 X28.9166 Y-0.5167
G01 X28.8948 Y-0.5112
G01 X30.8052 Y-0.5112
G01 X31.7151 Y-0.5661
G01 X33.0649 Y-0.5661
G01 X32.9843 Y-0.6144
G01 X32.9742 Y-0.6208
G01 X32.8860 Y-0.6859
G01 X32.8694 Y-0.6996
G01 X32.7960 Y-0.7661
G01 X32.7871 Y-0.7746
G01 X32.7072 Y-0.8628
G01 X32.6996 Y-0.8724
G01 X32.6411 Y-0.9514
G01 X32.6290 Y-0.9693
G01 X32.5727 Y-1.0637
G01 X32.5671 Y-1.0748
G01 X32.5209 Y-1.1731
G01 X32.5164 Y-1.1845
G01 X32.4832 Y-1.2772
G01 X32.4799 Y-1.2873
G01 X32.4767 Y-1.2988
G01 X32.4526 Y-1.3948
G01 X32.4491 Y-1.4117
G01 X32.4339 Y-1.5139
G01 X32.4325 Y-1.5258
G01 X32.4266 Y-1.6413
G01 X32.4268 Y-1.6569
G01 X32.4321 Y-1.7622
G01 X32.4337 Y-1.7768
G01 X32.4412 Y-1.8272
G01 X32.3127 Y-1.9558
G01 X32.3275 Y-1.8965
G01 X32.3305 Y-1.8827
G01 X32.3461 Y-1.7778
G01 X32.3478 Y-1.7632
G01 X32.3534 Y-1.6467
G01 X32.3531 Y-1.6347
G01 X32.3480 Y-1.5318
G01 X32.3462 Y-1.5144
G01 X32.3316 Y-1.4165
G01 X32.3296 Y-1.4047
G01 X32.3272 Y-1.3942
G01 X32.3033 Y-1.2988
G01 X32.3000 Y-1.2870
G01 X32.2636 Y-1.1845
G01 X32.2581 Y-1.1706
G01 X32.2081 Y-1.0652
G01 X32.2022 Y-1.0548
G01 X32.1510 Y-0.9693
G01 X32.1398 Y-0.9526
G01 X32.0805 Y-0.8726
G01 X32.0739 Y-0.8641
G01 X32.0663 Y-0.8552
G01 X31.9999 Y-0.7820
G01 X31.9914 Y-0.7731
G01 X31.9111 Y-0.7000
G01 X31.9030 Y-0.6930
G01 X31.8934 Y-0.6855
G01 X31.8061 Y-0.6210
G01 X31.7960 Y-0.6146
G01 X31.7151 Y-0.5661
G01 X31.8987 Y-0.6210
G01 X32.8813 Y-0.6210
G01 X32.8500 Y-0.6443
G01 X32.8364 Y-0.6554
G01 X32.7580 Y-0.7264
G01 X32.7423 Y-0.7419
G01 X32.6729 Y-0.8185
G01 X32.6625 Y-0.8307
G01 X32.5958 Y-0.9202
G01 X32.5883 Y-0.9309
G01 X32.5814 Y-0.9419
G01 X32.5304 Y-1.0270
G01 X32.5229 Y-1.0405
G01 X32.4752 Y-1.1406
G01 X32.4674 Y-1.1588
G01 X32.4313 Y-1.2595
G01 X32.4254 Y-1.2780
G01 X32.3980 Y-1.3871
G01 X32.3948 Y-1.4036
G01 X32.3900 Y-1.4356
G01 X32.3852 Y-1.4036
G01 X32.3820 Y-1.3871
G01 X32.3546 Y-1.2780
G01 X32.3487 Y-1.2595
G01 X32.3126 Y-1.1588
G01 X32.3048 Y-1.1406
G01 X32.2571 Y-1.0405
G01 X32.2496 Y-1.0270
G01 X32.1986 Y-0.9419
G01 X32.1917 Y-0.9309
G01 X32.1842 Y-0.9202
G01 X32.1175 Y-0.8307
G01 X32.1071 Y-0.8185
G01 X32.0377 Y-0.7419
G01 X32.0220 Y-0.7264
G01 X31.9436 Y-0.6554
G01 X31.9300 Y-0.6443
G01 X31.8987 Y-0.6210
G01 X32.0481 Y-0.6760
G01 X32.7319 Y-0.6760
G01 X32.7152 Y-0.6912
G01 X32.7025 Y-0.7041
G01 X32.6324 Y-0.7813
G01 X32.6236 Y-0.7915
G01 X32.6120 Y-0.8062
G01 X32.5526 Y-0.8862
G01 X32.5393 Y-0.9057
G01 X32.4824 Y-1.0003
G01 X32.4757 Y-1.0121
G01 X32.4692 Y-1.0248
G01 X32.4256 Y-1.1170
G01 X32.4200 Y-1.1296
G01 X32.4136 Y-1.1457
G01 X32.3900 Y-1.2118
G01 X32.3664 Y-1.1458
G01 X32.3600 Y-1.1296
G01 X32.3543 Y-1.1169
G01 X32.3108 Y-1.0248
G01 X32.3043 Y-1.0121
G01 X32.2976 Y-1.0003
G01 X32.2407 Y-0.9057
G01 X32.2274 Y-0.8863
G01 X32.1680 Y-0.8062
G01 X32.1564 Y-0.7915
G01 X32.1476 Y-0.7814
G01 X32.0775 Y-0.7041
G01 X32.0648 Y-0.6912
G01 X32.0481 Y-0.6760
G01 X32.1759 Y-0.7309
G01 X32.6041 Y-0.7309
G01 X32.5848 Y-0.7524
G01 X32.5709 Y-0.7694
G01 X32.5073 Y-0.8551
G01 X32.4936 Y-0.8751
G01 X32.4365 Y-0.9700
G01 X32.4288 Y-0.9835
G01 X32.4193 Y-1.0020
G01 X32.3900 Y-1.0639
G01 X32.3607 Y-1.0019
G01 X32.3512 Y-0.9835
G01 X32.3435 Y-0.9700
G01 X32.2863 Y-0.8750
G01 X32.2727 Y-0.8552
G01 X32.2089 Y-0.7692
G01 X32.1952 Y-0.7523
G01 X32.1759 Y-0.7309
G01 X32.2896 Y-0.7858
G01 X32.4904 Y-0.7858
G01 X32.4607 Y-0.8258
G01 X32.4481 Y-0.8444
G01 X32.3900 Y-0.9408
G01 X32.3320 Y-0.8445
G01 X32.3192 Y-0.8258
G01 X32.2896 Y-0.7858
G00 Z1.0000
G00 X32.1730 Y-2.1731
G01 F25.00
G01 Z-0.0400
G01 F120.00
G01 X32.2090 Y-2.0964
G01 X32.2453 Y-1.9955
G01 X32.2498 Y-1.9806
G01 X32.2742 Y-1.8832
G01 X32.2773 Y-1.8676
G01 X32.2927 Y-1.7622
G01 X32.2984 Y-1.6517
G01 X32.2983 Y-1.6376
G01 X32.2929 Y-1.5312
G01 X32.2760 Y-1.4167
G01 X32.2501 Y-1.3123
G01 X32.2475 Y-1.3033
G01 X32.2119 Y-1.2032
G01 X32.2068 Y-1.1904
G01 X32.1633 Y-1.0983
G01 X32.1587 Y-1.0893
G01 X32.1044 Y-0.9984
G01 X32.0948 Y-0.9841
G01 X32.0306 Y-0.8979
G01 X31.9594 Y-0.8190
G01 X31.9477 Y-0.8073
G01 X31.8720 Y-0.7387
G01 X31.8610 Y-0.7298
G01 X31.7753 Y-0.6665
G01 X31.6832 Y-0.6110
G01 X31.6743 Y-0.6060
G01 X31.5790 Y-0.5608
G01 X31.5682 Y-0.5561
G01 X31.4669 Y-0.5198
G01 X31.4566 Y-0.5167
G01 X31.4348 Y-0.5112
G01 X33.3452 Y-0.5112
G01 X33.3234 Y-0.5167
G01 X33.3124 Y-0.5200
G01 X33.2169 Y-0.5542
G01 X33.2022 Y-0.5602
G01 X33.1039 Y-0.6070
G01 X33.0124 Y-0.6616
G01 X33.0006 Y-0.6694
G01 X32.9119 Y-0.7354
G01 X32.8262 Y-0.8132
G01 X32.7494 Y-0.8979
G01 X32.6830 Y-0.9871
G01 X32.6754 Y-0.9987
G01 X32.6210 Y-1.0899
G01 X32.5715 Y-1.1944
G01 X32.5325 Y-1.3033
G01 X32.5048 Y-1.4131
G01 X32.5027 Y-1.4247
G01 X32.4873 Y-1.5298
G01 X32.4815 Y-1.6447
G01 X32.4817 Y-1.6548
G01 X32.4871 Y-1.7602
G01 X32.4882 Y-1.7699
G01 X32.4996 Y-1.8465
G01 X32.1730 Y-2.1731
G00 Z1.0000
G00 X34.8532 Y-2.1315
G01 F25.00
G01 Z-0.0400
G01 F120.00
G01 X34.8909 Y-2.0261
G01 X34.8955 Y-2.0107
G01 X34.9034 Y-1.9792
G01 X34.9034 Y-2.0814
G01 X34.8532 Y-2.1315
G01 X34.9034 Y-1.3128
G01 X34.8950 Y-1.2796
G01 X34.8890 Y-1.2602
G01 X34.8884 Y-1.2586
G01 X34.8554 Y-1.1662
G01 X34.8551 Y-1.1655
G01 X34.8500 Y-1.1524
G01 X34.8446 Y-1.1401
G01 X34.8022 Y-1.0506
G01 X34.7952 Y-1.0369
G01 X34.7386 Y-0.9419
G01 X34.7284 Y-0.9261
G01 X34.6645 Y-0.8398
G01 X34.6563 Y-0.8292
G01 X34.6469 Y-0.8182
G01 X34.5764 Y-0.7406
G01 X34.5615 Y-0.7259
G01 X34.4836 Y-0.6554
G01 X34.4700 Y-0.6443
G01 X34.4387 Y-0.6210
G01 X34.5678 Y-0.6210
G01 X34.9034 Y-0.9566
G01 X34.9034 Y-1.3128
G01 X34.7901 Y-0.9210
G01 X34.8485 Y-0.9794
G01 X34.8485 Y-1.0202
G01 X34.8376 Y-1.0002
G01 X34.7901 Y-0.9210
G00 Z1.0000
G00 X36.4274 Y-0.3464
G01 F25.00
G01 Z-0.0400
G01 F120.00
G01 X36.4197 Y-0.3262
G01 X36.4092 Y-0.3034
G01 X36.4274 Y-0.3216
G01 X36.4274 Y-0.3464
G00 Z1.0000
G00 X35.2210 Y0.8848
G01 F25.00
G01 Z-0.0400
G01 F120.00
G01 X35.2035 Y0.8930
G01 X35.1904 Y0.8984
G01 X35.1312 Y0.9197
G01 X35.1123 Y0.9253
G01 X35.0620 Y0.9379
G01 X35.0392 Y0.9426
G01 X34.9814 Y0.9512
G01 X34.9653 Y0.9529
G01 X34.9425 Y0.9541
G01 X34.9586 Y0.9785
G01 X34.9662 Y0.9909
G01 X34.9749 Y1.0070
G01 X34.9825 Y1.0236
G01 X34.9889 Y1.0403
G01 X34.9944 Y1.0579
G01 X34.9980 Y1.0721
G01 X35.0041 Y1.1016
G01 X35.2210 Y0.8848
G01 X34.9511 Y1.2323
G01 X36.4823 Y-0.2989
G01 X36.4823 Y-2.9931
G01 X27.3235 Y-12.1520
G01 X27.3278 Y-12.1300
G01 X27.3300 Y-12.1095
G01 X27.3305 Y-12.0988
G01 X27.3305 Y-12.0879
G01 X27.3290 Y-12.0673
G01 X27.3260 Y-12.0484
G01 X27.3151 Y-11.9970
G01 X27.3090 Y-11.9770
G01 X27.3052 Y-11.9670
G01 X27.3006 Y-11.9564
G01 X27.2947 Y-11.9446
G01 X27.2878 Y-11.9326
G01 X27.2617 Y-11.8930
G01 X27.2511 Y-11.8783
G01 X27.2396 Y-11.8646
G01 X27.2250 Y-11.8499
G01 X27.2097 Y-11.8370
G01 X27.1975 Y-11.8283
G01 X27.1628 Y-11.8053
G01 X27.2251 Y-11.7895
G01 X27.2360 Y-11.7859
G01 X27.2835 Y-11.7689
G01 X27.3027 Y-11.7610
G01 X27.3490 Y-11.7391
G01 X27.3595 Y-11.7337
G01 X27.4125 Y-11.7023
G01 X27.4298 Y-11.6906
G01 X27.4697 Y-11.6610
G01 X27.4790 Y-11.6537
G01 X27.5306 Y-11.6069
G01 X36.2109 Y-2.9267
G01 X36.2529 Y-2.8807
G01 X36.2659 Y-2.8648
G01 X36.2958 Y-2.8244
G01 X36.3024 Y-2.8150
G01 X36.3359 Y-2.7594
G01 X36.3439 Y-2.7442
G01 X36.3655 Y-2.6986
G01 X36.3701 Y-2.6881
G01 X36.3910 Y-2.6304
G01 X36.3967 Y-2.6114
G01 X36.4114 Y-2.5518
G01 X36.4134 Y-2.5405
G01 X36.4207 Y-2.4911
G01 X36.4228 Y-2.4722
G01 X36.4256 Y-2.4131
G01 X36.4256 Y-0.6260
G01 X36.4222 Y-0.5588
G01 X36.4208 Y-0.5474
G01 X36.4132 Y-0.4963
G01 X36.4091 Y-0.4757
G01 X36.3962 Y-0.4245
G01 X36.3911 Y-0.4079
G01 X36.3737 Y-0.3593
G01 X36.3692 Y-0.3477
G01 X36.3440 Y-0.2939
G01 X36.3373 Y-0.2809
G01 X36.3079 Y-0.2316
G01 X36.3009 Y-0.2207
G01 X36.2650 Y-0.1720
G01 X36.2518 Y-0.1560
G01 X36.2109 Y-0.1113
G01 X35.4132 Y0.6863
G01 X35.4049 Y0.6942
G01 X35.3606 Y0.7340
G01 X35.3508 Y0.7417
G01 X35.3026 Y0.7772
G01 X35.2923 Y0.7837
G01 X35.2409 Y0.8143
G01 X35.2300 Y0.8197
G01 X35.1758 Y0.8451
G01 X35.1645 Y0.8495
G01 X35.1080 Y0.8694
G01 X35.0964 Y0.8727
G01 X35.0382 Y0.8870
G01 X35.0264 Y0.8890
G01 X34.9684 Y0.8975
G01 X34.9554 Y0.8985
G01 X34.8995 Y0.9012
G01 X34.8139 Y0.9012
G01 X34.8324 Y0.9137
G01 X34.8477 Y0.9260
G01 X34.8627 Y0.9402
G01 X34.8760 Y0.9551
G01 X34.8873 Y0.9703
G01 X34.9150 Y1.0123
G01 X34.9243 Y1.0287
G01 X34.9324 Y1.0463
G01 X34.9389 Y1.0640
G01 X34.9437 Y1.0814
G01 X34.9541 Y1.1309
G01 X34.9570 Y1.1510
G01 X34.9581 Y1.1709
G01 X34.9576 Y1.1908
G01 X34.9554 Y1.2103
G01 X34.9511 Y1.2323
G00 Z1.0000
G00 X39.4527 Y0.9388
G01 F25.00
G01 Z-0.0400
G01 F120.00
G01 X39.4634 Y0.9323
G01 X39.4743 Y0.9265
G01 X39.5071 Y0.9115
G01 X39.5073 Y-15.8875
G01 X39.4743 Y-15.9026
G01 X39.4634 Y-15.9083
G01 X39.4527 Y-15.9149
G01 X39.4580 Y-15.8934
G01 X39.4604 Y-15.8815
G01 X39.4696 Y-15.8199
G01 X39.4709 Y-15.8040
G01 X39.4737 Y-15.7430
G01 X39.4737 Y0.7670
G01 X39.4709 Y0.8280
G01 X39.4696 Y0.8439
G01 X39.4604 Y0.9055
G01 X39.4580 Y0.9174
G01 X39.4527 Y0.9388
G01 X39.5621 Y0.9480
G01 X39.5623 Y-15.9239
G01 X39.5464 Y-15.9301
G01 X39.5043 Y-15.9491
G01 X39.4927 Y-15.9549
G01 X39.4822 Y-15.9612
G01 X39.4716 Y-15.9685
G01 X39.4615 Y-15.9767
G01 X39.4530 Y-15.9846
G01 X39.4444 Y-15.9937
G01 X39.4136 Y-16.0293
G01 X39.4077 Y-16.0366
G01 X39.4015 Y-16.0452
G01 X39.3922 Y-16.0606
G01 X39.3600 Y-16.1212
G01 X39.3163 Y-16.1855
G01 X39.3066 Y-16.1978
G01 X39.2486 Y-16.2622
