(G-CODE GENERATED BY FLATCAM v8.994 - www.flatcam.org - Version Date: 2020/11/7)

(Name: Gerber_BottomLayer.GBL_cutout_cnc)
(Type: G-code from Geometry)
(Units: MM)

(Created on Wednesday, 13 July 2022 at 22:21)

(This preprocessor is the default preprocessor used by FlatCAM.)
(It is made to work with MACH3 compatible motion controllers.)

(TOOL DIAMETER: 3.175 mm)
(Feedrate_XY: 25.0 mm/min)
(Feedrate_Z: 25.0 mm/min)
(Feedrate rapids 1500.0 mm/min)

(Z_Cut: -1.8 mm)
(DepthPerCut: 0.6 mm <=>3 passes)
(Z_Move: 1.0 mm)
(Z Start: None mm)
(Z End: 15.0 mm)
(X,Y End: None mm)
(Steps per circle: 64)
(Preprocessor Geometry: default)

(X range:  -41.4284 ...   41.4282  mm)
(Y range:  -41.4284 ...   41.4282  mm)

(Spindle Speed: 1000.0 RPM)
G21
G90
G94

G01 F25.00

M5
G00 Z15.0000
G00 X0.0000 Y0.0000
T1
M6    
(MSG, Change to Tool Dia = 3.1750)
M0
G00 Z15.0000

M03 S1000.0
G01 F25.00
G00 X41.4282 Y-2.4876
G01 F25.00
G01 Z-0.6000
G01 F25.00
G01 X41.4282 Y-27.1405
G01 X41.4192 Y-27.3146
G01 X41.3923 Y-27.4869
G01 X41.3837 Y-27.5280
G01 X41.3390 Y-27.6971
G01 X41.2770 Y-27.8607
G01 X41.1984 Y-28.0169
G01 X41.1040 Y-28.1642
G01 X41.0797 Y-28.1983
G01 X40.9685 Y-28.3373
G01 X40.8433 Y-28.4639
G01 X27.1045 Y-40.9628
G01 X26.9898 Y-41.0581
G01 X26.8672 Y-41.1430
G01 X26.8357 Y-41.1628
G01 X26.6942 Y-41.2426
G01 X26.5457 Y-41.3084
G01 X26.3915 Y-41.3596
G01 X26.2331 Y-41.3957
G01 X26.1960 Y-41.4023
G01 X26.0487 Y-41.4219
G01 X25.9003 Y-41.4284
G01 X-27.1506 Y-41.4284
G01 X-27.3148 Y-41.4204
G01 X-27.4774 Y-41.3965
G01 X-27.5160 Y-41.3889
G01 X-27.6797 Y-41.3480
G01 X-27.8385 Y-41.2909
G01 X-27.9909 Y-41.2183
G01 X-28.1352 Y-41.1308
G01 X-28.1682 Y-41.1084
G01 X-28.2967 Y-41.0122
G01 X-28.4155 Y-40.9042
G01 X-38.8051 Y-30.5151
G01 X-40.9043 Y-28.4154
G01 X-41.0123 Y-28.2966
G01 X-41.1084 Y-28.1682
G01 X-41.1308 Y-28.1352
G01 X-41.2183 Y-27.9909
G01 X-41.2909 Y-27.8385
G01 X-41.3480 Y-27.6797
G01 X-41.3889 Y-27.5160
G01 X-41.3965 Y-27.4774
G01 X-41.4204 Y-27.3148
G01 X-41.4284 Y-27.1506
G01 X-41.4284 Y-2.4876
G00 X-41.4284 Y-2.4876
G01 F25.00
G01 Z-1.2000
G01 F25.00
G01 X-41.4284 Y-27.1506
G01 X-41.4204 Y-27.3148
G01 X-41.3965 Y-27.4774
G01 X-41.3889 Y-27.5160
G01 X-41.3480 Y-27.6797
G01 X-41.2909 Y-27.8385
G01 X-41.2183 Y-27.9909
G01 X-41.1308 Y-28.1352
G01 X-41.1084 Y-28.1682
G01 X-41.0123 Y-28.2966
G01 X-40.9043 Y-28.4154
G01 X-38.8051 Y-30.5151
G01 X-28.4155 Y-40.9042
G01 X-28.2967 Y-41.0122
G01 X-28.1682 Y-41.1084
G01 X-28.1352 Y-41.1308
G01 X-27.9909 Y-41.2183
G01 X-27.8385 Y-41.2909
G01 X-27.6797 Y-41.3480
G01 X-27.5160 Y-41.3889
G01 X-27.4774 Y-41.3965
G01 X-27.3148 Y-41.4204
G01 X-27.1506 Y-41.4284
G01 X25.9003 Y-41.4284
G01 X26.0487 Y-41.4219
G01 X26.1960 Y-41.4023
G01 X26.2331 Y-41.3957
G01 X26.3915 Y-41.3596
G01 X26.5457 Y-41.3084
G01 X26.6942 Y-41.2426
G01 X26.8357 Y-41.1628
G01 X26.8672 Y-41.1430
G01 X26.9898 Y-41.0581
G01 X27.1045 Y-40.9628
G01 X40.8433 Y-28.4639
G01 X40.9685 Y-28.3373
G01 X41.0797 Y-28.1983
G01 X41.1040 Y-28.1642
G01 X41.1984 Y-28.0169
G01 X41.2770 Y-27.8607
G01 X41.3390 Y-27.6971
G01 X41.3837 Y-27.5280
G01 X41.3923 Y-27.4869
G01 X41.4192 Y-27.3146
G01 X41.4282 Y-27.1405
G01 X41.4282 Y-2.4876
G00 X41.4282 Y-2.4876
G01 F25.00
G01 Z-1.8000
G01 F25.00
G01 X41.4282 Y-27.1405
G01 X41.4192 Y-27.3146
G01 X41.3923 Y-27.4869
G01 X41.3837 Y-27.5280
G01 X41.3390 Y-27.6971
G01 X41.2770 Y-27.8607
G01 X41.1984 Y-28.0169
G01 X41.1040 Y-28.1642
G01 X41.0797 Y-28.1983
G01 X40.9685 Y-28.3373
G01 X40.8433 Y-28.4639
G01 X27.1045 Y-40.9628
G01 X26.9898 Y-41.0581
G01 X26.8672 Y-41.1430
G01 X26.8357 Y-41.1628
G01 X26.6942 Y-41.2426
G01 X26.5457 Y-41.3084
G01 X26.3915 Y-41.3596
G01 X26.2331 Y-41.3957
G01 X26.1960 Y-41.4023
G01 X26.0487 Y-41.4219
G01 X25.9003 Y-41.4284
G01 X-27.1506 Y-41.4284
G01 X-27.3148 Y-41.4204
G01 X-27.4774 Y-41.3965
G01 X-27.5160 Y-41.3889
G01 X-27.6797 Y-41.3480
G01 X-27.8385 Y-41.2909
G01 X-27.9909 Y-41.2183
G01 X-28.1352 Y-41.1308
G01 X-28.1682 Y-41.1084
G01 X-28.2967 Y-41.0122
G01 X-28.4155 Y-40.9042
G01 X-38.8051 Y-30.5151
G01 X-40.9043 Y-28.4154
G01 X-41.0123 Y-28.2966
G01 X-41.1084 Y-28.1682
G01 X-41.1308 Y-28.1352
G01 X-41.2183 Y-27.9909
G01 X-41.2909 Y-27.8385
G01 X-41.3480 Y-27.6797
G01 X-41.3889 Y-27.5160
G01 X-41.3965 Y-27.4774
G01 X-41.4204 Y-27.3148
G01 X-41.4284 Y-27.1506
G01 X-41.4284 Y-2.4876
G00 Z1.0000
G00 X-41.4284 Y2.6874
G01 F25.00
G01 Z-0.6000
G01 F25.00
G01 X-41.4284 Y25.9003
G01 X-41.4219 Y26.0487
G01 X-41.4023 Y26.1960
G01 X-41.3957 Y26.2331
G01 X-41.3596 Y26.3915
G01 X-41.3084 Y26.5457
G01 X-41.2426 Y26.6942
G01 X-41.1628 Y26.8357
G01 X-41.1430 Y26.8672
G01 X-41.0581 Y26.9898
G01 X-40.9628 Y27.1045
G01 X-28.4639 Y40.8433
G01 X-28.3373 Y40.9685
G01 X-28.1983 Y41.0797
G01 X-28.1642 Y41.1040
G01 X-28.0169 Y41.1984
G01 X-27.8607 Y41.2770
G01 X-27.6971 Y41.3390
G01 X-27.5280 Y41.3837
G01 X-27.4869 Y41.3923
G01 X-27.3146 Y41.4192
G01 X-27.1405 Y41.4282
G01 X25.8906 Y41.4282
G01 X26.0546 Y41.4203
G01 X26.2170 Y41.3964
G01 X26.2556 Y41.3888
G01 X26.4195 Y41.3479
G01 X26.5785 Y41.2907
G01 X26.7310 Y41.2180
G01 X26.8754 Y41.1304
G01 X26.9085 Y41.1081
G01 X27.0368 Y41.0119
G01 X27.1555 Y40.9040
G01 X40.9040 Y27.1555
G01 X41.0119 Y27.0368
G01 X41.1081 Y26.9085
G01 X41.1304 Y26.8754
G01 X41.2180 Y26.7310
G01 X41.2907 Y26.5785
G01 X41.3479 Y26.4195
G01 X41.3888 Y26.2556
G01 X41.3964 Y26.2170
G01 X41.4203 Y26.0546
G01 X41.4282 Y25.8906
G01 X41.4282 Y2.6874
G00 X41.4282 Y2.6874
G01 F25.00
G01 Z-1.2000
G01 F25.00
G01 X41.4282 Y25.8906
G01 X41.4203 Y26.0546
G01 X41.3964 Y26.2170
G01 X41.3888 Y26.2556
G01 X41.3479 Y26.4195
G01 X41.2907 Y26.5785
G01 X41.2180 Y26.7310
G01 X41.1304 Y26.8754
G01 X41.1081 Y26.9085
G01 X41.0119 Y27.0368
G01 X40.9040 Y27.1555
G01 X27.1555 Y40.9040
G01 X27.0368 Y41.0119
G01 X26.9085 Y41.1081
G01 X26.8754 Y41.1304
G01 X26.7310 Y41.2180
G01 X26.5785 Y41.2907
G01 X26.4195 Y41.3479
G01 X26.2556 Y41.3888
G01 X26.2170 Y41.3964
G01 X26.0546 Y41.4203
G01 X25.8906 Y41.4282
G01 X-27.1405 Y41.4282
G01 X-27.3146 Y41.4192
G01 X-27.4869 Y41.3923
G01 X-27.5280 Y41.3837
G01 X-27.6971 Y41.3390
G01 X-27.8607 Y41.2770
G01 X-28.0169 Y41.1984
G01 X-28.1642 Y41.1040
G01 X-28.1983 Y41.0797
G01 X-28.3373 Y40.9685
G01 X-28.4639 Y40.8433
G01 X-40.9628 Y27.1045
G01 X-41.0581 Y26.9898
G01 X-41.1430 Y26.8672
G01 X-41.1628 Y26.8357
G01 X-41.2426 Y26.6942
G01 X-41.3084 Y26.5457
G01 X-41.3596 Y26.3915
G01 X-41.3957 Y26.2331
G01 X-41.4023 Y26.1960
G01 X-41.4219 Y26.0487
G01 X-41.4284 Y25.9003
G01 X-41.4284 Y2.6874
G00 X-41.4284 Y2.6874
G01 F25.00
G01 Z-1.8000
G01 F25.00
G01 X-41.4284 Y25.9003
G01 X-41.4219 Y26.0487
G01 X-41.4023 Y26.1960
G01 X-41.3957 Y26.2331
G01 X-41.3596 Y26.3915
G01 X-41.3084 Y26.5457
G01 X-41.2426 Y26.6942
G01 X-41.1628 Y26.8357
G01 X-41.1430 Y26.8672
G01 X-41.0581 Y26.9898
G01 X-40.9628 Y27.1045
G01 X-28.4639 Y40.8433
G01 X-28.3373 Y40.9685
G01 X-28.1983 Y41.0797
G01 X-28.1642 Y41.1040
G01 X-28.0169 Y41.1984
G01 X-27.8607 Y41.2770
G01 X-27.6971 Y41.3390
G01 X-27.5280 Y41.3837
G01 X-27.4869 Y41.3923
G01 X-27.3146 Y41.4192
G01 X-27.1405 Y41.4282
G01 X25.8906 Y41.4282
G01 X26.0546 Y41.4203
G01 X26.2170 Y41.3964
G01 X26.2556 Y41.3888
G01 X26.4195 Y41.3479
G01 X26.5785 Y41.2907
G01 X26.7310 Y41.2180
G01 X26.8754 Y41.1304
G01 X26.9085 Y41.1081
G01 X27.0368 Y41.0119
G01 X27.1555 Y40.9040
G01 X40.9040 Y27.1555
G01 X41.0119 Y27.0368
G01 X41.1081 Y26.9085
G01 X41.1304 Y26.8754
G01 X41.2180 Y26.7310
G01 X41.2907 Y26.5785
G01 X41.3479 Y26.4195
G01 X41.3888 Y26.2556
G01 X41.3964 Y26.2170
G01 X41.4203 Y26.0546
G01 X41.4282 Y25.8906
G01 X41.4282 Y2.6874
G00 Z1.0000
M05
G00 Z1.0000
G00 Z15.00


