(G-CODE GENERATED BY FLATCAM v8.994 - www.flatcam.org - Version Date: 2020/11/7)

(Name: Drill_PTH_Through.DRL_cnc)
(Type: G-code from Geometry)
(Units: MM)

(Created on Friday, 15 July 2022 at 22:02)

(This preprocessor is the default preprocessor used by FlatCAM.)
(It is made to work with MACH3 compatible motion controllers.)


(TOOLS DIAMETER: )
(Tool: 1 -> Dia: 0.701)
(Tool: 2 -> Dia: 0.901)

(FEEDRATE Z: )
(Tool: 1 -> Feedrate: 25.0)
(Tool: 2 -> Feedrate: 300)

(FEEDRATE RAPIDS: )
(Tool: 1 -> Feedrate Rapids: 1500)
(Tool: 2 -> Feedrate Rapids: 1500)

(Z_CUT: )
(Tool: 1 -> Z_Cut: -2.5)
(Tool: 2 -> Z_Cut: -1.7)

(Tools Offset: )
(Tool: 1 -> Offset Z: 0.0)

(Z_MOVE: )
(Tool: 1 -> Z_Move: 1.0)
(Tool: 2 -> Z_Move: 2)

(Z Toolchange: 15 mm)
(X,Y Toolchange: 0.0000, 0.0000 mm)
(Z Start: None mm)
(Z End: 0.5 mm)
(X,Y End: None mm)
(Steps per circle: 64)
(Preprocessor Excellon: default)

(X range:   -6.9545 ...    6.4465  mm)
(Y range:   -4.2605 ...    4.5145  mm)

(Spindle Speed: 1000 RPM)
G21
G90
G94

G01 F25.00

M5
G00 Z15.0000
T1
G00 X0.0000 Y0.0000                
M6
(MSG, Change to Tool Dia = 0.7010 ||| Total drills for tool T1 = 6)
M0
G00 Z15.0000

G01 F25.00
M03 S1000
G00 X-5.5880 Y-0.8890
G01 Z-2.5000
G01 Z0
G00 Z1.0000
G00 X-5.5880 Y1.2700
G01 Z-2.5000
G01 Z0
G00 Z1.0000
G00 X3.0480 Y1.2700
G01 Z-2.5000
G01 Z0
G00 Z1.0000
G00 X5.9690 Y1.8770
G01 Z-2.5000
G01 Z0
G00 Z1.0000
G00 X5.9690 Y-1.6230
G01 Z-2.5000
G01 Z0
G00 Z1.0000
G00 X3.0480 Y-0.8890
G01 Z-2.5000
G01 Z0
G00 Z1.0000
M05
G00 Z0.50


