(G-CODE GENERATED BY FLATCAM v8.994 - www.flatcam.org - Version Date: 2020/11/7)

(Name: Gerber_BottomSolderMaskLayer.GBS_mt_paint_cnc)
(Type: G-code from Geometry)
(Units: MM)

(Created on Thursday, 21 July 2022 at 18:41)

(This preprocessor is the default preprocessor used by FlatCAM.)
(It is made to work with MACH3 compatible motion controllers.)

(TOOL DIAMETER: 0.3 mm)
(Feedrate_XY: 120.0 mm/min)
(Feedrate_Z: 25.0 mm/min)
(Feedrate rapids 1500.0 mm/min)

(Z_Cut: -0.0011 mm)
(Z_Move: 1.0 mm)
(Z Start: None mm)
(Z End: 15.0 mm)
(X,Y End: None mm)
(Steps per circle: 64)
(Preprocessor Geometry: default)

(X range:   -7.5037 ...    6.9957  mm)
(Y range:   -5.0638 ...    4.8098  mm)

(Spindle Speed: 1000.0 RPM)
G21
G90
G94

G01 F120.00

M5
G00 Z15.0000
G00 X0.0000 Y0.0000
T1
M6    
(MSG, Change to Tool Dia = 0.3000)
M0
G00 Z15.0000

M03 S1000.0
G01 F120.00
G00 X3.1786 Y0.8890
G01 F25.00
G01 Z-0.0011
G01 F120.00
G01 X3.1779 Y0.8762
G01 X3.1760 Y0.8635
G01 X3.1729 Y0.8511
G01 X3.1686 Y0.8390
G01 X3.1631 Y0.8275
G01 X3.1565 Y0.8165
G01 X3.1489 Y0.8062
G01 X3.1403 Y0.7967
G01 X3.1308 Y0.7881
G01 X3.1205 Y0.7805
G01 X3.1095 Y0.7739
G01 X3.0980 Y0.7684
G01 X3.0859 Y0.7641
G01 X3.0735 Y0.7610
G01 X3.0608 Y0.7591
G01 X3.0480 Y0.7584
G01 X3.0352 Y0.7591
G01 X3.0225 Y0.7610
G01 X3.0101 Y0.7641
G01 X2.9980 Y0.7684
G01 X2.9865 Y0.7739
G01 X2.9755 Y0.7805
G01 X2.9652 Y0.7881
G01 X2.9557 Y0.7967
G01 X2.9471 Y0.8062
G01 X2.9395 Y0.8165
G01 X2.9329 Y0.8275
G01 X2.9274 Y0.8390
G01 X2.9231 Y0.8511
G01 X2.9200 Y0.8635
G01 X2.9181 Y0.8762
G01 X2.9174 Y0.8890
G01 X2.9181 Y0.9018
G01 X2.9200 Y0.9145
G01 X2.9231 Y0.9269
G01 X2.9274 Y0.9390
G01 X2.9329 Y0.9505
G01 X2.9395 Y0.9615
G01 X2.9471 Y0.9718
G01 X2.9557 Y0.9813
G01 X2.9652 Y0.9899
G01 X2.9755 Y0.9975
G01 X2.9865 Y1.0041
G01 X2.9980 Y1.0096
G01 X3.0101 Y1.0139
G01 X3.0225 Y1.0170
G01 X3.0352 Y1.0189
G01 X3.0480 Y1.0196
G01 X3.0608 Y1.0189
G01 X3.0735 Y1.0170
G01 X3.0859 Y1.0139
G01 X3.0980 Y1.0096
G01 X3.1095 Y1.0041
G01 X3.1205 Y0.9975
G01 X3.1308 Y0.9899
G01 X3.1403 Y0.9813
G01 X3.1489 Y0.9718
G01 X3.1565 Y0.9615
G01 X3.1631 Y0.9505
G01 X3.1686 Y0.9390
G01 X3.1729 Y0.9269
G01 X3.1760 Y0.9145
G01 X3.1779 Y0.9018
G01 X3.1786 Y0.8890
G01 X3.4188 Y0.8890
G01 X3.4171 Y0.8527
G01 X3.4117 Y0.8167
G01 X3.4029 Y0.7814
G01 X3.3906 Y0.7471
G01 X3.3751 Y0.7142
G01 X3.3563 Y0.6830
G01 X3.3347 Y0.6537
G01 X3.3102 Y0.6268
G01 X3.2833 Y0.6023
G01 X3.2540 Y0.5807
G01 X3.2228 Y0.5619
G01 X3.1899 Y0.5464
G01 X3.1556 Y0.5341
G01 X3.1203 Y0.5253
G01 X3.0843 Y0.5199
G01 X3.0480 Y0.5182
G01 X3.0117 Y0.5199
G01 X2.9757 Y0.5253
G01 X2.9404 Y0.5341
G01 X2.9061 Y0.5464
G01 X2.8732 Y0.5619
G01 X2.8420 Y0.5807
G01 X2.8127 Y0.6023
G01 X2.7858 Y0.6268
G01 X2.7613 Y0.6537
G01 X2.7397 Y0.6830
G01 X2.7209 Y0.7142
G01 X2.7054 Y0.7471
G01 X2.6931 Y0.7814
G01 X2.6843 Y0.8167
G01 X2.6789 Y0.8527
G01 X2.6772 Y0.8890
G01 X2.6789 Y0.9253
G01 X2.6843 Y0.9613
G01 X2.6931 Y0.9966
G01 X2.7054 Y1.0309
G01 X2.7209 Y1.0638
G01 X2.7397 Y1.0950
G01 X2.7613 Y1.1243
G01 X2.7858 Y1.1512
G01 X2.8127 Y1.1757
G01 X2.8420 Y1.1973
G01 X2.8732 Y1.2161
G01 X2.9061 Y1.2316
G01 X2.9404 Y1.2439
G01 X2.9757 Y1.2527
G01 X3.0117 Y1.2581
G01 X3.0480 Y1.2598
G01 X3.0843 Y1.2581
G01 X3.1203 Y1.2527
G01 X3.1556 Y1.2439
G01 X3.1899 Y1.2316
G01 X3.2228 Y1.2161
G01 X3.2540 Y1.1973
G01 X3.2833 Y1.1757
G01 X3.3102 Y1.1512
G01 X3.3347 Y1.1243
G01 X3.3563 Y1.0950
G01 X3.3751 Y1.0638
G01 X3.3906 Y1.0309
G01 X3.4029 Y0.9966
G01 X3.4117 Y0.9613
G01 X3.4171 Y0.9253
G01 X3.4188 Y0.8890
G01 X3.6591 Y0.8890
G01 X3.6562 Y0.8291
G01 X3.6474 Y0.7698
G01 X3.6328 Y0.7116
G01 X3.6126 Y0.6551
G01 X3.5870 Y0.6009
G01 X3.5561 Y0.5495
G01 X3.5204 Y0.5013
G01 X3.4801 Y0.4569
G01 X3.4357 Y0.4166
G01 X3.3875 Y0.3809
G01 X3.3361 Y0.3500
G01 X3.2819 Y0.3244
G01 X3.2254 Y0.3042
G01 X3.1672 Y0.2896
G01 X3.1079 Y0.2808
G01 X3.0480 Y0.2779
G01 X2.9881 Y0.2808
G01 X2.9288 Y0.2896
G01 X2.8706 Y0.3042
G01 X2.8141 Y0.3244
G01 X2.7599 Y0.3500
G01 X2.7085 Y0.3809
G01 X2.6603 Y0.4166
G01 X2.6159 Y0.4569
G01 X2.5756 Y0.5013
G01 X2.5399 Y0.5495
G01 X2.5090 Y0.6009
G01 X2.4834 Y0.6551
G01 X2.4632 Y0.7116
G01 X2.4486 Y0.7698
G01 X2.4398 Y0.8291
G01 X2.4369 Y0.8890
G01 X2.4398 Y0.9489
G01 X2.4486 Y1.0082
G01 X2.4632 Y1.0664
G01 X2.4834 Y1.1229
G01 X2.5090 Y1.1771
G01 X2.5399 Y1.2285
G01 X2.5756 Y1.2767
G01 X2.6159 Y1.3211
G01 X2.6603 Y1.3614
G01 X2.7085 Y1.3971
G01 X2.7599 Y1.4280
G01 X2.8141 Y1.4536
G01 X2.8706 Y1.4738
G01 X2.9288 Y1.4884
G01 X2.9881 Y1.4972
G01 X3.0480 Y1.5001
G01 X3.1079 Y1.4972
G01 X3.1672 Y1.4884
G01 X3.2254 Y1.4738
G01 X3.2819 Y1.4536
G01 X3.3361 Y1.4280
G01 X3.3875 Y1.3971
G01 X3.4357 Y1.3614
G01 X3.4801 Y1.3211
G01 X3.5204 Y1.2767
G01 X3.5561 Y1.2285
G01 X3.5870 Y1.1771
G01 X3.6126 Y1.1229
G01 X3.6328 Y1.0664
G01 X3.6474 Y1.0082
G01 X3.6562 Y0.9489
G01 X3.6591 Y0.8890
G01 X3.8994 Y0.8890
G01 X3.8953 Y0.8055
G01 X3.8831 Y0.7229
G01 X3.8628 Y0.6418
G01 X3.8346 Y0.5632
G01 X3.7989 Y0.4876
G01 X3.7559 Y0.4160
G01 X3.7062 Y0.3489
G01 X3.6500 Y0.2870
G01 X3.5881 Y0.2308
G01 X3.5210 Y0.1811
G01 X3.4494 Y0.1381
G01 X3.3738 Y0.1024
G01 X3.2952 Y0.0742
G01 X3.2141 Y0.0539
G01 X3.1315 Y0.0417
G01 X3.0480 Y0.0376
G01 X2.9645 Y0.0417
G01 X2.8819 Y0.0539
G01 X2.8008 Y0.0742
G01 X2.7222 Y0.1024
G01 X2.6466 Y0.1381
G01 X2.5750 Y0.1811
G01 X2.5079 Y0.2308
G01 X2.4460 Y0.2870
G01 X2.3898 Y0.3489
G01 X2.3401 Y0.4160
G01 X2.2971 Y0.4876
G01 X2.2614 Y0.5632
G01 X2.2332 Y0.6418
G01 X2.2129 Y0.7229
G01 X2.2007 Y0.8055
G01 X2.1966 Y0.8890
G01 X2.2007 Y0.9725
G01 X2.2129 Y1.0551
G01 X2.2332 Y1.1362
G01 X2.2614 Y1.2148
G01 X2.2971 Y1.2904
G01 X2.3401 Y1.3620
G01 X2.3898 Y1.4291
G01 X2.4460 Y1.4910
G01 X2.5079 Y1.5472
G01 X2.5750 Y1.5969
G01 X2.6466 Y1.6399
G01 X2.7222 Y1.6756
G01 X2.8008 Y1.7038
G01 X2.8819 Y1.7241
G01 X2.9645 Y1.7363
G01 X3.0480 Y1.7404
G01 X3.1315 Y1.7363
G01 X3.2141 Y1.7241
G01 X3.2952 Y1.7038
G01 X3.3738 Y1.6756
G01 X3.4494 Y1.6399
G01 X3.5210 Y1.5969
G01 X3.5881 Y1.5472
G01 X3.6500 Y1.4910
G01 X3.7062 Y1.4291
G01 X3.7559 Y1.3620
G01 X3.7989 Y1.2904
G01 X3.8346 Y1.2148
G01 X3.8628 Y1.1362
G01 X3.8831 Y1.0551
G01 X3.8953 Y0.9725
G01 X3.8994 Y0.8890
G00 Z1.0000
G00 X3.8994 Y-1.2700
G01 F25.00
G01 Z-0.0011
G01 F120.00
G01 X3.8953 Y-1.1865
G01 X3.8831 Y-1.1039
G01 X3.8628 Y-1.0228
G01 X3.8346 Y-0.9442
G01 X3.7989 Y-0.8686
G01 X3.7559 Y-0.7970
G01 X3.7062 Y-0.7299
G01 X3.6500 Y-0.6680
G01 X3.5881 Y-0.6118
G01 X3.5210 Y-0.5621
G01 X3.4494 Y-0.5191
G01 X3.3738 Y-0.4834
G01 X3.2952 Y-0.4552
G01 X3.2141 Y-0.4349
G01 X3.1315 Y-0.4227
G01 X3.0480 Y-0.4186
G01 X2.9645 Y-0.4227
G01 X2.8819 Y-0.4349
G01 X2.8008 Y-0.4552
G01 X2.7222 Y-0.4834
G01 X2.6466 Y-0.5191
G01 X2.5750 Y-0.5621
G01 X2.5079 Y-0.6118
G01 X2.4460 Y-0.6680
G01 X2.3898 Y-0.7299
G01 X2.3401 Y-0.7970
G01 X2.2971 Y-0.8686
G01 X2.2614 Y-0.9442
G01 X2.2332 Y-1.0228
G01 X2.2129 Y-1.1039
G01 X2.2007 Y-1.1865
G01 X2.1966 Y-1.2700
G01 X2.2007 Y-1.3535
G01 X2.2129 Y-1.4361
G01 X2.2332 Y-1.5172
G01 X2.2614 Y-1.5958
G01 X2.2971 Y-1.6714
G01 X2.3401 Y-1.7430
G01 X2.3898 Y-1.8101
G01 X2.4460 Y-1.8720
G01 X2.5079 Y-1.9282
G01 X2.5750 Y-1.9779
G01 X2.6466 Y-2.0209
G01 X2.7222 Y-2.0566
G01 X2.8008 Y-2.0848
G01 X2.8819 Y-2.1051
G01 X2.9645 Y-2.1173
G01 X3.0480 Y-2.1214
G01 X3.1315 Y-2.1173
G01 X3.2141 Y-2.1051
G01 X3.2952 Y-2.0848
G01 X3.3738 Y-2.0566
G01 X3.4494 Y-2.0209
G01 X3.5210 Y-1.9779
G01 X3.5881 Y-1.9282
G01 X3.6500 Y-1.8720
G01 X3.7062 Y-1.8101
G01 X3.7559 Y-1.7430
G01 X3.7989 Y-1.6714
G01 X3.8346 Y-1.5958
G01 X3.8628 Y-1.5172
G01 X3.8831 Y-1.4361
G01 X3.8953 Y-1.3535
G01 X3.8994 Y-1.2700
G01 X3.6591 Y-1.2700
G01 X3.6562 Y-1.2101
G01 X3.6474 Y-1.1508
G01 X3.6328 Y-1.0926
G01 X3.6126 Y-1.0361
G01 X3.5870 Y-0.9819
G01 X3.5561 Y-0.9305
G01 X3.5204 Y-0.8823
G01 X3.4801 Y-0.8379
G01 X3.4357 Y-0.7976
G01 X3.3875 Y-0.7619
G01 X3.3361 Y-0.7310
G01 X3.2819 Y-0.7054
G01 X3.2254 Y-0.6852
G01 X3.1672 Y-0.6706
G01 X3.1079 Y-0.6618
G01 X3.0480 Y-0.6589
G01 X2.9881 Y-0.6618
G01 X2.9288 Y-0.6706
G01 X2.8706 Y-0.6852
G01 X2.8141 Y-0.7054
G01 X2.7599 Y-0.7310
G01 X2.7085 Y-0.7619
G01 X2.6603 Y-0.7976
G01 X2.6159 Y-0.8379
G01 X2.5756 Y-0.8823
G01 X2.5399 Y-0.9305
G01 X2.5090 Y-0.9819
G01 X2.4834 Y-1.0361
G01 X2.4632 Y-1.0926
G01 X2.4486 Y-1.1508
G01 X2.4398 Y-1.2101
G01 X2.4369 Y-1.2700
G01 X2.4398 Y-1.3299
G01 X2.4486 Y-1.3892
G01 X2.4632 Y-1.4474
G01 X2.4834 Y-1.5039
G01 X2.5090 Y-1.5581
G01 X2.5399 Y-1.6095
G01 X2.5756 Y-1.6577
G01 X2.6159 Y-1.7021
G01 X2.6603 Y-1.7424
G01 X2.7085 Y-1.7781
G01 X2.7599 Y-1.8090
G01 X2.8141 Y-1.8346
G01 X2.8706 Y-1.8548
G01 X2.9288 Y-1.8694
G01 X2.9881 Y-1.8782
G01 X3.0480 Y-1.8811
G01 X3.1079 Y-1.8782
G01 X3.1672 Y-1.8694
G01 X3.2254 Y-1.8548
G01 X3.2819 Y-1.8346
G01 X3.3361 Y-1.8090
G01 X3.3875 Y-1.7781
G01 X3.4357 Y-1.7424
G01 X3.4801 Y-1.7021
G01 X3.5204 Y-1.6577
G01 X3.5561 Y-1.6095
G01 X3.5870 Y-1.5581
G01 X3.6126 Y-1.5039
G01 X3.6328 Y-1.4474
G01 X3.6474 Y-1.3892
G01 X3.6562 Y-1.3299
G01 X3.6591 Y-1.2700
G01 X3.4188 Y-1.2700
G01 X3.4171 Y-1.2337
G01 X3.4117 Y-1.1977
G01 X3.4029 Y-1.1624
G01 X3.3906 Y-1.1281
G01 X3.3751 Y-1.0952
G01 X3.3563 Y-1.0640
G01 X3.3347 Y-1.0347
G01 X3.3102 Y-1.0078
G01 X3.2833 Y-0.9833
G01 X3.2540 Y-0.9617
G01 X3.2228 Y-0.9429
G01 X3.1899 Y-0.9274
G01 X3.1556 Y-0.9151
G01 X3.1203 Y-0.9063
G01 X3.0843 Y-0.9009
G01 X3.0480 Y-0.8992
G01 X3.0117 Y-0.9009
G01 X2.9757 Y-0.9063
G01 X2.9404 Y-0.9151
G01 X2.9061 Y-0.9274
G01 X2.8732 Y-0.9429
G01 X2.8420 Y-0.9617
G01 X2.8127 Y-0.9833
G01 X2.7858 Y-1.0078
G01 X2.7613 Y-1.0347
G01 X2.7397 Y-1.0640
G01 X2.7209 Y-1.0952
G01 X2.7054 Y-1.1281
G01 X2.6931 Y-1.1624
G01 X2.6843 Y-1.1977
G01 X2.6789 Y-1.2337
G01 X2.6772 Y-1.2700
G01 X2.6789 Y-1.3063
G01 X2.6843 Y-1.3423
G01 X2.6931 Y-1.3776
G01 X2.7054 Y-1.4119
G01 X2.7209 Y-1.4448
G01 X2.7397 Y-1.4760
G01 X2.7613 Y-1.5053
G01 X2.7858 Y-1.5322
G01 X2.8127 Y-1.5567
G01 X2.8420 Y-1.5783
G01 X2.8732 Y-1.5971
G01 X2.9061 Y-1.6126
G01 X2.9404 Y-1.6249
G01 X2.9757 Y-1.6337
G01 X3.0117 Y-1.6391
G01 X3.0480 Y-1.6408
G01 X3.0843 Y-1.6391
G01 X3.1203 Y-1.6337
G01 X3.1556 Y-1.6249
G01 X3.1899 Y-1.6126
G01 X3.2228 Y-1.5971
G01 X3.2540 Y-1.5783
G01 X3.2833 Y-1.5567
G01 X3.3102 Y-1.5322
G01 X3.3347 Y-1.5053
G01 X3.3563 Y-1.4760
G01 X3.3751 Y-1.4448
G01 X3.3906 Y-1.4119
G01 X3.4029 Y-1.3776
G01 X3.4117 Y-1.3423
G01 X3.4171 Y-1.3063
G01 X3.4188 Y-1.2700
G01 X3.1786 Y-1.2700
G01 X3.1779 Y-1.2572
G01 X3.1760 Y-1.2445
G01 X3.1729 Y-1.2321
G01 X3.1686 Y-1.2200
G01 X3.1631 Y-1.2085
G01 X3.1565 Y-1.1975
G01 X3.1489 Y-1.1872
G01 X3.1403 Y-1.1777
G01 X3.1308 Y-1.1691
G01 X3.1205 Y-1.1615
G01 X3.1095 Y-1.1549
G01 X3.0980 Y-1.1494
G01 X3.0859 Y-1.1451
G01 X3.0735 Y-1.1420
G01 X3.0608 Y-1.1401
G01 X3.0480 Y-1.1394
G01 X3.0352 Y-1.1401
G01 X3.0225 Y-1.1420
G01 X3.0101 Y-1.1451
G01 X2.9980 Y-1.1494
G01 X2.9865 Y-1.1549
G01 X2.9755 Y-1.1615
G01 X2.9652 Y-1.1691
G01 X2.9557 Y-1.1777
G01 X2.9471 Y-1.1872
G01 X2.9395 Y-1.1975
G01 X2.9329 Y-1.2085
G01 X2.9274 Y-1.2200
G01 X2.9231 Y-1.2321
G01 X2.9200 Y-1.2445
G01 X2.9181 Y-1.2572
G01 X2.9174 Y-1.2700
G01 X2.9181 Y-1.2828
G01 X2.9200 Y-1.2955
G01 X2.9231 Y-1.3079
G01 X2.9274 Y-1.3200
G01 X2.9329 Y-1.3315
G01 X2.9395 Y-1.3425
G01 X2.9471 Y-1.3528
G01 X2.9557 Y-1.3623
G01 X2.9652 Y-1.3709
G01 X2.9755 Y-1.3785
G01 X2.9865 Y-1.3851
G01 X2.9980 Y-1.3906
G01 X3.0101 Y-1.3949
G01 X3.0225 Y-1.3980
G01 X3.0352 Y-1.3999
G01 X3.0480 Y-1.4006
G01 X3.0608 Y-1.3999
G01 X3.0735 Y-1.3980
G01 X3.0859 Y-1.3949
G01 X3.0980 Y-1.3906
G01 X3.1095 Y-1.3851
G01 X3.1205 Y-1.3785
G01 X3.1308 Y-1.3709
G01 X3.1403 Y-1.3623
G01 X3.1489 Y-1.3528
G01 X3.1565 Y-1.3425
G01 X3.1631 Y-1.3315
G01 X3.1686 Y-1.3200
G01 X3.1729 Y-1.3079
G01 X3.1760 Y-1.2955
G01 X3.1779 Y-1.2828
G01 X3.1786 Y-1.2700
G00 Z1.0000
G00 X5.9690 Y-2.0585
G01 F25.00
G01 Z-0.0011
G01 F120.00
G01 X5.9339 Y-2.0533
G01 X5.9168 Y-2.0491
G01 X5.9002 Y-2.0431
G01 X5.8843 Y-2.0356
G01 X5.8691 Y-2.0265
G01 X5.8550 Y-2.0160
G01 X5.8419 Y-2.0042
G01 X5.8301 Y-1.9911
G01 X5.8195 Y-1.9769
G01 X5.8105 Y-1.9618
G01 X5.8029 Y-1.9458
G01 X5.7970 Y-1.9292
G01 X5.7927 Y-1.9121
G01 X5.7901 Y-1.8947
G01 X5.7892 Y-1.8771
G01 X5.7901 Y-1.8594
G01 X5.7927 Y-1.8420
G01 X5.7970 Y-1.8249
G01 X5.8029 Y-1.8083
G01 X5.8105 Y-1.7923
G01 X5.8195 Y-1.7772
G01 X5.8301 Y-1.7630
G01 X5.8419 Y-1.7499
G01 X5.8550 Y-1.7381
G01 X5.8691 Y-1.7276
G01 X5.8843 Y-1.7185
G01 X5.9002 Y-1.7110
G01 X5.9168 Y-1.7050
G01 X5.9339 Y-1.7008
G01 X5.9514 Y-1.6982
G01 X5.9690 Y-1.6973
G01 X5.9866 Y-1.6982
G01 X6.0041 Y-1.7008
G01 X6.0212 Y-1.7050
G01 X6.0378 Y-1.7110
G01 X6.0537 Y-1.7185
G01 X6.0689 Y-1.7276
G01 X6.0830 Y-1.7381
G01 X6.0961 Y-1.7499
G01 X6.1079 Y-1.7630
G01 X6.1185 Y-1.7772
G01 X6.1275 Y-1.7923
G01 X6.1351 Y-1.8083
G01 X6.1410 Y-1.8249
G01 X6.1453 Y-1.8420
G01 X6.1479 Y-1.8594
G01 X6.1488 Y-1.8771
G01 X6.1479 Y-1.8947
G01 X6.1453 Y-1.9121
G01 X6.1410 Y-1.9292
G01 X6.1351 Y-1.9458
G01 X6.1275 Y-1.9618
G01 X6.1185 Y-1.9769
G01 X6.1079 Y-1.9911
G01 X6.0961 Y-2.0042
G01 X6.0830 Y-2.0160
G01 X6.0689 Y-2.0265
G01 X6.0537 Y-2.0356
G01 X6.0378 Y-2.0431
G01 X6.0212 Y-2.0491
G01 X6.0041 Y-2.0533
G01 X5.9690 Y-2.0585
G01 X5.9715 Y-2.3018
G01 X5.8871 Y-2.2890
G01 X5.8471 Y-2.2790
G01 X5.8083 Y-2.2651
G01 X5.7710 Y-2.2475
G01 X5.7356 Y-2.2263
G01 X5.7025 Y-2.2017
G01 X5.6720 Y-2.1741
G01 X5.6443 Y-2.1435
G01 X5.6197 Y-2.1104
G01 X5.5986 Y-2.0751
G01 X5.5809 Y-2.0378
G01 X5.5670 Y-1.9990
G01 X5.5570 Y-1.9590
G01 X5.5510 Y-1.9182
G01 X5.5490 Y-1.8771
G01 X5.5510 Y-1.8359
G01 X5.5570 Y-1.7951
G01 X5.5670 Y-1.7551
G01 X5.5809 Y-1.7163
G01 X5.5986 Y-1.6790
G01 X5.6197 Y-1.6437
G01 X5.6443 Y-1.6106
G01 X5.6720 Y-1.5800
G01 X5.7025 Y-1.5524
G01 X5.7356 Y-1.5278
G01 X5.7710 Y-1.5066
G01 X5.8083 Y-1.4890
G01 X5.8471 Y-1.4751
G01 X5.8871 Y-1.4651
G01 X5.9278 Y-1.4590
G01 X5.9690 Y-1.4570
G01 X6.0102 Y-1.4590
G01 X6.0509 Y-1.4651
G01 X6.0909 Y-1.4751
G01 X6.1297 Y-1.4890
G01 X6.1670 Y-1.5066
G01 X6.2024 Y-1.5278
G01 X6.2355 Y-1.5524
G01 X6.2660 Y-1.5800
G01 X6.2937 Y-1.6106
G01 X6.3183 Y-1.6437
G01 X6.3394 Y-1.6790
G01 X6.3571 Y-1.7163
G01 X6.3710 Y-1.7551
G01 X6.3810 Y-1.7951
G01 X6.3870 Y-1.8359
G01 X6.3890 Y-1.8770
G01 X6.3870 Y-1.9182
G01 X6.3810 Y-1.9590
G01 X6.3710 Y-1.9990
G01 X6.3571 Y-2.0378
G01 X6.3394 Y-2.0751
G01 X6.3183 Y-2.1104
G01 X6.2937 Y-2.1435
G01 X6.2660 Y-2.1741
G01 X6.2355 Y-2.2017
G01 X6.2024 Y-2.2263
G01 X6.1670 Y-2.2475
G01 X6.1297 Y-2.2651
G01 X6.0909 Y-2.2790
G01 X6.0509 Y-2.2890
G01 X5.9993 Y-2.2967
G01 X5.9715 Y-2.3018
G01 X5.9751 Y-2.5487
G01 X5.9555 Y-2.5434
G01 X5.9332 Y-2.5387
G01 X5.8402 Y-2.5247
G01 X5.7773 Y-2.5089
G01 X5.7163 Y-2.4871
G01 X5.6577 Y-2.4594
G01 X5.6021 Y-2.4261
G01 X5.5501 Y-2.3875
G01 X5.5021 Y-2.3440
G01 X5.4586 Y-2.2960
G01 X5.4200 Y-2.2439
G01 X5.3866 Y-2.1883
G01 X5.3589 Y-2.1297
G01 X5.3371 Y-2.0687
G01 X5.3214 Y-2.0059
G01 X5.3119 Y-1.9418
G01 X5.3087 Y-1.8771
G01 X5.3119 Y-1.8123
G01 X5.3214 Y-1.7482
G01 X5.3371 Y-1.6854
G01 X5.3589 Y-1.6244
G01 X5.3866 Y-1.5658
G01 X5.4200 Y-1.5102
G01 X5.4586 Y-1.4581
G01 X5.5021 Y-1.4101
G01 X5.5501 Y-1.3666
G01 X5.6021 Y-1.3280
G01 X5.6577 Y-1.2947
G01 X5.7163 Y-1.2670
G01 X5.7773 Y-1.2452
G01 X5.8402 Y-1.2294
G01 X5.9043 Y-1.2199
G01 X5.9690 Y-1.2167
G01 X6.0337 Y-1.2199
G01 X6.0978 Y-1.2294
G01 X6.1607 Y-1.2452
G01 X6.2217 Y-1.2670
G01 X6.2803 Y-1.2947
G01 X6.3359 Y-1.3280
G01 X6.3879 Y-1.3666
G01 X6.4359 Y-1.4101
G01 X6.4794 Y-1.4581
G01 X6.5180 Y-1.5102
G01 X6.5514 Y-1.5658
G01 X6.5791 Y-1.6244
G01 X6.6009 Y-1.6854
G01 X6.6166 Y-1.7482
G01 X6.6261 Y-1.8123
G01 X6.6293 Y-1.8770
G01 X6.6261 Y-1.9418
G01 X6.6166 Y-2.0059
G01 X6.6009 Y-2.0687
G01 X6.5791 Y-2.1297
G01 X6.5514 Y-2.1883
G01 X6.5180 Y-2.2439
G01 X6.4794 Y-2.2960
G01 X6.4359 Y-2.3440
G01 X6.3879 Y-2.3875
G01 X6.3359 Y-2.4261
G01 X6.2803 Y-2.4594
G01 X6.2217 Y-2.4871
G01 X6.1607 Y-2.5089
G01 X6.0978 Y-2.5247
G01 X6.0404 Y-2.5332
G01 X6.0244 Y-2.5359
G01 X6.0000 Y-2.5414
G01 X5.9751 Y-2.5487
G01 X5.9792 Y-2.8268
G01 X5.9723 Y-2.8190
G01 X5.9644 Y-2.8113
G01 X5.9559 Y-2.8042
G01 X5.9500 Y-2.7998
G01 X5.9408 Y-2.7938
G01 X5.9311 Y-2.7885
G01 X5.9210 Y-2.7839
G01 X5.9142 Y-2.7812
G01 X5.9036 Y-2.7779
G01 X5.8893 Y-2.7746
G01 X5.7933 Y-2.7604
G01 X5.7076 Y-2.7389
G01 X5.6243 Y-2.7091
G01 X5.5445 Y-2.6713
G01 X5.4686 Y-2.6259
G01 X5.3977 Y-2.5732
G01 X5.3322 Y-2.5139
G01 X5.2728 Y-2.4484
G01 X5.2202 Y-2.3774
G01 X5.1747 Y-2.3016
G01 X5.1369 Y-2.2217
G01 X5.1072 Y-2.1385
G01 X5.0857 Y-2.0528
G01 X5.0727 Y-1.9653
G01 X5.0684 Y-1.8771
G01 X5.0727 Y-1.7888
G01 X5.0857 Y-1.7013
G01 X5.1072 Y-1.6156
G01 X5.1369 Y-1.5324
G01 X5.1747 Y-1.4525
G01 X5.2202 Y-1.3767
G01 X5.2728 Y-1.3057
G01 X5.3322 Y-1.2402
G01 X5.3977 Y-1.1809
G01 X5.4686 Y-1.1282
G01 X5.5445 Y-1.0828
G01 X5.6243 Y-1.0450
G01 X5.7076 Y-1.0152
G01 X5.7933 Y-0.9937
G01 X5.8807 Y-0.9808
G01 X5.9690 Y-0.9764
G01 X6.0573 Y-0.9808
G01 X6.1447 Y-0.9937
G01 X6.2304 Y-1.0152
G01 X6.3137 Y-1.0450
G01 X6.3935 Y-1.0828
G01 X6.4694 Y-1.1282
G01 X6.5403 Y-1.1809
G01 X6.6058 Y-1.2402
G01 X6.6652 Y-1.3057
G01 X6.7178 Y-1.3767
G01 X6.7633 Y-1.4525
G01 X6.8011 Y-1.5324
G01 X6.8308 Y-1.6156
G01 X6.8523 Y-1.7013
G01 X6.8653 Y-1.7888
G01 X6.8696 Y-1.8770
G01 X6.8653 Y-1.9653
G01 X6.8523 Y-2.0528
G01 X6.8308 Y-2.1385
G01 X6.8011 Y-2.2217
G01 X6.7633 Y-2.3016
G01 X6.7178 Y-2.3774
G01 X6.6652 Y-2.4484
G01 X6.6058 Y-2.5139
G01 X6.5403 Y-2.5732
G01 X6.4694 Y-2.6259
G01 X6.3935 Y-2.6713
G01 X6.3137 Y-2.7091
G01 X6.2304 Y-2.7389
G01 X6.1447 Y-2.7604
G01 X6.0719 Y-2.7712
G01 X6.0576 Y-2.7744
G01 X6.0436 Y-2.7790
G01 X6.0335 Y-2.7834
G01 X6.0236 Y-2.7885
G01 X6.0142 Y-2.7943
G01 X6.0082 Y-2.7985
G01 X5.9996 Y-2.8054
G01 X5.9915 Y-2.8129
G01 X5.9840 Y-2.8210
G01 X5.9792 Y-2.8268
G00 Z1.0000
G00 X5.8856 Y-3.0708
G01 F25.00
G01 Z-0.0011
G01 F120.00
G01 X5.9001 Y-3.0679
G01 X5.9142 Y-3.0637
G01 X5.9278 Y-3.0580
G01 X5.9408 Y-3.0511
G01 X5.9530 Y-3.0429
G01 X5.9644 Y-3.0336
G01 X5.9748 Y-3.0232
G01 X5.9820 Y-3.0146
G01 X5.9889 Y-3.0224
G01 X5.9969 Y-3.0301
G01 X6.0053 Y-3.0372
G01 X6.0142 Y-3.0437
G01 X6.0236 Y-3.0495
G01 X6.0335 Y-3.0546
G01 X6.0402 Y-3.0576
G01 X6.0505 Y-3.0614
G01 X6.0647 Y-3.0653
G01 X6.0756 Y-3.0674
G01 X6.0829 Y-3.0683
G01 X6.0939 Y-3.0690
G01 X6.1910 Y-3.0834
G01 X6.2862 Y-3.1072
G01 X6.3785 Y-3.1403
G01 X6.4672 Y-3.1822
G01 X6.5514 Y-3.2327
G01 X6.6302 Y-3.2911
G01 X6.7029 Y-3.3570
G01 X6.7688 Y-3.4297
G01 X6.8272 Y-3.5085
G01 X6.8777 Y-3.5927
G01 X6.9196 Y-3.6814
G01 X6.9527 Y-3.7738
G01 X6.9765 Y-3.8689
G01 X6.9909 Y-3.9660
G01 X6.9957 Y-4.0640
G01 X6.9909 Y-4.1620
G01 X6.9765 Y-4.2591
G01 X6.9527 Y-4.3542
G01 X6.9196 Y-4.4466
G01 X6.8777 Y-4.5353
G01 X6.8272 Y-4.6195
G01 X6.7688 Y-4.6983
G01 X6.7029 Y-4.7710
G01 X6.6302 Y-4.8369
G01 X6.5514 Y-4.8953
G01 X6.4672 Y-4.9458
G01 X6.3785 Y-4.9877
G01 X6.2862 Y-5.0208
G01 X6.1910 Y-5.0446
G01 X6.0939 Y-5.0590
G01 X5.9959 Y-5.0638
G01 X5.8979 Y-5.0590
G01 X5.8009 Y-5.0446
G01 X5.7057 Y-5.0208
G01 X5.6133 Y-4.9877
G01 X5.5246 Y-4.9458
G01 X5.4405 Y-4.8953
G01 X5.3616 Y-4.8369
G01 X5.2889 Y-4.7710
G01 X5.2230 Y-4.6983
G01 X5.1646 Y-4.6195
G01 X5.1142 Y-4.5353
G01 X5.0722 Y-4.4466
G01 X5.0392 Y-4.3542
G01 X5.0153 Y-4.2591
G01 X5.0009 Y-4.1620
G01 X4.9961 Y-4.0640
G01 X5.0009 Y-3.9660
G01 X5.0153 Y-3.8689
G01 X5.0392 Y-3.7738
G01 X5.0722 Y-3.6814
G01 X5.1142 Y-3.5927
G01 X5.1646 Y-3.5085
G01 X5.2230 Y-3.4297
G01 X5.2889 Y-3.3570
G01 X5.3616 Y-3.2911
G01 X5.4405 Y-3.2327
G01 X5.5246 Y-3.1822
G01 X5.6133 Y-3.1403
G01 X5.7057 Y-3.1072
G01 X5.8009 Y-3.0834
G01 X5.8856 Y-3.0708
G01 X5.9861 Y-3.2927
G01 X6.0093 Y-3.2989
G01 X6.0338 Y-3.3037
G01 X6.0528 Y-3.3064
G01 X6.0690 Y-3.3079
G01 X6.1441 Y-3.3191
G01 X6.2164 Y-3.3372
G01 X6.2866 Y-3.3623
G01 X6.3540 Y-3.3942
G01 X6.4179 Y-3.4325
G01 X6.4778 Y-3.4769
G01 X6.5330 Y-3.5269
G01 X6.5830 Y-3.5822
G01 X6.6274 Y-3.6420
G01 X6.6658 Y-3.7060
G01 X6.6976 Y-3.7733
G01 X6.7227 Y-3.8435
G01 X6.7409 Y-3.9158
G01 X6.7518 Y-3.9896
G01 X6.7554 Y-4.0640
G01 X6.7518 Y-4.1384
G01 X6.7409 Y-4.2122
G01 X6.7227 Y-4.2845
G01 X6.6976 Y-4.3547
G01 X6.6658 Y-4.4220
G01 X6.6274 Y-4.4860
G01 X6.5830 Y-4.5458
G01 X6.5330 Y-4.6011
G01 X6.4778 Y-4.6511
G01 X6.4179 Y-4.6955
G01 X6.3540 Y-4.7338
G01 X6.2866 Y-4.7657
G01 X6.2164 Y-4.7908
G01 X6.1441 Y-4.8089
G01 X6.0704 Y-4.8199
G01 X5.9959 Y-4.8235
G01 X5.9215 Y-4.8199
G01 X5.8477 Y-4.8089
G01 X5.7754 Y-4.7908
G01 X5.7053 Y-4.7657
G01 X5.6379 Y-4.7338
G01 X5.5739 Y-4.6955
G01 X5.5141 Y-4.6511
G01 X5.4589 Y-4.6011
G01 X5.4088 Y-4.5458
G01 X5.3644 Y-4.4860
G01 X5.3261 Y-4.4220
G01 X5.2942 Y-4.3547
G01 X5.2691 Y-4.2845
G01 X5.2510 Y-4.2122
G01 X5.2400 Y-4.1384
G01 X5.2364 Y-4.0640
G01 X5.2400 Y-3.9896
G01 X5.2510 Y-3.9158
G01 X5.2691 Y-3.8435
G01 X5.2942 Y-3.7733
G01 X5.3261 Y-3.7060
G01 X5.3644 Y-3.6420
G01 X5.4088 Y-3.5822
G01 X5.4589 Y-3.5269
G01 X5.5141 Y-3.4769
G01 X5.5739 Y-3.4325
G01 X5.6379 Y-3.3942
G01 X5.7053 Y-3.3623
G01 X5.7754 Y-3.3372
G01 X5.8477 Y-3.3191
G01 X5.9209 Y-3.3082
G01 X5.9368 Y-3.3055
G01 X5.9613 Y-3.3000
G01 X5.9861 Y-3.2927
G01 X5.9897 Y-3.5397
G01 X6.0146 Y-3.5435
G01 X6.0417 Y-3.5465
G01 X6.0972 Y-3.5547
G01 X6.1466 Y-3.5671
G01 X6.1946 Y-3.5843
G01 X6.2407 Y-3.6061
G01 X6.2844 Y-3.6323
G01 X6.3253 Y-3.6626
G01 X6.3631 Y-3.6968
G01 X6.3973 Y-3.7346
G01 X6.4277 Y-3.7755
G01 X6.4538 Y-3.8192
G01 X6.4756 Y-3.8653
G01 X6.4928 Y-3.9133
G01 X6.5052 Y-3.9627
G01 X6.5127 Y-4.0131
G01 X6.5152 Y-4.0640
G01 X6.5127 Y-4.1149
G01 X6.5052 Y-4.1653
G01 X6.4928 Y-4.2147
G01 X6.4756 Y-4.2627
G01 X6.4538 Y-4.3088
G01 X6.4277 Y-4.3525
G01 X6.3973 Y-4.3934
G01 X6.3631 Y-4.4312
G01 X6.3253 Y-4.4654
G01 X6.2844 Y-4.4957
G01 X6.2407 Y-4.5219
G01 X6.1946 Y-4.5437
G01 X6.1466 Y-4.5609
G01 X6.0972 Y-4.5733
G01 X6.0468 Y-4.5807
G01 X5.9959 Y-4.5832
G01 X5.9450 Y-4.5807
G01 X5.8946 Y-4.5733
G01 X5.8452 Y-4.5609
G01 X5.7972 Y-4.5437
G01 X5.7512 Y-4.5219
G01 X5.7074 Y-4.4957
G01 X5.6665 Y-4.4654
G01 X5.6288 Y-4.4312
G01 X5.5945 Y-4.3934
G01 X5.5642 Y-4.3525
G01 X5.5380 Y-4.3088
G01 X5.5162 Y-4.2627
G01 X5.4990 Y-4.2147
G01 X5.4867 Y-4.1653
G01 X5.4792 Y-4.1149
G01 X5.4767 Y-4.0640
G01 X5.4792 Y-4.0131
G01 X5.4867 Y-3.9627
G01 X5.4990 Y-3.9133
G01 X5.5162 Y-3.8653
G01 X5.5380 Y-3.8192
G01 X5.5642 Y-3.7755
G01 X5.5945 Y-3.7346
G01 X5.6288 Y-3.6968
G01 X5.6665 Y-3.6626
G01 X5.7074 Y-3.6323
G01 X5.7512 Y-3.6061
G01 X5.7972 Y-3.5843
G01 X5.8452 Y-3.5671
G01 X5.8946 Y-3.5547
G01 X5.9619 Y-3.5447
G01 X5.9897 Y-3.5397
G01 X5.9934 Y-3.7827
G01 X6.0127 Y-3.7848
G01 X6.0503 Y-3.7904
G01 X6.0769 Y-3.7971
G01 X6.1027 Y-3.8063
G01 X6.1274 Y-3.8180
G01 X6.1509 Y-3.8321
G01 X6.1729 Y-3.8484
G01 X6.1932 Y-3.8668
G01 X6.2116 Y-3.8870
G01 X6.2279 Y-3.9090
G01 X6.2419 Y-3.9325
G01 X6.2536 Y-3.9573
G01 X6.2629 Y-3.9830
G01 X6.2695 Y-4.0096
G01 X6.2735 Y-4.0367
G01 X6.2749 Y-4.0640
G01 X6.2735 Y-4.0913
G01 X6.2695 Y-4.1184
G01 X6.2629 Y-4.1450
G01 X6.2536 Y-4.1707
G01 X6.2419 Y-4.1955
G01 X6.2279 Y-4.2190
G01 X6.2116 Y-4.2410
G01 X6.1932 Y-4.2612
G01 X6.1729 Y-4.2796
G01 X6.1509 Y-4.2959
G01 X6.1274 Y-4.3100
G01 X6.1027 Y-4.3217
G01 X6.0769 Y-4.3309
G01 X6.0503 Y-4.3376
G01 X6.0233 Y-4.3416
G01 X5.9959 Y-4.3430
G01 X5.9686 Y-4.3416
G01 X5.9415 Y-4.3376
G01 X5.9149 Y-4.3309
G01 X5.8892 Y-4.3217
G01 X5.8644 Y-4.3100
G01 X5.8409 Y-4.2959
G01 X5.8190 Y-4.2796
G01 X5.7987 Y-4.2612
G01 X5.7803 Y-4.2410
G01 X5.7640 Y-4.2190
G01 X5.7499 Y-4.1955
G01 X5.7382 Y-4.1707
G01 X5.7290 Y-4.1450
G01 X5.7223 Y-4.1184
G01 X5.7183 Y-4.0913
G01 X5.7170 Y-4.0640
G01 X5.7183 Y-4.0367
G01 X5.7223 Y-4.0096
G01 X5.7290 Y-3.9830
G01 X5.7382 Y-3.9573
G01 X5.7499 Y-3.9325
G01 X5.7640 Y-3.9090
G01 X5.7803 Y-3.8870
G01 X5.7987 Y-3.8668
G01 X5.8190 Y-3.8484
G01 X5.8409 Y-3.8321
G01 X5.8644 Y-3.8180
G01 X5.8892 Y-3.8063
G01 X5.9149 Y-3.7971
G01 X5.9415 Y-3.7904
G01 X5.9934 Y-3.7827
G01 X5.9959 Y-4.0250
G01 X6.0035 Y-4.0261
G01 X6.0107 Y-4.0283
G01 X6.0174 Y-4.0319
G01 X6.0233 Y-4.0367
G01 X6.0281 Y-4.0425
G01 X6.0316 Y-4.0492
G01 X6.0338 Y-4.0565
G01 X6.0346 Y-4.0640
G01 X6.0338 Y-4.0715
G01 X6.0316 Y-4.0788
G01 X6.0281 Y-4.0855
G01 X6.0233 Y-4.0913
G01 X6.0174 Y-4.0961
G01 X6.0107 Y-4.0997
G01 X6.0035 Y-4.1019
G01 X5.9959 Y-4.1027
G01 X5.9884 Y-4.1019
G01 X5.9811 Y-4.0997
G01 X5.9744 Y-4.0961
G01 X5.9686 Y-4.0913
G01 X5.9638 Y-4.0855
G01 X5.9602 Y-4.0788
G01 X5.9580 Y-4.0715
G01 X5.9573 Y-4.0640
G01 X5.9580 Y-4.0565
G01 X5.9602 Y-4.0492
G01 X5.9638 Y-4.0425
G01 X5.9686 Y-4.0367
G01 X5.9744 Y-4.0319
G01 X5.9811 Y-4.0283
G01 X5.9884 Y-4.0261
G01 X5.9959 Y-4.0250
G00 Z1.0000
G00 X4.4959 Y-4.0640
G01 F25.00
G01 Z-0.0011
G01 F120.00
G01 X4.4911 Y-3.9660
G01 X4.4767 Y-3.8689
G01 X4.4528 Y-3.7738
G01 X4.4198 Y-3.6814
G01 X4.3778 Y-3.5927
G01 X4.3274 Y-3.5085
G01 X4.2689 Y-3.4297
G01 X4.2030 Y-3.3570
G01 X4.1303 Y-3.2911
G01 X4.0515 Y-3.2327
G01 X3.9674 Y-3.1822
G01 X3.8787 Y-3.1403
G01 X3.7863 Y-3.1072
G01 X3.6911 Y-3.0834
G01 X3.5940 Y-3.0690
G01 X3.4960 Y-3.0642
G01 X3.3981 Y-3.0690
G01 X3.3010 Y-3.0834
G01 X3.2058 Y-3.1072
G01 X3.1134 Y-3.1403
G01 X3.0247 Y-3.1822
G01 X2.9406 Y-3.2327
G01 X2.8618 Y-3.2911
G01 X2.7891 Y-3.3570
G01 X2.7232 Y-3.4297
G01 X2.6647 Y-3.5085
G01 X2.6143 Y-3.5927
G01 X2.5723 Y-3.6814
G01 X2.5393 Y-3.7738
G01 X2.5154 Y-3.8689
G01 X2.5010 Y-3.9660
G01 X2.4962 Y-4.0640
G01 X2.5010 Y-4.1620
G01 X2.5154 Y-4.2591
G01 X2.5393 Y-4.3542
G01 X2.5723 Y-4.4466
G01 X2.6143 Y-4.5353
G01 X2.6647 Y-4.6195
G01 X2.7232 Y-4.6983
G01 X2.7891 Y-4.7710
G01 X2.8618 Y-4.8369
G01 X2.9406 Y-4.8953
G01 X3.0247 Y-4.9458
G01 X3.1134 Y-4.9877
G01 X3.2058 Y-5.0208
G01 X3.3010 Y-5.0446
G01 X3.3981 Y-5.0590
G01 X3.4961 Y-5.0638
G01 X3.5940 Y-5.0590
G01 X3.6911 Y-5.0446
G01 X3.7863 Y-5.0208
G01 X3.8787 Y-4.9877
G01 X3.9674 Y-4.9458
G01 X4.0515 Y-4.8953
G01 X4.1303 Y-4.8369
G01 X4.2030 Y-4.7710
G01 X4.2689 Y-4.6983
G01 X4.3274 Y-4.6195
G01 X4.3778 Y-4.5353
G01 X4.4198 Y-4.4466
G01 X4.4528 Y-4.3542
G01 X4.4767 Y-4.2591
G01 X4.4911 Y-4.1620
G01 X4.4959 Y-4.0640
G01 X4.2556 Y-4.0640
G01 X4.2519 Y-3.9896
G01 X4.2410 Y-3.9158
G01 X4.2229 Y-3.8435
G01 X4.1978 Y-3.7733
G01 X4.1659 Y-3.7060
G01 X4.1276 Y-3.6420
G01 X4.0832 Y-3.5822
G01 X4.0331 Y-3.5269
G01 X3.9779 Y-3.4769
G01 X3.9180 Y-3.4325
G01 X3.8541 Y-3.3942
G01 X3.7867 Y-3.3623
G01 X3.7165 Y-3.3372
G01 X3.6442 Y-3.3191
G01 X3.5705 Y-3.3081
G01 X3.4960 Y-3.3045
G01 X3.4216 Y-3.3081
G01 X3.3479 Y-3.3191
G01 X3.2756 Y-3.3372
G01 X3.2054 Y-3.3623
G01 X3.1380 Y-3.3942
G01 X3.0741 Y-3.4325
G01 X3.0142 Y-3.4769
G01 X2.9590 Y-3.5269
G01 X2.9089 Y-3.5822
G01 X2.8645 Y-3.6420
G01 X2.8262 Y-3.7060
G01 X2.7943 Y-3.7733
G01 X2.7692 Y-3.8435
G01 X2.7511 Y-3.9158
G01 X2.7402 Y-3.9896
G01 X2.7365 Y-4.0640
G01 X2.7402 Y-4.1384
G01 X2.7511 Y-4.2122
G01 X2.7692 Y-4.2845
G01 X2.7943 Y-4.3547
G01 X2.8262 Y-4.4220
G01 X2.8645 Y-4.4860
G01 X2.9089 Y-4.5458
G01 X2.9590 Y-4.6011
G01 X3.0142 Y-4.6511
G01 X3.0741 Y-4.6955
G01 X3.1380 Y-4.7338
G01 X3.2054 Y-4.7657
G01 X3.2756 Y-4.7908
G01 X3.3479 Y-4.8089
G01 X3.4216 Y-4.8199
G01 X3.4961 Y-4.8235
G01 X3.5705 Y-4.8199
G01 X3.6442 Y-4.8089
G01 X3.7165 Y-4.7908
G01 X3.7867 Y-4.7657
G01 X3.8541 Y-4.7338
G01 X3.9180 Y-4.6955
G01 X3.9779 Y-4.6511
G01 X4.0331 Y-4.6011
G01 X4.0832 Y-4.5458
G01 X4.1276 Y-4.4860
G01 X4.1659 Y-4.4220
G01 X4.1978 Y-4.3547
G01 X4.2229 Y-4.2845
G01 X4.2410 Y-4.2122
G01 X4.2519 Y-4.1384
G01 X4.2556 Y-4.0640
G01 X4.0153 Y-4.0640
G01 X4.0128 Y-4.0131
G01 X4.0053 Y-3.9627
G01 X3.9929 Y-3.9133
G01 X3.9758 Y-3.8653
G01 X3.9540 Y-3.8192
G01 X3.9278 Y-3.7755
G01 X3.8974 Y-3.7346
G01 X3.8632 Y-3.6968
G01 X3.8255 Y-3.6626
G01 X3.7845 Y-3.6323
G01 X3.7408 Y-3.6061
G01 X3.6948 Y-3.5843
G01 X3.6468 Y-3.5671
G01 X3.5973 Y-3.5547
G01 X3.5469 Y-3.5473
G01 X3.4960 Y-3.5448
G01 X3.4452 Y-3.5473
G01 X3.3948 Y-3.5547
G01 X3.3453 Y-3.5671
G01 X3.2973 Y-3.5843
G01 X3.2513 Y-3.6061
G01 X3.2076 Y-3.6323
G01 X3.1666 Y-3.6626
G01 X3.1289 Y-3.6968
G01 X3.0947 Y-3.7346
G01 X3.0643 Y-3.7755
G01 X3.0381 Y-3.8192
G01 X3.0163 Y-3.8653
G01 X2.9992 Y-3.9133
G01 X2.9868 Y-3.9627
G01 X2.9793 Y-4.0131
G01 X2.9768 Y-4.0640
G01 X2.9793 Y-4.1149
G01 X2.9868 Y-4.1653
G01 X2.9992 Y-4.2147
G01 X3.0163 Y-4.2627
G01 X3.0381 Y-4.3088
G01 X3.0643 Y-4.3525
G01 X3.0947 Y-4.3934
G01 X3.1289 Y-4.4312
G01 X3.1666 Y-4.4654
G01 X3.2076 Y-4.4957
G01 X3.2513 Y-4.5219
G01 X3.2973 Y-4.5437
G01 X3.3453 Y-4.5609
G01 X3.3948 Y-4.5733
G01 X3.4452 Y-4.5807
G01 X3.4961 Y-4.5832
G01 X3.5469 Y-4.5807
G01 X3.5973 Y-4.5733
G01 X3.6468 Y-4.5609
G01 X3.6948 Y-4.5437
G01 X3.7408 Y-4.5219
G01 X3.7845 Y-4.4957
G01 X3.8255 Y-4.4654
G01 X3.8632 Y-4.4312
G01 X3.8974 Y-4.3934
G01 X3.9278 Y-4.3525
G01 X3.9540 Y-4.3088
G01 X3.9758 Y-4.2627
G01 X3.9929 Y-4.2147
G01 X4.0053 Y-4.1653
G01 X4.0128 Y-4.1149
G01 X4.0153 Y-4.0640
G01 X3.7750 Y-4.0640
G01 X3.7737 Y-4.0367
G01 X3.7696 Y-4.0096
G01 X3.7630 Y-3.9830
G01 X3.7538 Y-3.9573
G01 X3.7421 Y-3.9325
G01 X3.7280 Y-3.9090
G01 X3.7117 Y-3.8870
G01 X3.6933 Y-3.8668
G01 X3.6730 Y-3.8484
G01 X3.6510 Y-3.8321
G01 X3.6275 Y-3.8180
G01 X3.6028 Y-3.8063
G01 X3.5770 Y-3.7971
G01 X3.5505 Y-3.7904
G01 X3.5234 Y-3.7864
G01 X3.4960 Y-3.7850
G01 X3.4687 Y-3.7864
G01 X3.4416 Y-3.7904
G01 X3.4151 Y-3.7971
G01 X3.3893 Y-3.8063
G01 X3.3646 Y-3.8180
G01 X3.3411 Y-3.8321
G01 X3.3191 Y-3.8484
G01 X3.2988 Y-3.8668
G01 X3.2804 Y-3.8870
G01 X3.2641 Y-3.9090
G01 X3.2500 Y-3.9325
G01 X3.2383 Y-3.9573
G01 X3.2291 Y-3.9830
G01 X3.2225 Y-4.0096
G01 X3.2184 Y-4.0367
G01 X3.2171 Y-4.0640
G01 X3.2184 Y-4.0913
G01 X3.2225 Y-4.1184
G01 X3.2291 Y-4.1450
G01 X3.2383 Y-4.1707
G01 X3.2500 Y-4.1955
G01 X3.2641 Y-4.2190
G01 X3.2804 Y-4.2410
G01 X3.2988 Y-4.2612
G01 X3.3191 Y-4.2796
G01 X3.3411 Y-4.2959
G01 X3.3646 Y-4.3100
G01 X3.3893 Y-4.3217
G01 X3.4151 Y-4.3309
G01 X3.4416 Y-4.3376
G01 X3.4687 Y-4.3416
G01 X3.4961 Y-4.3430
G01 X3.5234 Y-4.3416
G01 X3.5505 Y-4.3376
G01 X3.5770 Y-4.3309
G01 X3.6028 Y-4.3217
G01 X3.6275 Y-4.3100
G01 X3.6510 Y-4.2959
G01 X3.6730 Y-4.2796
G01 X3.6933 Y-4.2612
G01 X3.7117 Y-4.2410
G01 X3.7280 Y-4.2190
G01 X3.7421 Y-4.1955
G01 X3.7538 Y-4.1707
G01 X3.7630 Y-4.1450
G01 X3.7696 Y-4.1184
G01 X3.7737 Y-4.0913
G01 X3.7750 Y-4.0640
G01 X3.5347 Y-4.0640
G01 X3.5345 Y-4.0602
G01 X3.5330 Y-4.0528
G01 X3.5301 Y-4.0458
G01 X3.5259 Y-4.0395
G01 X3.5206 Y-4.0341
G01 X3.5143 Y-4.0299
G01 X3.5073 Y-4.0270
G01 X3.4998 Y-4.0255
G01 X3.4923 Y-4.0255
G01 X3.4848 Y-4.0270
G01 X3.4778 Y-4.0299
G01 X3.4746 Y-4.0319
G01 X3.4687 Y-4.0367
G01 X3.4639 Y-4.0425
G01 X3.4603 Y-4.0492
G01 X3.4581 Y-4.0565
G01 X3.4574 Y-4.0640
G01 X3.4581 Y-4.0715
G01 X3.4603 Y-4.0788
G01 X3.4639 Y-4.0855
G01 X3.4687 Y-4.0913
G01 X3.4746 Y-4.0961
G01 X3.4813 Y-4.0997
G01 X3.4885 Y-4.1019
G01 X3.4961 Y-4.1027
G01 X3.5036 Y-4.1019
G01 X3.5108 Y-4.0997
G01 X3.5175 Y-4.0961
G01 X3.5234 Y-4.0913
G01 X3.5282 Y-4.0855
G01 X3.5318 Y-4.0788
G01 X3.5340 Y-4.0715
G01 X3.5347 Y-4.0640
G00 Z1.0000
G00 X1.9957 Y-4.0640
G01 F25.00
G01 Z-0.0011
G01 F120.00
G01 X1.9909 Y-3.9660
G01 X1.9765 Y-3.8689
G01 X1.9527 Y-3.7738
G01 X1.9196 Y-3.6814
G01 X1.8777 Y-3.5927
G01 X1.8272 Y-3.5085
G01 X1.7688 Y-3.4297
G01 X1.7029 Y-3.3570
G01 X1.6302 Y-3.2911
G01 X1.5514 Y-3.2327
G01 X1.4672 Y-3.1822
G01 X1.3785 Y-3.1403
G01 X1.2862 Y-3.1072
G01 X1.1910 Y-3.0834
G01 X1.0939 Y-3.0690
G01 X0.9959 Y-3.0642
G01 X0.8979 Y-3.0690
G01 X0.8009 Y-3.0834
G01 X0.7057 Y-3.1072
G01 X0.6133 Y-3.1403
G01 X0.5246 Y-3.1822
G01 X0.4405 Y-3.2327
G01 X0.3617 Y-3.2911
G01 X0.2890 Y-3.3570
G01 X0.2231 Y-3.4297
G01 X0.1646 Y-3.5085
G01 X0.1142 Y-3.5927
G01 X0.0722 Y-3.6814
G01 X0.0392 Y-3.7738
G01 X0.0153 Y-3.8689
G01 X0.0009 Y-3.9660
G01 X-0.0039 Y-4.0640
G01 X0.0009 Y-4.1620
G01 X0.0153 Y-4.2591
G01 X0.0392 Y-4.3542
G01 X0.0722 Y-4.4466
G01 X0.1142 Y-4.5353
G01 X0.1646 Y-4.6195
G01 X0.2231 Y-4.6983
G01 X0.2890 Y-4.7710
G01 X0.3617 Y-4.8369
G01 X0.4405 Y-4.8953
G01 X0.5246 Y-4.9458
G01 X0.6133 Y-4.9877
G01 X0.7057 Y-5.0208
G01 X0.8009 Y-5.0446
G01 X0.8979 Y-5.0590
G01 X0.9959 Y-5.0638
G01 X1.0939 Y-5.0590
G01 X1.1910 Y-5.0446
G01 X1.2862 Y-5.0208
G01 X1.3785 Y-4.9877
G01 X1.4672 Y-4.9458
G01 X1.5514 Y-4.8953
G01 X1.6302 Y-4.8369
G01 X1.7029 Y-4.7710
G01 X1.7688 Y-4.6983
G01 X1.8272 Y-4.6195
G01 X1.8777 Y-4.5353
G01 X1.9196 Y-4.4466
G01 X1.9527 Y-4.3542
G01 X1.9765 Y-4.2591
G01 X1.9909 Y-4.1620
G01 X1.9957 Y-4.0640
G01 X1.7555 Y-4.0640
G01 X1.7518 Y-3.9896
G01 X1.7409 Y-3.9158
G01 X1.7228 Y-3.8435
G01 X1.6976 Y-3.7733
G01 X1.6658 Y-3.7060
G01 X1.6275 Y-3.6420
G01 X1.5831 Y-3.5822
G01 X1.5330 Y-3.5269
G01 X1.4778 Y-3.4769
G01 X1.4179 Y-3.4325
G01 X1.3540 Y-3.3942
G01 X1.2866 Y-3.3623
G01 X1.2164 Y-3.3372
G01 X1.1441 Y-3.3191
G01 X1.0704 Y-3.3081
G01 X0.9959 Y-3.3045
G01 X0.9215 Y-3.3081
G01 X0.8478 Y-3.3191
G01 X0.7755 Y-3.3372
G01 X0.7053 Y-3.3623
G01 X0.6379 Y-3.3942
G01 X0.5740 Y-3.4325
G01 X0.5141 Y-3.4769
G01 X0.4589 Y-3.5269
G01 X0.4088 Y-3.5822
G01 X0.3644 Y-3.6420
G01 X0.3261 Y-3.7060
G01 X0.2942 Y-3.7733
G01 X0.2691 Y-3.8435
G01 X0.2510 Y-3.9158
G01 X0.2401 Y-3.9896
G01 X0.2364 Y-4.0640
G01 X0.2401 Y-4.1384
G01 X0.2510 Y-4.2122
G01 X0.2691 Y-4.2845
G01 X0.2942 Y-4.3547
G01 X0.3261 Y-4.4220
G01 X0.3644 Y-4.4860
G01 X0.4088 Y-4.5458
G01 X0.4589 Y-4.6011
G01 X0.5141 Y-4.6511
G01 X0.5740 Y-4.6955
G01 X0.6379 Y-4.7338
G01 X0.7053 Y-4.7657
G01 X0.7755 Y-4.7908
G01 X0.8478 Y-4.8089
G01 X0.9215 Y-4.8199
G01 X0.9959 Y-4.8235
G01 X1.0704 Y-4.8199
G01 X1.1441 Y-4.8089
G01 X1.2164 Y-4.7908
G01 X1.2866 Y-4.7657
G01 X1.3540 Y-4.7338
G01 X1.4179 Y-4.6955
G01 X1.4778 Y-4.6511
G01 X1.5330 Y-4.6011
G01 X1.5831 Y-4.5458
G01 X1.6275 Y-4.4860
G01 X1.6658 Y-4.4220
G01 X1.6976 Y-4.3547
G01 X1.7228 Y-4.2845
G01 X1.7409 Y-4.2122
G01 X1.7518 Y-4.1384
G01 X1.7555 Y-4.0640
G01 X1.5152 Y-4.0640
G01 X1.5127 Y-4.0131
G01 X1.5052 Y-3.9627
G01 X1.4928 Y-3.9133
G01 X1.4756 Y-3.8653
G01 X1.4539 Y-3.8192
G01 X1.4277 Y-3.7755
G01 X1.3973 Y-3.7346
G01 X1.3631 Y-3.6968
G01 X1.3253 Y-3.6626
G01 X1.2844 Y-3.6323
G01 X1.2407 Y-3.6061
G01 X1.1946 Y-3.5843
G01 X1.1467 Y-3.5671
G01 X1.0972 Y-3.5547
G01 X1.0468 Y-3.5473
G01 X0.9959 Y-3.5448
G01 X0.9450 Y-3.5473
G01 X0.8946 Y-3.5547
G01 X0.8452 Y-3.5671
G01 X0.7972 Y-3.5843
G01 X0.7512 Y-3.6061
G01 X0.7075 Y-3.6323
G01 X0.6665 Y-3.6626
G01 X0.6288 Y-3.6968
G01 X0.5946 Y-3.7346
G01 X0.5642 Y-3.7755
G01 X0.5380 Y-3.8192
G01 X0.5162 Y-3.8653
G01 X0.4990 Y-3.9133
G01 X0.4867 Y-3.9627
G01 X0.4792 Y-4.0131
G01 X0.4767 Y-4.0640
G01 X0.4792 Y-4.1149
G01 X0.4867 Y-4.1653
G01 X0.4990 Y-4.2147
G01 X0.5162 Y-4.2627
G01 X0.5380 Y-4.3088
G01 X0.5642 Y-4.3525
G01 X0.5946 Y-4.3934
G01 X0.6288 Y-4.4312
G01 X0.6665 Y-4.4654
G01 X0.7075 Y-4.4957
G01 X0.7512 Y-4.5219
G01 X0.7972 Y-4.5437
G01 X0.8452 Y-4.5609
G01 X0.8946 Y-4.5733
G01 X0.9450 Y-4.5807
G01 X0.9959 Y-4.5832
G01 X1.0468 Y-4.5807
G01 X1.0972 Y-4.5733
G01 X1.1467 Y-4.5609
G01 X1.1946 Y-4.5437
G01 X1.2407 Y-4.5219
G01 X1.2844 Y-4.4957
G01 X1.3253 Y-4.4654
G01 X1.3631 Y-4.4312
G01 X1.3973 Y-4.3934
G01 X1.4277 Y-4.3525
G01 X1.4539 Y-4.3088
G01 X1.4756 Y-4.2627
G01 X1.4928 Y-4.2147
G01 X1.5052 Y-4.1653
G01 X1.5127 Y-4.1149
G01 X1.5152 Y-4.0640
G01 X1.2749 Y-4.0640
G01 X1.2735 Y-4.0367
G01 X1.2695 Y-4.0096
G01 X1.2629 Y-3.9830
G01 X1.2536 Y-3.9573
G01 X1.2419 Y-3.9325
G01 X1.2279 Y-3.9090
G01 X1.2116 Y-3.8870
G01 X1.1932 Y-3.8668
G01 X1.1729 Y-3.8484
G01 X1.1509 Y-3.8321
G01 X1.1274 Y-3.8180
G01 X1.1027 Y-3.8063
G01 X1.0769 Y-3.7971
G01 X1.0504 Y-3.7904
G01 X1.0233 Y-3.7864
G01 X0.9959 Y-3.7850
G01 X0.9686 Y-3.7864
G01 X0.9415 Y-3.7904
G01 X0.9150 Y-3.7971
G01 X0.8892 Y-3.8063
G01 X0.8644 Y-3.8180
G01 X0.8410 Y-3.8321
G01 X0.8190 Y-3.8484
G01 X0.7987 Y-3.8668
G01 X0.7803 Y-3.8870
G01 X0.7640 Y-3.9090
G01 X0.7499 Y-3.9325
G01 X0.7382 Y-3.9573
G01 X0.7290 Y-3.9830
G01 X0.7223 Y-4.0096
G01 X0.7183 Y-4.0367
G01 X0.7170 Y-4.0640
G01 X0.7183 Y-4.0913
G01 X0.7223 Y-4.1184
G01 X0.7290 Y-4.1450
G01 X0.7382 Y-4.1707
G01 X0.7499 Y-4.1955
G01 X0.7640 Y-4.2190
G01 X0.7803 Y-4.2410
G01 X0.7987 Y-4.2612
G01 X0.8190 Y-4.2796
G01 X0.8410 Y-4.2959
G01 X0.8644 Y-4.3100
G01 X0.8892 Y-4.3217
G01 X0.9150 Y-4.3309
G01 X0.9415 Y-4.3376
G01 X0.9686 Y-4.3416
G01 X0.9959 Y-4.3430
G01 X1.0233 Y-4.3416
G01 X1.0504 Y-4.3376
G01 X1.0769 Y-4.3309
G01 X1.1027 Y-4.3217
G01 X1.1274 Y-4.3100
G01 X1.1509 Y-4.2959
G01 X1.1729 Y-4.2796
G01 X1.1932 Y-4.2612
G01 X1.2116 Y-4.2410
G01 X1.2279 Y-4.2190
G01 X1.2419 Y-4.1955
G01 X1.2536 Y-4.1707
G01 X1.2629 Y-4.1450
G01 X1.2695 Y-4.1184
G01 X1.2735 Y-4.0913
G01 X1.2749 Y-4.0640
G01 X1.0346 Y-4.0640
G01 X1.0344 Y-4.0602
G01 X1.0329 Y-4.0528
G01 X1.0300 Y-4.0458
G01 X1.0258 Y-4.0395
G01 X1.0205 Y-4.0341
G01 X1.0142 Y-4.0299
G01 X1.0072 Y-4.0270
G01 X0.9997 Y-4.0255
G01 X0.9921 Y-4.0255
G01 X0.9847 Y-4.0270
G01 X0.9777 Y-4.0299
G01 X0.9714 Y-4.0341
G01 X0.9660 Y-4.0395
G01 X0.9618 Y-4.0458
G01 X0.9602 Y-4.0492
G01 X0.9580 Y-4.0565
G01 X0.9573 Y-4.0640
G01 X0.9580 Y-4.0715
G01 X0.9602 Y-4.0788
G01 X0.9638 Y-4.0855
G01 X0.9686 Y-4.0913
G01 X0.9745 Y-4.0961
G01 X0.9811 Y-4.0997
G01 X0.9884 Y-4.1019
G01 X0.9959 Y-4.1027
G01 X1.0035 Y-4.1019
G01 X1.0107 Y-4.0997
G01 X1.0174 Y-4.0961
G01 X1.0233 Y-4.0913
G01 X1.0281 Y-4.0855
G01 X1.0316 Y-4.0788
G01 X1.0338 Y-4.0715
G01 X1.0346 Y-4.0640
G00 Z1.0000
G00 X-0.5041 Y-4.0640
G01 F25.00
G01 Z-0.0011
G01 F120.00
G01 X-0.5089 Y-4.1620
G01 X-0.5233 Y-4.2591
G01 X-0.5472 Y-4.3542
G01 X-0.5802 Y-4.4466
G01 X-0.6222 Y-4.5353
G01 X-0.6726 Y-4.6195
G01 X-0.7311 Y-4.6983
G01 X-0.7970 Y-4.7710
G01 X-0.8697 Y-4.8369
G01 X-0.9485 Y-4.8953
G01 X-1.0326 Y-4.9458
G01 X-1.1213 Y-4.9877
G01 X-1.2137 Y-5.0208
G01 X-1.3089 Y-5.0446
G01 X-1.4059 Y-5.0590
G01 X-1.5039 Y-5.0638
G01 X-1.6019 Y-5.0590
G01 X-1.6990 Y-5.0446
G01 X-1.7942 Y-5.0208
G01 X-1.8865 Y-4.9877
G01 X-1.9752 Y-4.9458
G01 X-2.0594 Y-4.8953
G01 X-2.1382 Y-4.8369
G01 X-2.2109 Y-4.7710
G01 X-2.2768 Y-4.6983
G01 X-2.3352 Y-4.6195
G01 X-2.3857 Y-4.5353
G01 X-2.4276 Y-4.4466
G01 X-2.4607 Y-4.3542
G01 X-2.4845 Y-4.2591
G01 X-2.4989 Y-4.1620
G01 X-2.5037 Y-4.0640
G01 X-2.4989 Y-3.9660
G01 X-2.4845 Y-3.8689
G01 X-2.4607 Y-3.7738
G01 X-2.4276 Y-3.6814
G01 X-2.3857 Y-3.5927
G01 X-2.3352 Y-3.5085
G01 X-2.2768 Y-3.4297
G01 X-2.2109 Y-3.3570
G01 X-2.1382 Y-3.2911
G01 X-2.0594 Y-3.2327
G01 X-1.9752 Y-3.1822
G01 X-1.8865 Y-3.1403
G01 X-1.7942 Y-3.1072
G01 X-1.6990 Y-3.0834
G01 X-1.6019 Y-3.0690
G01 X-1.5039 Y-3.0642
G01 X-1.4059 Y-3.0690
G01 X-1.3089 Y-3.0834
G01 X-1.2137 Y-3.1072
G01 X-1.1213 Y-3.1403
G01 X-1.0326 Y-3.1822
G01 X-0.9485 Y-3.2327
G01 X-0.8697 Y-3.2911
G01 X-0.7970 Y-3.3570
G01 X-0.7311 Y-3.4297
G01 X-0.6726 Y-3.5085
G01 X-0.6222 Y-3.5927
G01 X-0.5802 Y-3.6814
G01 X-0.5472 Y-3.7738
G01 X-0.5233 Y-3.8689
G01 X-0.5089 Y-3.9660
G01 X-0.5041 Y-4.0640
G01 X-0.7444 Y-4.0640
G01 X-0.7481 Y-4.1384
G01 X-0.7590 Y-4.2122
G01 X-0.7771 Y-4.2845
G01 X-0.8022 Y-4.3547
G01 X-0.8341 Y-4.4220
G01 X-0.8724 Y-4.4860
G01 X-0.9168 Y-4.5458
G01 X-0.9669 Y-4.6011
G01 X-1.0221 Y-4.6511
G01 X-1.0820 Y-4.6955
G01 X-1.1459 Y-4.7338
G01 X-1.2133 Y-4.7657
G01 X-1.2835 Y-4.7908
G01 X-1.3558 Y-4.8089
G01 X-1.4295 Y-4.8199
G01 X-1.5039 Y-4.8235
G01 X-1.5784 Y-4.8199
G01 X-1.6521 Y-4.8089
G01 X-1.7244 Y-4.7908
G01 X-1.7946 Y-4.7657
G01 X-1.8620 Y-4.7338
G01 X-1.9259 Y-4.6955
G01 X-1.9858 Y-4.6511
G01 X-2.0410 Y-4.6011
G01 X-2.0911 Y-4.5458
G01 X-2.1355 Y-4.4860
G01 X-2.1738 Y-4.4220
G01 X-2.2056 Y-4.3547
G01 X-2.2308 Y-4.2845
G01 X-2.2489 Y-4.2122
G01 X-2.2598 Y-4.1384
G01 X-2.2635 Y-4.0640
G01 X-2.2598 Y-3.9896
G01 X-2.2489 Y-3.9158
G01 X-2.2308 Y-3.8435
G01 X-2.2056 Y-3.7733
G01 X-2.1738 Y-3.7060
G01 X-2.1355 Y-3.6420
G01 X-2.0911 Y-3.5822
G01 X-2.0410 Y-3.5269
G01 X-1.9858 Y-3.4769
G01 X-1.9259 Y-3.4325
G01 X-1.8620 Y-3.3942
G01 X-1.7946 Y-3.3623
G01 X-1.7244 Y-3.3372
G01 X-1.6521 Y-3.3191
G01 X-1.5784 Y-3.3081
G01 X-1.5039 Y-3.3045
G01 X-1.4295 Y-3.3081
G01 X-1.3558 Y-3.3191
G01 X-1.2835 Y-3.3372
G01 X-1.2133 Y-3.3623
G01 X-1.1459 Y-3.3942
G01 X-1.0820 Y-3.4325
G01 X-1.0221 Y-3.4769
G01 X-0.9669 Y-3.5269
G01 X-0.9168 Y-3.5822
G01 X-0.8724 Y-3.6420
G01 X-0.8341 Y-3.7060
G01 X-0.8022 Y-3.7733
G01 X-0.7771 Y-3.8435
G01 X-0.7590 Y-3.9158
G01 X-0.7481 Y-3.9896
G01 X-0.7444 Y-4.0640
G01 X-0.9847 Y-4.0640
G01 X-0.9872 Y-4.1149
G01 X-0.9947 Y-4.1653
G01 X-1.0070 Y-4.2147
G01 X-1.0242 Y-4.2627
G01 X-1.0460 Y-4.3088
G01 X-1.0722 Y-4.3525
G01 X-1.1026 Y-4.3934
G01 X-1.1368 Y-4.4312
G01 X-1.1745 Y-4.4654
G01 X-1.2155 Y-4.4957
G01 X-1.2592 Y-4.5219
G01 X-1.3052 Y-4.5437
G01 X-1.3532 Y-4.5609
G01 X-1.4026 Y-4.5733
G01 X-1.4530 Y-4.5807
G01 X-1.5039 Y-4.5832
G01 X-1.5548 Y-4.5807
G01 X-1.6052 Y-4.5733
G01 X-1.6547 Y-4.5609
G01 X-1.7026 Y-4.5437
G01 X-1.7487 Y-4.5219
G01 X-1.7924 Y-4.4957
G01 X-1.8333 Y-4.4654
G01 X-1.8711 Y-4.4312
G01 X-1.9053 Y-4.3934
G01 X-1.9357 Y-4.3525
G01 X-1.9619 Y-4.3088
G01 X-1.9836 Y-4.2627
G01 X-2.0008 Y-4.2147
G01 X-2.0132 Y-4.1653
G01 X-2.0207 Y-4.1149
G01 X-2.0232 Y-4.0640
G01 X-2.0207 Y-4.0131
G01 X-2.0132 Y-3.9627
G01 X-2.0008 Y-3.9133
G01 X-1.9836 Y-3.8653
G01 X-1.9619 Y-3.8192
G01 X-1.9357 Y-3.7755
G01 X-1.9053 Y-3.7346
G01 X-1.8711 Y-3.6968
G01 X-1.8333 Y-3.6626
G01 X-1.7924 Y-3.6323
G01 X-1.7487 Y-3.6061
G01 X-1.7026 Y-3.5843
G01 X-1.6547 Y-3.5671
G01 X-1.6052 Y-3.5547
G01 X-1.5548 Y-3.5473
G01 X-1.5039 Y-3.5448
G01 X-1.4530 Y-3.5473
G01 X-1.4026 Y-3.5547
G01 X-1.3532 Y-3.5671
G01 X-1.3052 Y-3.5843
G01 X-1.2592 Y-3.6061
G01 X-1.2155 Y-3.6323
G01 X-1.1745 Y-3.6626
G01 X-1.1368 Y-3.6968
G01 X-1.1026 Y-3.7346
G01 X-1.0722 Y-3.7755
G01 X-1.0460 Y-3.8192
G01 X-1.0242 Y-3.8653
G01 X-1.0070 Y-3.9133
G01 X-0.9947 Y-3.9627
G01 X-0.9872 Y-4.0131
G01 X-0.9847 Y-4.0640
G01 X-1.2250 Y-4.0640
G01 X-1.2263 Y-4.0913
G01 X-1.2303 Y-4.1184
G01 X-1.2370 Y-4.1450
G01 X-1.2462 Y-4.1707
G01 X-1.2579 Y-4.1955
G01 X-1.2720 Y-4.2190
G01 X-1.2883 Y-4.2410
G01 X-1.3067 Y-4.2612
G01 X-1.3270 Y-4.2796
G01 X-1.3490 Y-4.2959
G01 X-1.3724 Y-4.3100
G01 X-1.3972 Y-4.3217
G01 X-1.4230 Y-4.3309
G01 X-1.4495 Y-4.3376
G01 X-1.4766 Y-4.3416
G01 X-1.5039 Y-4.3430
G01 X-1.5313 Y-4.3416
G01 X-1.5584 Y-4.3376
G01 X-1.5849 Y-4.3309
G01 X-1.6107 Y-4.3217
G01 X-1.6354 Y-4.3100
G01 X-1.6589 Y-4.2959
G01 X-1.6809 Y-4.2796
G01 X-1.7012 Y-4.2612
G01 X-1.7196 Y-4.2410
G01 X-1.7359 Y-4.2190
G01 X-1.7499 Y-4.1955
G01 X-1.7616 Y-4.1707
G01 X-1.7709 Y-4.1450
G01 X-1.7775 Y-4.1184
G01 X-1.7815 Y-4.0913
G01 X-1.7829 Y-4.0640
G01 X-1.7815 Y-4.0367
G01 X-1.7775 Y-4.0096
G01 X-1.7709 Y-3.9830
G01 X-1.7616 Y-3.9573
G01 X-1.7499 Y-3.9325
G01 X-1.7359 Y-3.9090
G01 X-1.7196 Y-3.8870
G01 X-1.7012 Y-3.8668
G01 X-1.6809 Y-3.8484
G01 X-1.6589 Y-3.8321
G01 X-1.6354 Y-3.8180
G01 X-1.6107 Y-3.8063
G01 X-1.5849 Y-3.7971
G01 X-1.5584 Y-3.7904
G01 X-1.5313 Y-3.7864
G01 X-1.5039 Y-3.7850
G01 X-1.4766 Y-3.7864
G01 X-1.4495 Y-3.7904
G01 X-1.4230 Y-3.7971
G01 X-1.3972 Y-3.8063
G01 X-1.3724 Y-3.8180
G01 X-1.3490 Y-3.8321
G01 X-1.3270 Y-3.8484
G01 X-1.3067 Y-3.8668
G01 X-1.2883 Y-3.8870
G01 X-1.2720 Y-3.9090
G01 X-1.2579 Y-3.9325
G01 X-1.2462 Y-3.9573
G01 X-1.2370 Y-3.9830
G01 X-1.2303 Y-4.0096
G01 X-1.2263 Y-4.0367
G01 X-1.2250 Y-4.0640
G01 X-1.4653 Y-4.0640
G01 X-1.4660 Y-4.0715
G01 X-1.4682 Y-4.0788
G01 X-1.4718 Y-4.0855
G01 X-1.4766 Y-4.0913
G01 X-1.4825 Y-4.0961
G01 X-1.4891 Y-4.0997
G01 X-1.4927 Y-4.1010
G01 X-1.5001 Y-4.1025
G01 X-1.5077 Y-4.1025
G01 X-1.5152 Y-4.1010
G01 X-1.5222 Y-4.0981
G01 X-1.5285 Y-4.0939
G01 X-1.5338 Y-4.0885
G01 X-1.5361 Y-4.0855
G01 X-1.5396 Y-4.0788
G01 X-1.5418 Y-4.0715
G01 X-1.5426 Y-4.0640
G01 X-1.5418 Y-4.0565
G01 X-1.5396 Y-4.0492
G01 X-1.5361 Y-4.0425
G01 X-1.5313 Y-4.0367
G01 X-1.5254 Y-4.0319
G01 X-1.5187 Y-4.0283
G01 X-1.5115 Y-4.0261
G01 X-1.5039 Y-4.0253
G01 X-1.4964 Y-4.0261
G01 X-1.4891 Y-4.0283
G01 X-1.4825 Y-4.0319
G01 X-1.4766 Y-4.0367
G01 X-1.4718 Y-4.0425
G01 X-1.4682 Y-4.0492
G01 X-1.4660 Y-4.0565
G01 X-1.4653 Y-4.0640
G00 Z1.0000
G00 X-3.0042 Y-4.0640
G01 F25.00
G01 Z-0.0011
G01 F120.00
G01 X-3.0090 Y-4.1620
G01 X-3.0234 Y-4.2591
G01 X-3.0473 Y-4.3542
G01 X-3.0803 Y-4.4466
G01 X-3.1223 Y-4.5353
G01 X-3.1727 Y-4.6195
G01 X-3.2312 Y-4.6983
G01 X-3.2971 Y-4.7710
G01 X-3.3698 Y-4.8369
G01 X-3.4486 Y-4.8953
G01 X-3.5327 Y-4.9458
G01 X-3.6214 Y-4.9877
G01 X-3.7138 Y-5.0208
G01 X-3.8090 Y-5.0446
G01 X-3.9061 Y-5.0590
G01 X-4.0040 Y-5.0638
G01 X-4.1020 Y-5.0590
G01 X-4.1991 Y-5.0446
G01 X-4.2943 Y-5.0208
G01 X-4.3867 Y-4.9877
G01 X-4.4754 Y-4.9458
G01 X-4.5595 Y-4.8953
G01 X-4.6383 Y-4.8369
G01 X-4.7110 Y-4.7710
G01 X-4.7769 Y-4.6983
G01 X-4.8354 Y-4.6195
G01 X-4.8858 Y-4.5353
G01 X-4.9278 Y-4.4466
G01 X-4.9608 Y-4.3542
G01 X-4.9847 Y-4.2591
G01 X-4.9991 Y-4.1620
G01 X-5.0039 Y-4.0640
G01 X-4.9991 Y-3.9660
G01 X-4.9847 Y-3.8689
G01 X-4.9608 Y-3.7738
G01 X-4.9278 Y-3.6814
G01 X-4.8858 Y-3.5927
G01 X-4.8354 Y-3.5085
G01 X-4.7769 Y-3.4297
G01 X-4.7110 Y-3.3570
G01 X-4.6383 Y-3.2911
G01 X-4.5595 Y-3.2327
G01 X-4.4754 Y-3.1822
G01 X-4.3867 Y-3.1403
G01 X-4.2943 Y-3.1072
G01 X-4.1991 Y-3.0834
G01 X-4.1020 Y-3.0690
G01 X-4.0041 Y-3.0642
G01 X-3.9061 Y-3.0690
G01 X-3.8090 Y-3.0834
G01 X-3.7138 Y-3.1072
G01 X-3.6214 Y-3.1403
G01 X-3.5327 Y-3.1822
G01 X-3.4486 Y-3.2327
G01 X-3.3698 Y-3.2911
G01 X-3.2971 Y-3.3570
G01 X-3.2312 Y-3.4297
G01 X-3.1727 Y-3.5085
G01 X-3.1223 Y-3.5927
G01 X-3.0803 Y-3.6814
G01 X-3.0473 Y-3.7738
G01 X-3.0234 Y-3.8689
G01 X-3.0090 Y-3.9660
G01 X-3.0042 Y-4.0640
G01 X-3.2445 Y-4.0640
G01 X-3.2482 Y-4.1384
G01 X-3.2591 Y-4.2122
G01 X-3.2772 Y-4.2845
G01 X-3.3023 Y-4.3547
G01 X-3.3342 Y-4.4220
G01 X-3.3725 Y-4.4860
G01 X-3.4169 Y-4.5458
G01 X-3.4670 Y-4.6011
G01 X-3.5222 Y-4.6511
G01 X-3.5821 Y-4.6955
G01 X-3.6460 Y-4.7338
G01 X-3.7134 Y-4.7657
G01 X-3.7836 Y-4.7908
G01 X-3.8559 Y-4.8089
G01 X-3.9296 Y-4.8199
G01 X-4.0040 Y-4.8235
G01 X-4.0785 Y-4.8199
G01 X-4.1522 Y-4.8089
G01 X-4.2245 Y-4.7908
G01 X-4.2947 Y-4.7657
G01 X-4.3621 Y-4.7338
G01 X-4.4260 Y-4.6955
G01 X-4.4859 Y-4.6511
G01 X-4.5411 Y-4.6011
G01 X-4.5912 Y-4.5458
G01 X-4.6356 Y-4.4860
G01 X-4.6739 Y-4.4220
G01 X-4.7058 Y-4.3547
G01 X-4.7309 Y-4.2845
G01 X-4.7490 Y-4.2122
G01 X-4.7599 Y-4.1384
G01 X-4.7636 Y-4.0640
G01 X-4.7599 Y-3.9896
G01 X-4.7490 Y-3.9158
G01 X-4.7309 Y-3.8435
G01 X-4.7058 Y-3.7733
G01 X-4.6739 Y-3.7060
G01 X-4.6356 Y-3.6420
G01 X-4.5912 Y-3.5822
G01 X-4.5411 Y-3.5269
G01 X-4.4859 Y-3.4769
G01 X-4.4260 Y-3.4325
G01 X-4.3621 Y-3.3942
G01 X-4.2947 Y-3.3623
G01 X-4.2245 Y-3.3372
G01 X-4.1522 Y-3.3191
G01 X-4.0785 Y-3.3081
G01 X-4.0041 Y-3.3045
G01 X-3.9296 Y-3.3081
G01 X-3.8559 Y-3.3191
G01 X-3.7836 Y-3.3372
G01 X-3.7134 Y-3.3623
G01 X-3.6460 Y-3.3942
G01 X-3.5821 Y-3.4325
G01 X-3.5222 Y-3.4769
G01 X-3.4670 Y-3.5269
G01 X-3.4169 Y-3.5822
G01 X-3.3725 Y-3.6420
G01 X-3.3342 Y-3.7060
G01 X-3.3023 Y-3.7733
G01 X-3.2772 Y-3.8435
G01 X-3.2591 Y-3.9158
G01 X-3.2482 Y-3.9896
G01 X-3.2445 Y-4.0640
G01 X-3.4848 Y-4.0640
G01 X-3.4873 Y-4.1149
G01 X-3.4948 Y-4.1653
G01 X-3.5072 Y-4.2147
G01 X-3.5243 Y-4.2627
G01 X-3.5461 Y-4.3088
G01 X-3.5723 Y-4.3525
G01 X-3.6027 Y-4.3934
G01 X-3.6369 Y-4.4312
G01 X-3.6746 Y-4.4654
G01 X-3.7156 Y-4.4957
G01 X-3.7593 Y-4.5219
G01 X-3.8053 Y-4.5437
G01 X-3.8533 Y-4.5609
G01 X-3.9028 Y-4.5733
G01 X-3.9532 Y-4.5807
G01 X-4.0040 Y-4.5832
G01 X-4.0549 Y-4.5807
G01 X-4.1053 Y-4.5733
G01 X-4.1548 Y-4.5609
G01 X-4.2028 Y-4.5437
G01 X-4.2488 Y-4.5219
G01 X-4.2925 Y-4.4957
G01 X-4.3335 Y-4.4654
G01 X-4.3712 Y-4.4312
G01 X-4.4054 Y-4.3934
G01 X-4.4358 Y-4.3525
G01 X-4.4620 Y-4.3088
G01 X-4.4838 Y-4.2627
G01 X-4.5009 Y-4.2147
G01 X-4.5133 Y-4.1653
G01 X-4.5208 Y-4.1149
G01 X-4.5233 Y-4.0640
G01 X-4.5208 Y-4.0131
G01 X-4.5133 Y-3.9627
G01 X-4.5009 Y-3.9133
G01 X-4.4838 Y-3.8653
G01 X-4.4620 Y-3.8192
G01 X-4.4358 Y-3.7755
G01 X-4.4054 Y-3.7346
G01 X-4.3712 Y-3.6968
G01 X-4.3335 Y-3.6626
G01 X-4.2925 Y-3.6323
G01 X-4.2488 Y-3.6061
G01 X-4.2028 Y-3.5843
G01 X-4.1548 Y-3.5671
G01 X-4.1053 Y-3.5547
G01 X-4.0549 Y-3.5473
G01 X-4.0041 Y-3.5448
G01 X-3.9532 Y-3.5473
G01 X-3.9028 Y-3.5547
G01 X-3.8533 Y-3.5671
G01 X-3.8053 Y-3.5843
G01 X-3.7593 Y-3.6061
G01 X-3.7156 Y-3.6323
G01 X-3.6746 Y-3.6626
G01 X-3.6369 Y-3.6968
G01 X-3.6027 Y-3.7346
G01 X-3.5723 Y-3.7755
G01 X-3.5461 Y-3.8192
G01 X-3.5243 Y-3.8653
G01 X-3.5072 Y-3.9133
G01 X-3.4948 Y-3.9627
G01 X-3.4873 Y-4.0131
G01 X-3.4848 Y-4.0640
G01 X-3.7251 Y-4.0640
G01 X-3.7264 Y-4.0913
G01 X-3.7305 Y-4.1184
G01 X-3.7371 Y-4.1450
G01 X-3.7463 Y-4.1707
G01 X-3.7580 Y-4.1955
G01 X-3.7721 Y-4.2190
G01 X-3.7884 Y-4.2410
G01 X-3.8068 Y-4.2612
G01 X-3.8271 Y-4.2796
G01 X-3.8491 Y-4.2959
G01 X-3.8726 Y-4.3100
G01 X-3.8973 Y-4.3217
G01 X-3.9231 Y-4.3309
G01 X-3.9496 Y-4.3376
G01 X-3.9767 Y-4.3416
G01 X-4.0040 Y-4.3430
G01 X-4.0314 Y-4.3416
G01 X-4.0585 Y-4.3376
G01 X-4.0850 Y-4.3309
G01 X-4.1108 Y-4.3217
G01 X-4.1355 Y-4.3100
G01 X-4.1590 Y-4.2959
G01 X-4.1810 Y-4.2796
G01 X-4.2013 Y-4.2612
G01 X-4.2197 Y-4.2410
G01 X-4.2360 Y-4.2190
G01 X-4.2501 Y-4.1955
G01 X-4.2618 Y-4.1707
G01 X-4.2710 Y-4.1450
G01 X-4.2776 Y-4.1184
G01 X-4.2817 Y-4.0913
G01 X-4.2830 Y-4.0640
G01 X-4.2817 Y-4.0367
G01 X-4.2776 Y-4.0096
G01 X-4.2710 Y-3.9830
G01 X-4.2618 Y-3.9573
G01 X-4.2501 Y-3.9325
G01 X-4.2360 Y-3.9090
G01 X-4.2197 Y-3.8870
G01 X-4.2013 Y-3.8668
G01 X-4.1810 Y-3.8484
G01 X-4.1590 Y-3.8321
G01 X-4.1355 Y-3.8180
G01 X-4.1108 Y-3.8063
G01 X-4.0850 Y-3.7971
G01 X-4.0585 Y-3.7904
G01 X-4.0314 Y-3.7864
G01 X-4.0041 Y-3.7850
G01 X-3.9767 Y-3.7864
G01 X-3.9496 Y-3.7904
G01 X-3.9231 Y-3.7971
G01 X-3.8973 Y-3.8063
G01 X-3.8726 Y-3.8180
G01 X-3.8491 Y-3.8321
G01 X-3.8271 Y-3.8484
G01 X-3.8068 Y-3.8668
G01 X-3.7884 Y-3.8870
G01 X-3.7721 Y-3.9090
G01 X-3.7580 Y-3.9325
G01 X-3.7463 Y-3.9573
G01 X-3.7371 Y-3.9830
G01 X-3.7305 Y-4.0096
G01 X-3.7264 Y-4.0367
G01 X-3.7251 Y-4.0640
G01 X-3.9654 Y-4.0640
G01 X-3.9661 Y-4.0715
G01 X-3.9683 Y-4.0788
G01 X-3.9719 Y-4.0855
G01 X-3.9767 Y-4.0913
G01 X-3.9795 Y-4.0939
G01 X-3.9858 Y-4.0981
G01 X-3.9928 Y-4.1010
G01 X-4.0003 Y-4.1025
G01 X-4.0078 Y-4.1025
G01 X-4.0153 Y-4.1010
G01 X-4.0223 Y-4.0981
G01 X-4.0286 Y-4.0939
G01 X-4.0314 Y-4.0913
G01 X-4.0362 Y-4.0855
G01 X-4.0398 Y-4.0788
G01 X-4.0420 Y-4.0715
G01 X-4.0427 Y-4.0640
G01 X-4.0420 Y-4.0565
G01 X-4.0398 Y-4.0492
G01 X-4.0362 Y-4.0425
G01 X-4.0314 Y-4.0367
G01 X-4.0255 Y-4.0319
G01 X-4.0188 Y-4.0283
G01 X-4.0116 Y-4.0261
G01 X-4.0041 Y-4.0253
G01 X-3.9965 Y-4.0261
G01 X-3.9893 Y-4.0283
G01 X-3.9826 Y-4.0319
G01 X-3.9767 Y-4.0367
G01 X-3.9719 Y-4.0425
G01 X-3.9683 Y-4.0492
G01 X-3.9661 Y-4.0565
G01 X-3.9654 Y-4.0640
G00 Z1.0000
G00 X-5.5041 Y-4.0640
G01 F25.00
G01 Z-0.0011
G01 F120.00
G01 X-5.5089 Y-4.1620
G01 X-5.5233 Y-4.2591
G01 X-5.5472 Y-4.3542
G01 X-5.5802 Y-4.4466
G01 X-5.6222 Y-4.5353
G01 X-5.6726 Y-4.6195
G01 X-5.7310 Y-4.6983
G01 X-5.7969 Y-4.7710
G01 X-5.8696 Y-4.8369
G01 X-5.9485 Y-4.8953
G01 X-6.0326 Y-4.9458
G01 X-6.1213 Y-4.9877
G01 X-6.2137 Y-5.0208
G01 X-6.3089 Y-5.0446
G01 X-6.4059 Y-5.0590
G01 X-6.5039 Y-5.0638
G01 X-6.6019 Y-5.0590
G01 X-6.6990 Y-5.0446
G01 X-6.7942 Y-5.0208
G01 X-6.8865 Y-4.9877
G01 X-6.9752 Y-4.9458
G01 X-7.0594 Y-4.8953
G01 X-7.1382 Y-4.8369
G01 X-7.2109 Y-4.7710
G01 X-7.2768 Y-4.6983
G01 X-7.3352 Y-4.6195
G01 X-7.3857 Y-4.5353
G01 X-7.4276 Y-4.4466
G01 X-7.4607 Y-4.3542
G01 X-7.4845 Y-4.2591
G01 X-7.4989 Y-4.1620
G01 X-7.5037 Y-4.0640
G01 X-7.4989 Y-3.9660
G01 X-7.4845 Y-3.8689
G01 X-7.4607 Y-3.7738
G01 X-7.4276 Y-3.6814
G01 X-7.3857 Y-3.5927
G01 X-7.3352 Y-3.5085
G01 X-7.2768 Y-3.4297
G01 X-7.2109 Y-3.3570
G01 X-7.1382 Y-3.2911
G01 X-7.0594 Y-3.2327
G01 X-6.9752 Y-3.1822
G01 X-6.8865 Y-3.1403
G01 X-6.7942 Y-3.1072
G01 X-6.6990 Y-3.0834
G01 X-6.6019 Y-3.0690
G01 X-6.5039 Y-3.0642
G01 X-6.4059 Y-3.0690
G01 X-6.3089 Y-3.0834
G01 X-6.2137 Y-3.1072
G01 X-6.1213 Y-3.1403
G01 X-6.0326 Y-3.1822
G01 X-5.9485 Y-3.2327
G01 X-5.8696 Y-3.2911
G01 X-5.7969 Y-3.3570
G01 X-5.7310 Y-3.4297
G01 X-5.6726 Y-3.5085
G01 X-5.6222 Y-3.5927
G01 X-5.5802 Y-3.6814
G01 X-5.5472 Y-3.7738
G01 X-5.5233 Y-3.8689
G01 X-5.5089 Y-3.9660
G01 X-5.5041 Y-4.0640
G01 X-5.7444 Y-4.0640
G01 X-5.7480 Y-4.1384
G01 X-5.7590 Y-4.2122
G01 X-5.7771 Y-4.2845
G01 X-5.8022 Y-4.3547
G01 X-5.8341 Y-4.4220
G01 X-5.8724 Y-4.4860
G01 X-5.9168 Y-4.5458
G01 X-5.9669 Y-4.6011
G01 X-6.0221 Y-4.6511
G01 X-6.0819 Y-4.6955
G01 X-6.1459 Y-4.7338
G01 X-6.2133 Y-4.7657
G01 X-6.2834 Y-4.7908
G01 X-6.3557 Y-4.8089
G01 X-6.4295 Y-4.8199
G01 X-6.5039 Y-4.8235
G01 X-6.5784 Y-4.8199
G01 X-6.6521 Y-4.8089
G01 X-6.7244 Y-4.7908
G01 X-6.7946 Y-4.7657
G01 X-6.8620 Y-4.7338
G01 X-6.9259 Y-4.6955
G01 X-6.9858 Y-4.6511
G01 X-7.0410 Y-4.6011
G01 X-7.0910 Y-4.5458
G01 X-7.1354 Y-4.4860
G01 X-7.1738 Y-4.4220
G01 X-7.2056 Y-4.3547
G01 X-7.2307 Y-4.2845
G01 X-7.2489 Y-4.2122
G01 X-7.2598 Y-4.1384
G01 X-7.2634 Y-4.0640
G01 X-7.2598 Y-3.9896
G01 X-7.2489 Y-3.9158
G01 X-7.2307 Y-3.8435
G01 X-7.2056 Y-3.7733
G01 X-7.1738 Y-3.7060
G01 X-7.1354 Y-3.6420
G01 X-7.0910 Y-3.5822
G01 X-7.0410 Y-3.5269
G01 X-6.9858 Y-3.4769
G01 X-6.9259 Y-3.4325
G01 X-6.8620 Y-3.3942
G01 X-6.7946 Y-3.3623
G01 X-6.7244 Y-3.3372
G01 X-6.6521 Y-3.3191
G01 X-6.5784 Y-3.3081
G01 X-6.5039 Y-3.3045
G01 X-6.4295 Y-3.3081
G01 X-6.3557 Y-3.3191
G01 X-6.2834 Y-3.3372
G01 X-6.2133 Y-3.3623
G01 X-6.1459 Y-3.3942
G01 X-6.0819 Y-3.4325
G01 X-6.0221 Y-3.4769
G01 X-5.9669 Y-3.5269
G01 X-5.9168 Y-3.5822
G01 X-5.8724 Y-3.6420
G01 X-5.8341 Y-3.7060
G01 X-5.8022 Y-3.7733
G01 X-5.7771 Y-3.8435
G01 X-5.7590 Y-3.9158
G01 X-5.7480 Y-3.9896
G01 X-5.7444 Y-4.0640
G01 X-5.9847 Y-4.0640
G01 X-5.9872 Y-4.1149
G01 X-5.9947 Y-4.1653
G01 X-6.0070 Y-4.2147
G01 X-6.0242 Y-4.2627
G01 X-6.0460 Y-4.3088
G01 X-6.0722 Y-4.3525
G01 X-6.1025 Y-4.3934
G01 X-6.1368 Y-4.4312
G01 X-6.1745 Y-4.4654
G01 X-6.2154 Y-4.4957
G01 X-6.2592 Y-4.5219
G01 X-6.3052 Y-4.5437
G01 X-6.3532 Y-4.5609
G01 X-6.4026 Y-4.5733
G01 X-6.4530 Y-4.5807
G01 X-6.5039 Y-4.5832
G01 X-6.5548 Y-4.5807
G01 X-6.6052 Y-4.5733
G01 X-6.6546 Y-4.5609
G01 X-6.7026 Y-4.5437
G01 X-6.7487 Y-4.5219
G01 X-6.7924 Y-4.4957
G01 X-6.8333 Y-4.4654
G01 X-6.8711 Y-4.4312
G01 X-6.9053 Y-4.3934
G01 X-6.9357 Y-4.3525
G01 X-6.9618 Y-4.3088
G01 X-6.9836 Y-4.2627
G01 X-7.0008 Y-4.2147
G01 X-7.0132 Y-4.1653
G01 X-7.0207 Y-4.1149
G01 X-7.0232 Y-4.0640
G01 X-7.0207 Y-4.0131
G01 X-7.0132 Y-3.9627
G01 X-7.0008 Y-3.9133
G01 X-6.9836 Y-3.8653
G01 X-6.9618 Y-3.8192
G01 X-6.9357 Y-3.7755
G01 X-6.9053 Y-3.7346
G01 X-6.8711 Y-3.6968
G01 X-6.8333 Y-3.6626
G01 X-6.7924 Y-3.6323
G01 X-6.7487 Y-3.6061
G01 X-6.7026 Y-3.5843
G01 X-6.6546 Y-3.5671
G01 X-6.6052 Y-3.5547
G01 X-6.5548 Y-3.5473
G01 X-6.5039 Y-3.5448
G01 X-6.4530 Y-3.5473
G01 X-6.4026 Y-3.5547
G01 X-6.3532 Y-3.5671
G01 X-6.3052 Y-3.5843
G01 X-6.2592 Y-3.6061
G01 X-6.2154 Y-3.6323
G01 X-6.1745 Y-3.6626
G01 X-6.1368 Y-3.6968
G01 X-6.1025 Y-3.7346
G01 X-6.0722 Y-3.7755
G01 X-6.0460 Y-3.8192
G01 X-6.0242 Y-3.8653
G01 X-6.0070 Y-3.9133
G01 X-5.9947 Y-3.9627
G01 X-5.9872 Y-4.0131
G01 X-5.9847 Y-4.0640
G01 X-6.2250 Y-4.0640
G01 X-6.2263 Y-4.0913
G01 X-6.2303 Y-4.1184
G01 X-6.2370 Y-4.1450
G01 X-6.2462 Y-4.1707
G01 X-6.2579 Y-4.1955
G01 X-6.2720 Y-4.2190
G01 X-6.2883 Y-4.2410
G01 X-6.3067 Y-4.2612
G01 X-6.3270 Y-4.2796
G01 X-6.3489 Y-4.2959
G01 X-6.3724 Y-4.3100
G01 X-6.3972 Y-4.3217
G01 X-6.4229 Y-4.3309
G01 X-6.4495 Y-4.3376
G01 X-6.4766 Y-4.3416
G01 X-6.5039 Y-4.3430
G01 X-6.5313 Y-4.3416
G01 X-6.5583 Y-4.3376
G01 X-6.5849 Y-4.3309
G01 X-6.6107 Y-4.3217
G01 X-6.6354 Y-4.3100
G01 X-6.6589 Y-4.2959
G01 X-6.6809 Y-4.2796
G01 X-6.7012 Y-4.2612
G01 X-6.7196 Y-4.2410
G01 X-6.7359 Y-4.2190
G01 X-6.7499 Y-4.1955
G01 X-6.7616 Y-4.1707
G01 X-6.7709 Y-4.1450
G01 X-6.7775 Y-4.1184
G01 X-6.7815 Y-4.0913
G01 X-6.7829 Y-4.0640
G01 X-6.7815 Y-4.0367
G01 X-6.7775 Y-4.0096
G01 X-6.7709 Y-3.9830
G01 X-6.7616 Y-3.9573
G01 X-6.7499 Y-3.9325
G01 X-6.7359 Y-3.9090
G01 X-6.7196 Y-3.8870
G01 X-6.7012 Y-3.8668
G01 X-6.6809 Y-3.8484
G01 X-6.6589 Y-3.8321
G01 X-6.6354 Y-3.8180
G01 X-6.6107 Y-3.8063
G01 X-6.5849 Y-3.7971
G01 X-6.5583 Y-3.7904
G01 X-6.5313 Y-3.7864
G01 X-6.5039 Y-3.7850
G01 X-6.4766 Y-3.7864
G01 X-6.4495 Y-3.7904
G01 X-6.4229 Y-3.7971
G01 X-6.3972 Y-3.8063
G01 X-6.3724 Y-3.8180
G01 X-6.3489 Y-3.8321
G01 X-6.3270 Y-3.8484
G01 X-6.3067 Y-3.8668
G01 X-6.2883 Y-3.8870
G01 X-6.2720 Y-3.9090
G01 X-6.2579 Y-3.9325
G01 X-6.2462 Y-3.9573
G01 X-6.2370 Y-3.9830
G01 X-6.2303 Y-4.0096
G01 X-6.2263 Y-4.0367
G01 X-6.2250 Y-4.0640
G01 X-6.4653 Y-4.0640
G01 X-6.4660 Y-4.0715
G01 X-6.4682 Y-4.0788
G01 X-6.4718 Y-4.0855
G01 X-6.4766 Y-4.0913
G01 X-6.4794 Y-4.0939
G01 X-6.4857 Y-4.0981
G01 X-6.4927 Y-4.1010
G01 X-6.5001 Y-4.1025
G01 X-6.5077 Y-4.1025
G01 X-6.5151 Y-4.1010
G01 X-6.5221 Y-4.0981
G01 X-6.5284 Y-4.0939
G01 X-6.5338 Y-4.0885
G01 X-6.5361 Y-4.0855
G01 X-6.5396 Y-4.0788
G01 X-6.5418 Y-4.0715
G01 X-6.5426 Y-4.0640
G01 X-6.5418 Y-4.0565
G01 X-6.5396 Y-4.0492
G01 X-6.5361 Y-4.0425
G01 X-6.5313 Y-4.0367
G01 X-6.5254 Y-4.0319
G01 X-6.5187 Y-4.0283
G01 X-6.5115 Y-4.0261
G01 X-6.5039 Y-4.0253
G01 X-6.4964 Y-4.0261
G01 X-6.4891 Y-4.0283
G01 X-6.4824 Y-4.0319
G01 X-6.4766 Y-4.0367
G01 X-6.4718 Y-4.0425
G01 X-6.4682 Y-4.0492
G01 X-6.4660 Y-4.0565
G01 X-6.4653 Y-4.0640
G00 Z1.0000
G00 X-5.4574 Y-1.2700
G01 F25.00
G01 Z-0.0011
G01 F120.00
G01 X-5.4581 Y-1.2572
G01 X-5.4600 Y-1.2445
G01 X-5.4631 Y-1.2321
G01 X-5.4674 Y-1.2200
G01 X-5.4729 Y-1.2085
G01 X-5.4795 Y-1.1975
G01 X-5.4871 Y-1.1872
G01 X-5.4957 Y-1.1777
G01 X-5.5052 Y-1.1691
G01 X-5.5155 Y-1.1615
G01 X-5.5265 Y-1.1549
G01 X-5.5380 Y-1.1494
G01 X-5.5501 Y-1.1451
G01 X-5.5625 Y-1.1420
G01 X-5.5752 Y-1.1401
G01 X-5.5880 Y-1.1394
G01 X-5.6008 Y-1.1401
G01 X-5.6135 Y-1.1420
G01 X-5.6259 Y-1.1451
G01 X-5.6380 Y-1.1494
G01 X-5.6495 Y-1.1549
G01 X-5.6605 Y-1.1615
G01 X-5.6708 Y-1.1691
G01 X-5.6803 Y-1.1777
G01 X-5.6889 Y-1.1872
G01 X-5.6965 Y-1.1975
G01 X-5.7031 Y-1.2085
G01 X-5.7086 Y-1.2200
G01 X-5.7129 Y-1.2321
G01 X-5.7160 Y-1.2445
G01 X-5.7179 Y-1.2572
G01 X-5.7186 Y-1.2700
G01 X-5.7179 Y-1.2828
G01 X-5.7160 Y-1.2955
G01 X-5.7129 Y-1.3079
G01 X-5.7086 Y-1.3200
G01 X-5.7031 Y-1.3315
G01 X-5.6965 Y-1.3425
G01 X-5.6889 Y-1.3528
G01 X-5.6803 Y-1.3623
G01 X-5.6708 Y-1.3709
G01 X-5.6605 Y-1.3785
G01 X-5.6495 Y-1.3851
G01 X-5.6380 Y-1.3906
G01 X-5.6259 Y-1.3949
G01 X-5.6135 Y-1.3980
G01 X-5.6008 Y-1.3999
G01 X-5.5880 Y-1.4006
G01 X-5.5752 Y-1.3999
G01 X-5.5625 Y-1.3980
G01 X-5.5501 Y-1.3949
G01 X-5.5380 Y-1.3906
G01 X-5.5265 Y-1.3851
G01 X-5.5155 Y-1.3785
G01 X-5.5052 Y-1.3709
G01 X-5.4957 Y-1.3623
G01 X-5.4871 Y-1.3528
G01 X-5.4795 Y-1.3425
G01 X-5.4729 Y-1.3315
G01 X-5.4674 Y-1.3200
G01 X-5.4631 Y-1.3079
G01 X-5.4600 Y-1.2955
G01 X-5.4581 Y-1.2828
G01 X-5.4574 Y-1.2700
G01 X-5.2172 Y-1.2700
G01 X-5.2189 Y-1.2337
G01 X-5.2243 Y-1.1977
G01 X-5.2331 Y-1.1624
G01 X-5.2454 Y-1.1281
G01 X-5.2609 Y-1.0952
G01 X-5.2797 Y-1.0640
G01 X-5.3013 Y-1.0347
G01 X-5.3258 Y-1.0078
G01 X-5.3527 Y-0.9833
G01 X-5.3820 Y-0.9617
G01 X-5.4132 Y-0.9429
G01 X-5.4461 Y-0.9274
G01 X-5.4804 Y-0.9151
G01 X-5.5157 Y-0.9063
G01 X-5.5517 Y-0.9009
G01 X-5.5880 Y-0.8992
G01 X-5.6243 Y-0.9009
G01 X-5.6603 Y-0.9063
G01 X-5.6956 Y-0.9151
G01 X-5.7299 Y-0.9274
G01 X-5.7628 Y-0.9429
G01 X-5.7940 Y-0.9617
G01 X-5.8233 Y-0.9833
G01 X-5.8502 Y-1.0078
G01 X-5.8747 Y-1.0347
G01 X-5.8963 Y-1.0640
G01 X-5.9151 Y-1.0952
G01 X-5.9306 Y-1.1281
G01 X-5.9429 Y-1.1624
G01 X-5.9517 Y-1.1977
G01 X-5.9571 Y-1.2337
G01 X-5.9588 Y-1.2700
G01 X-5.9571 Y-1.3063
G01 X-5.9517 Y-1.3423
G01 X-5.9429 Y-1.3776
G01 X-5.9306 Y-1.4119
G01 X-5.9151 Y-1.4448
G01 X-5.8963 Y-1.4760
G01 X-5.8747 Y-1.5053
G01 X-5.8502 Y-1.5322
G01 X-5.8233 Y-1.5567
G01 X-5.7940 Y-1.5783
G01 X-5.7628 Y-1.5971
G01 X-5.7299 Y-1.6126
G01 X-5.6956 Y-1.6249
G01 X-5.6603 Y-1.6337
G01 X-5.6243 Y-1.6391
G01 X-5.5880 Y-1.6408
G01 X-5.5517 Y-1.6391
G01 X-5.5157 Y-1.6337
G01 X-5.4804 Y-1.6249
G01 X-5.4461 Y-1.6126
G01 X-5.4132 Y-1.5971
G01 X-5.3820 Y-1.5783
G01 X-5.3527 Y-1.5567
G01 X-5.3258 Y-1.5322
G01 X-5.3013 Y-1.5053
G01 X-5.2797 Y-1.4760
G01 X-5.2609 Y-1.4448
G01 X-5.2454 Y-1.4119
G01 X-5.2331 Y-1.3776
G01 X-5.2243 Y-1.3423
G01 X-5.2189 Y-1.3063
G01 X-5.2172 Y-1.2700
G01 X-4.9769 Y-1.2700
G01 X-4.9798 Y-1.2101
G01 X-4.9886 Y-1.1508
G01 X-5.0032 Y-1.0926
G01 X-5.0234 Y-1.0361
G01 X-5.0490 Y-0.9819
G01 X-5.0799 Y-0.9305
G01 X-5.1156 Y-0.8823
G01 X-5.1559 Y-0.8379
G01 X-5.2003 Y-0.7976
G01 X-5.2485 Y-0.7619
G01 X-5.2999 Y-0.7310
G01 X-5.3541 Y-0.7054
G01 X-5.4106 Y-0.6852
G01 X-5.4688 Y-0.6706
G01 X-5.5281 Y-0.6618
G01 X-5.5880 Y-0.6589
G01 X-5.6479 Y-0.6618
G01 X-5.7072 Y-0.6706
G01 X-5.7654 Y-0.6852
G01 X-5.8219 Y-0.7054
G01 X-5.8761 Y-0.7310
G01 X-5.9275 Y-0.7619
G01 X-5.9757 Y-0.7976
G01 X-6.0201 Y-0.8379
G01 X-6.0604 Y-0.8823
G01 X-6.0961 Y-0.9305
G01 X-6.1270 Y-0.9819
G01 X-6.1526 Y-1.0361
G01 X-6.1728 Y-1.0926
G01 X-6.1874 Y-1.1508
G01 X-6.1962 Y-1.2101
G01 X-6.1991 Y-1.2700
G01 X-6.1962 Y-1.3299
G01 X-6.1874 Y-1.3892
G01 X-6.1728 Y-1.4474
G01 X-6.1526 Y-1.5039
G01 X-6.1270 Y-1.5581
G01 X-6.0961 Y-1.6095
G01 X-6.0604 Y-1.6577
G01 X-6.0201 Y-1.7021
G01 X-5.9757 Y-1.7424
G01 X-5.9275 Y-1.7781
G01 X-5.8761 Y-1.8090
G01 X-5.8219 Y-1.8346
G01 X-5.7654 Y-1.8548
G01 X-5.7072 Y-1.8694
G01 X-5.6479 Y-1.8782
G01 X-5.5880 Y-1.8811
G01 X-5.5281 Y-1.8782
G01 X-5.4688 Y-1.8694
G01 X-5.4106 Y-1.8548
G01 X-5.3541 Y-1.8346
G01 X-5.2999 Y-1.8090
G01 X-5.2485 Y-1.7781
G01 X-5.2003 Y-1.7424
G01 X-5.1559 Y-1.7021
G01 X-5.1156 Y-1.6577
G01 X-5.0799 Y-1.6095
G01 X-5.0490 Y-1.5581
G01 X-5.0234 Y-1.5039
G01 X-5.0032 Y-1.4474
G01 X-4.9886 Y-1.3892
G01 X-4.9798 Y-1.3299
G01 X-4.9769 Y-1.2700
G01 X-4.7366 Y-1.2700
G01 X-4.7407 Y-1.1865
G01 X-4.7529 Y-1.1039
G01 X-4.7732 Y-1.0228
G01 X-4.8014 Y-0.9442
G01 X-4.8371 Y-0.8686
G01 X-4.8801 Y-0.7970
G01 X-4.9298 Y-0.7299
G01 X-4.9860 Y-0.6680
G01 X-5.0479 Y-0.6118
G01 X-5.1150 Y-0.5621
G01 X-5.1866 Y-0.5191
G01 X-5.2622 Y-0.4834
G01 X-5.3408 Y-0.4552
G01 X-5.4219 Y-0.4349
G01 X-5.5045 Y-0.4227
G01 X-5.5880 Y-0.4186
G01 X-5.6715 Y-0.4227
G01 X-5.7541 Y-0.4349
G01 X-5.8352 Y-0.4552
G01 X-5.9138 Y-0.4834
G01 X-5.9894 Y-0.5191
G01 X-6.0610 Y-0.5621
G01 X-6.1281 Y-0.6118
G01 X-6.1900 Y-0.6680
G01 X-6.2462 Y-0.7299
G01 X-6.2959 Y-0.7970
G01 X-6.3389 Y-0.8686
G01 X-6.3746 Y-0.9442
G01 X-6.4028 Y-1.0228
G01 X-6.4231 Y-1.1039
G01 X-6.4353 Y-1.1865
G01 X-6.4394 Y-1.2700
G01 X-6.4353 Y-1.3535
G01 X-6.4231 Y-1.4361
G01 X-6.4028 Y-1.5172
G01 X-6.3746 Y-1.5958
G01 X-6.3389 Y-1.6714
G01 X-6.2959 Y-1.7430
G01 X-6.2462 Y-1.8101
G01 X-6.1900 Y-1.8720
G01 X-6.1281 Y-1.9282
G01 X-6.0610 Y-1.9779
G01 X-5.9894 Y-2.0209
G01 X-5.9138 Y-2.0566
G01 X-5.8352 Y-2.0848
G01 X-5.7541 Y-2.1051
G01 X-5.6715 Y-2.1173
G01 X-5.5880 Y-2.1214
G01 X-5.5045 Y-2.1173
G01 X-5.4219 Y-2.1051
G01 X-5.3408 Y-2.0848
G01 X-5.2622 Y-2.0566
G01 X-5.1866 Y-2.0209
G01 X-5.1150 Y-1.9779
G01 X-5.0479 Y-1.9282
G01 X-4.9860 Y-1.8720
G01 X-4.9298 Y-1.8101
G01 X-4.8801 Y-1.7430
G01 X-4.8371 Y-1.6714
G01 X-4.8014 Y-1.5958
G01 X-4.7732 Y-1.5172
G01 X-4.7529 Y-1.4361
G01 X-4.7407 Y-1.3535
G01 X-4.7366 Y-1.2700
G00 Z1.0000
G00 X-5.4574 Y0.8890
G01 F25.00
G01 Z-0.0011
G01 F120.00
G01 X-5.4581 Y0.9018
G01 X-5.4600 Y0.9145
G01 X-5.4631 Y0.9269
G01 X-5.4674 Y0.9390
G01 X-5.4729 Y0.9505
G01 X-5.4795 Y0.9615
G01 X-5.4871 Y0.9718
G01 X-5.4957 Y0.9813
G01 X-5.5052 Y0.9899
G01 X-5.5155 Y0.9975
G01 X-5.5265 Y1.0041
G01 X-5.5380 Y1.0096
G01 X-5.5501 Y1.0139
G01 X-5.5625 Y1.0170
G01 X-5.5752 Y1.0189
G01 X-5.5880 Y1.0196
G01 X-5.6008 Y1.0189
G01 X-5.6135 Y1.0170
G01 X-5.6259 Y1.0139
G01 X-5.6380 Y1.0096
G01 X-5.6495 Y1.0041
G01 X-5.6605 Y0.9975
G01 X-5.6708 Y0.9899
G01 X-5.6803 Y0.9813
G01 X-5.6889 Y0.9718
G01 X-5.6965 Y0.9615
G01 X-5.7031 Y0.9505
G01 X-5.7086 Y0.9390
G01 X-5.7129 Y0.9269
G01 X-5.7160 Y0.9145
G01 X-5.7179 Y0.9018
G01 X-5.7186 Y0.8890
G01 X-5.7179 Y0.8762
G01 X-5.7160 Y0.8635
G01 X-5.7129 Y0.8511
G01 X-5.7086 Y0.8390
G01 X-5.7031 Y0.8275
G01 X-5.6965 Y0.8165
G01 X-5.6889 Y0.8062
G01 X-5.6803 Y0.7967
G01 X-5.6708 Y0.7881
G01 X-5.6605 Y0.7805
G01 X-5.6495 Y0.7739
G01 X-5.6380 Y0.7684
G01 X-5.6259 Y0.7641
G01 X-5.6135 Y0.7610
G01 X-5.6008 Y0.7591
G01 X-5.5880 Y0.7584
G01 X-5.5752 Y0.7591
G01 X-5.5625 Y0.7610
G01 X-5.5501 Y0.7641
G01 X-5.5380 Y0.7684
G01 X-5.5265 Y0.7739
G01 X-5.5155 Y0.7805
G01 X-5.5052 Y0.7881
G01 X-5.4957 Y0.7967
G01 X-5.4871 Y0.8062
G01 X-5.4795 Y0.8165
G01 X-5.4729 Y0.8275
G01 X-5.4674 Y0.8390
G01 X-5.4631 Y0.8511
G01 X-5.4600 Y0.8635
G01 X-5.4581 Y0.8762
G01 X-5.4574 Y0.8890
G01 X-5.2172 Y0.8890
G01 X-5.2189 Y0.9253
G01 X-5.2243 Y0.9613
G01 X-5.2331 Y0.9966
G01 X-5.2454 Y1.0309
G01 X-5.2609 Y1.0638
G01 X-5.2797 Y1.0950
G01 X-5.3013 Y1.1243
G01 X-5.3258 Y1.1512
G01 X-5.3527 Y1.1757
G01 X-5.3820 Y1.1973
G01 X-5.4132 Y1.2161
G01 X-5.4461 Y1.2316
G01 X-5.4804 Y1.2439
G01 X-5.5157 Y1.2527
G01 X-5.5517 Y1.2581
G01 X-5.5880 Y1.2598
G01 X-5.6243 Y1.2581
G01 X-5.6603 Y1.2527
G01 X-5.6956 Y1.2439
G01 X-5.7299 Y1.2316
G01 X-5.7628 Y1.2161
G01 X-5.7940 Y1.1973
G01 X-5.8233 Y1.1757
G01 X-5.8502 Y1.1512
G01 X-5.8747 Y1.1243
G01 X-5.8963 Y1.0950
G01 X-5.9151 Y1.0638
G01 X-5.9306 Y1.0309
G01 X-5.9429 Y0.9966
G01 X-5.9517 Y0.9613
G01 X-5.9571 Y0.9253
G01 X-5.9588 Y0.8890
G01 X-5.9571 Y0.8527
G01 X-5.9517 Y0.8167
G01 X-5.9429 Y0.7814
G01 X-5.9306 Y0.7471
G01 X-5.9151 Y0.7142
G01 X-5.8963 Y0.6830
G01 X-5.8747 Y0.6537
G01 X-5.8502 Y0.6268
G01 X-5.8233 Y0.6023
G01 X-5.7940 Y0.5807
G01 X-5.7628 Y0.5619
G01 X-5.7299 Y0.5464
G01 X-5.6956 Y0.5341
G01 X-5.6603 Y0.5253
G01 X-5.6243 Y0.5199
G01 X-5.5880 Y0.5182
G01 X-5.5517 Y0.5199
G01 X-5.5157 Y0.5253
G01 X-5.4804 Y0.5341
G01 X-5.4461 Y0.5464
G01 X-5.4132 Y0.5619
G01 X-5.3820 Y0.5807
G01 X-5.3527 Y0.6023
G01 X-5.3258 Y0.6268
G01 X-5.3013 Y0.6537
G01 X-5.2797 Y0.6830
G01 X-5.2609 Y0.7142
G01 X-5.2454 Y0.7471
G01 X-5.2331 Y0.7814
G01 X-5.2243 Y0.8167
G01 X-5.2189 Y0.8527
G01 X-5.2172 Y0.8890
G01 X-4.9769 Y0.8890
G01 X-4.9798 Y0.9489
G01 X-4.9886 Y1.0082
G01 X-5.0032 Y1.0664
G01 X-5.0234 Y1.1229
G01 X-5.0490 Y1.1771
G01 X-5.0799 Y1.2285
G01 X-5.1156 Y1.2767
G01 X-5.1559 Y1.3211
G01 X-5.2003 Y1.3614
G01 X-5.2485 Y1.3971
G01 X-5.2999 Y1.4280
G01 X-5.3541 Y1.4536
G01 X-5.4106 Y1.4738
G01 X-5.4688 Y1.4884
G01 X-5.5281 Y1.4972
G01 X-5.5880 Y1.5001
G01 X-5.6479 Y1.4972
G01 X-5.7072 Y1.4884
G01 X-5.7654 Y1.4738
G01 X-5.8219 Y1.4536
G01 X-5.8761 Y1.4280
G01 X-5.9275 Y1.3971
G01 X-5.9757 Y1.3614
G01 X-6.0201 Y1.3211
G01 X-6.0604 Y1.2767
G01 X-6.0961 Y1.2285
G01 X-6.1270 Y1.1771
G01 X-6.1526 Y1.1229
G01 X-6.1728 Y1.0664
G01 X-6.1874 Y1.0082
G01 X-6.1962 Y0.9489
G01 X-6.1991 Y0.8890
G01 X-6.1962 Y0.8291
G01 X-6.1874 Y0.7698
G01 X-6.1728 Y0.7116
G01 X-6.1526 Y0.6551
G01 X-6.1270 Y0.6009
G01 X-6.0961 Y0.5495
G01 X-6.0604 Y0.5013
G01 X-6.0201 Y0.4569
G01 X-5.9757 Y0.4166
G01 X-5.9275 Y0.3809
G01 X-5.8761 Y0.3500
G01 X-5.8219 Y0.3244
G01 X-5.7654 Y0.3042
G01 X-5.7072 Y0.2896
G01 X-5.6479 Y0.2808
G01 X-5.5880 Y0.2779
G01 X-5.5281 Y0.2808
G01 X-5.4688 Y0.2896
G01 X-5.4106 Y0.3042
G01 X-5.3541 Y0.3244
G01 X-5.2999 Y0.3500
G01 X-5.2485 Y0.3809
G01 X-5.2003 Y0.4166
G01 X-5.1559 Y0.4569
G01 X-5.1156 Y0.5013
G01 X-5.0799 Y0.5495
G01 X-5.0490 Y0.6009
G01 X-5.0234 Y0.6551
G01 X-5.0032 Y0.7116
G01 X-4.9886 Y0.7698
G01 X-4.9798 Y0.8291
G01 X-4.9769 Y0.8890
G01 X-4.7366 Y0.8890
G01 X-4.7407 Y0.9725
G01 X-4.7529 Y1.0551
G01 X-4.7732 Y1.1362
G01 X-4.8014 Y1.2148
G01 X-4.8371 Y1.2904
G01 X-4.8801 Y1.3620
G01 X-4.9298 Y1.4291
G01 X-4.9860 Y1.4910
G01 X-5.0479 Y1.5472
G01 X-5.1150 Y1.5969
G01 X-5.1866 Y1.6399
G01 X-5.2622 Y1.6756
G01 X-5.3408 Y1.7038
G01 X-5.4219 Y1.7241
G01 X-5.5045 Y1.7363
G01 X-5.5880 Y1.7404
G01 X-5.6715 Y1.7363
G01 X-5.7541 Y1.7241
G01 X-5.8352 Y1.7038
G01 X-5.9138 Y1.6756
G01 X-5.9894 Y1.6399
G01 X-6.0610 Y1.5969
G01 X-6.1281 Y1.5472
G01 X-6.1900 Y1.4910
G01 X-6.2462 Y1.4291
G01 X-6.2959 Y1.3620
G01 X-6.3389 Y1.2904
G01 X-6.3746 Y1.2148
G01 X-6.4028 Y1.1362
G01 X-6.4231 Y1.0551
G01 X-6.4353 Y0.9725
G01 X-6.4394 Y0.8890
G01 X-6.4353 Y0.8055
G01 X-6.4231 Y0.7229
G01 X-6.4028 Y0.6418
G01 X-6.3746 Y0.5632
G01 X-6.3389 Y0.4876
G01 X-6.2959 Y0.4160
G01 X-6.2462 Y0.3489
G01 X-6.1900 Y0.2870
G01 X-6.1281 Y0.2308
G01 X-6.0610 Y0.1811
G01 X-5.9894 Y0.1381
G01 X-5.9138 Y0.1024
G01 X-5.8352 Y0.0742
G01 X-5.7541 Y0.0539
G01 X-5.6715 Y0.0417
G01 X-5.5880 Y0.0376
G01 X-5.5045 Y0.0417
G01 X-5.4219 Y0.0539
G01 X-5.3408 Y0.0742
G01 X-5.2622 Y0.1024
G01 X-5.1866 Y0.1381
G01 X-5.1150 Y0.1811
G01 X-5.0479 Y0.2308
G01 X-4.9860 Y0.2870
G01 X-4.9298 Y0.3489
G01 X-4.8801 Y0.4160
G01 X-4.8371 Y0.4876
G01 X-4.8014 Y0.5632
G01 X-4.7732 Y0.6418
G01 X-4.7529 Y0.7229
G01 X-4.7407 Y0.8055
G01 X-4.7366 Y0.8890
G00 Z1.0000
G00 X-5.5041 Y3.8100
G01 F25.00
G01 Z-0.0011
G01 F120.00
G01 X-5.5089 Y3.7120
G01 X-5.5233 Y3.6149
G01 X-5.5472 Y3.5198
G01 X-5.5802 Y3.4274
G01 X-5.6222 Y3.3387
G01 X-5.6726 Y3.2545
G01 X-5.7310 Y3.1757
G01 X-5.7969 Y3.1030
G01 X-5.8696 Y3.0371
G01 X-5.9485 Y2.9787
G01 X-6.0326 Y2.9282
G01 X-6.1213 Y2.8863
G01 X-6.2137 Y2.8532
G01 X-6.3089 Y2.8294
G01 X-6.4059 Y2.8150
G01 X-6.5039 Y2.8102
G01 X-6.6019 Y2.8150
G01 X-6.6990 Y2.8294
G01 X-6.7942 Y2.8532
G01 X-6.8865 Y2.8863
G01 X-6.9752 Y2.9282
G01 X-7.0594 Y2.9787
G01 X-7.1382 Y3.0371
G01 X-7.2109 Y3.1030
G01 X-7.2768 Y3.1757
G01 X-7.3352 Y3.2545
G01 X-7.3857 Y3.3387
G01 X-7.4276 Y3.4274
G01 X-7.4607 Y3.5198
G01 X-7.4845 Y3.6149
G01 X-7.4989 Y3.7120
G01 X-7.5037 Y3.8100
G01 X-7.4989 Y3.9080
G01 X-7.4845 Y4.0051
G01 X-7.4607 Y4.1002
G01 X-7.4276 Y4.1926
G01 X-7.3857 Y4.2813
G01 X-7.3352 Y4.3655
G01 X-7.2768 Y4.4443
G01 X-7.2109 Y4.5170
G01 X-7.1382 Y4.5829
G01 X-7.0594 Y4.6413
G01 X-6.9752 Y4.6918
G01 X-6.8865 Y4.7337
G01 X-6.7942 Y4.7668
G01 X-6.6990 Y4.7906
G01 X-6.6019 Y4.8050
G01 X-6.5039 Y4.8098
G01 X-6.4059 Y4.8050
G01 X-6.3089 Y4.7906
G01 X-6.2137 Y4.7668
G01 X-6.1213 Y4.7337
G01 X-6.0326 Y4.6918
G01 X-5.9485 Y4.6413
G01 X-5.8696 Y4.5829
G01 X-5.7969 Y4.5170
G01 X-5.7310 Y4.4443
G01 X-5.6726 Y4.3655
G01 X-5.6222 Y4.2813
G01 X-5.5802 Y4.1926
G01 X-5.5472 Y4.1002
G01 X-5.5233 Y4.0051
G01 X-5.5089 Y3.9080
G01 X-5.5041 Y3.8100
G01 X-5.7444 Y3.8100
G01 X-5.7480 Y3.7356
G01 X-5.7590 Y3.6618
G01 X-5.7771 Y3.5895
G01 X-5.8022 Y3.5193
G01 X-5.8341 Y3.4520
G01 X-5.8724 Y3.3880
G01 X-5.9168 Y3.3282
G01 X-5.9669 Y3.2729
G01 X-6.0221 Y3.2229
G01 X-6.0819 Y3.1785
G01 X-6.1459 Y3.1402
G01 X-6.2133 Y3.1083
G01 X-6.2834 Y3.0832
G01 X-6.3557 Y3.0651
G01 X-6.4295 Y3.0541
G01 X-6.5039 Y3.0505
G01 X-6.5784 Y3.0541
G01 X-6.6521 Y3.0651
G01 X-6.7244 Y3.0832
G01 X-6.7946 Y3.1083
G01 X-6.8620 Y3.1402
G01 X-6.9259 Y3.1785
G01 X-6.9858 Y3.2229
G01 X-7.0410 Y3.2729
G01 X-7.0910 Y3.3282
G01 X-7.1354 Y3.3880
G01 X-7.1738 Y3.4520
G01 X-7.2056 Y3.5193
G01 X-7.2307 Y3.5895
G01 X-7.2489 Y3.6618
G01 X-7.2598 Y3.7356
G01 X-7.2634 Y3.8100
G01 X-7.2598 Y3.8844
G01 X-7.2489 Y3.9582
G01 X-7.2307 Y4.0305
G01 X-7.2056 Y4.1007
G01 X-7.1738 Y4.1680
G01 X-7.1354 Y4.2320
G01 X-7.0910 Y4.2918
G01 X-7.0410 Y4.3471
G01 X-6.9858 Y4.3971
G01 X-6.9259 Y4.4415
G01 X-6.8620 Y4.4798
G01 X-6.7946 Y4.5117
G01 X-6.7244 Y4.5368
G01 X-6.6521 Y4.5549
G01 X-6.5784 Y4.5659
G01 X-6.5039 Y4.5695
G01 X-6.4295 Y4.5659
G01 X-6.3557 Y4.5549
G01 X-6.2834 Y4.5368
G01 X-6.2133 Y4.5117
G01 X-6.1459 Y4.4798
G01 X-6.0819 Y4.4415
G01 X-6.0221 Y4.3971
G01 X-5.9669 Y4.3471
G01 X-5.9168 Y4.2918
G01 X-5.8724 Y4.2320
G01 X-5.8341 Y4.1680
G01 X-5.8022 Y4.1007
G01 X-5.7771 Y4.0305
G01 X-5.7590 Y3.9582
G01 X-5.7480 Y3.8844
G01 X-5.7444 Y3.8100
G01 X-5.9847 Y3.8100
G01 X-5.9872 Y3.7591
G01 X-5.9947 Y3.7087
G01 X-6.0070 Y3.6593
G01 X-6.0242 Y3.6113
G01 X-6.0460 Y3.5652
G01 X-6.0722 Y3.5215
G01 X-6.1025 Y3.4806
G01 X-6.1368 Y3.4428
G01 X-6.1745 Y3.4086
G01 X-6.2154 Y3.3783
G01 X-6.2592 Y3.3521
G01 X-6.3052 Y3.3303
G01 X-6.3532 Y3.3131
G01 X-6.4026 Y3.3007
G01 X-6.4530 Y3.2933
G01 X-6.5039 Y3.2908
G01 X-6.5548 Y3.2933
G01 X-6.6052 Y3.3007
G01 X-6.6546 Y3.3131
G01 X-6.7026 Y3.3303
G01 X-6.7487 Y3.3521
G01 X-6.7924 Y3.3783
G01 X-6.8333 Y3.4086
G01 X-6.8711 Y3.4428
G01 X-6.9053 Y3.4806
G01 X-6.9357 Y3.5215
G01 X-6.9618 Y3.5652
G01 X-6.9836 Y3.6113
G01 X-7.0008 Y3.6593
G01 X-7.0132 Y3.7087
G01 X-7.0207 Y3.7591
G01 X-7.0232 Y3.8100
G01 X-7.0207 Y3.8609
G01 X-7.0132 Y3.9113
G01 X-7.0008 Y3.9607
G01 X-6.9836 Y4.0087
G01 X-6.9618 Y4.0548
G01 X-6.9357 Y4.0985
G01 X-6.9053 Y4.1394
G01 X-6.8711 Y4.1772
G01 X-6.8333 Y4.2114
G01 X-6.7924 Y4.2417
G01 X-6.7487 Y4.2679
G01 X-6.7026 Y4.2897
G01 X-6.6546 Y4.3069
G01 X-6.6052 Y4.3193
G01 X-6.5548 Y4.3267
G01 X-6.5039 Y4.3292
G01 X-6.4530 Y4.3267
G01 X-6.4026 Y4.3193
G01 X-6.3532 Y4.3069
G01 X-6.3052 Y4.2897
G01 X-6.2592 Y4.2679
G01 X-6.2154 Y4.2417
G01 X-6.1745 Y4.2114
G01 X-6.1368 Y4.1772
G01 X-6.1025 Y4.1394
G01 X-6.0722 Y4.0985
G01 X-6.0460 Y4.0548
G01 X-6.0242 Y4.0087
G01 X-6.0070 Y3.9607
G01 X-5.9947 Y3.9113
G01 X-5.9872 Y3.8609
G01 X-5.9847 Y3.8100
G01 X-6.2250 Y3.8100
G01 X-6.2263 Y3.7827
G01 X-6.2303 Y3.7556
G01 X-6.2370 Y3.7290
G01 X-6.2462 Y3.7033
G01 X-6.2579 Y3.6785
G01 X-6.2720 Y3.6550
G01 X-6.2883 Y3.6330
G01 X-6.3067 Y3.6128
G01 X-6.3270 Y3.5944
G01 X-6.3489 Y3.5781
G01 X-6.3724 Y3.5640
G01 X-6.3972 Y3.5523
G01 X-6.4229 Y3.5431
G01 X-6.4495 Y3.5364
G01 X-6.4766 Y3.5324
G01 X-6.5039 Y3.5310
G01 X-6.5313 Y3.5324
G01 X-6.5583 Y3.5364
G01 X-6.5849 Y3.5431
G01 X-6.6107 Y3.5523
G01 X-6.6354 Y3.5640
G01 X-6.6589 Y3.5781
G01 X-6.6809 Y3.5944
G01 X-6.7012 Y3.6128
G01 X-6.7196 Y3.6330
G01 X-6.7359 Y3.6550
G01 X-6.7499 Y3.6785
G01 X-6.7616 Y3.7033
G01 X-6.7709 Y3.7290
G01 X-6.7775 Y3.7556
G01 X-6.7815 Y3.7827
G01 X-6.7829 Y3.8100
G01 X-6.7815 Y3.8373
G01 X-6.7775 Y3.8644
G01 X-6.7709 Y3.8910
G01 X-6.7616 Y3.9167
G01 X-6.7499 Y3.9415
G01 X-6.7359 Y3.9650
G01 X-6.7196 Y3.9870
G01 X-6.7012 Y4.0072
G01 X-6.6809 Y4.0256
G01 X-6.6589 Y4.0419
G01 X-6.6354 Y4.0560
G01 X-6.6107 Y4.0677
G01 X-6.5849 Y4.0769
G01 X-6.5583 Y4.0836
G01 X-6.5313 Y4.0876
G01 X-6.5039 Y4.0890
G01 X-6.4766 Y4.0876
G01 X-6.4495 Y4.0836
G01 X-6.4229 Y4.0769
G01 X-6.3972 Y4.0677
G01 X-6.3724 Y4.0560
G01 X-6.3489 Y4.0419
G01 X-6.3270 Y4.0256
G01 X-6.3067 Y4.0072
G01 X-6.2883 Y3.9870
G01 X-6.2720 Y3.9650
G01 X-6.2579 Y3.9415
G01 X-6.2462 Y3.9167
G01 X-6.2370 Y3.8910
G01 X-6.2303 Y3.8644
G01 X-6.2263 Y3.8373
G01 X-6.2250 Y3.8100
G01 X-6.4653 Y3.8100
G01 X-6.4660 Y3.8025
G01 X-6.4682 Y3.7952
G01 X-6.4718 Y3.7885
G01 X-6.4766 Y3.7827
G01 X-6.4794 Y3.7801
G01 X-6.4857 Y3.7759
G01 X-6.4927 Y3.7730
G01 X-6.5001 Y3.7715
G01 X-6.5077 Y3.7715
G01 X-6.5115 Y3.7721
G01 X-6.5187 Y3.7743
G01 X-6.5254 Y3.7779
G01 X-6.5313 Y3.7827
G01 X-6.5361 Y3.7885
G01 X-6.5396 Y3.7952
G01 X-6.5418 Y3.8025
G01 X-6.5426 Y3.8100
G01 X-6.5418 Y3.8175
G01 X-6.5396 Y3.8248
G01 X-6.5361 Y3.8315
G01 X-6.5313 Y3.8373
G01 X-6.5254 Y3.8421
G01 X-6.5187 Y3.8457
G01 X-6.5115 Y3.8479
G01 X-6.5039 Y3.8487
G01 X-6.4964 Y3.8479
G01 X-6.4891 Y3.8457
G01 X-6.4824 Y3.8421
G01 X-6.4766 Y3.8373
G01 X-6.4718 Y3.8315
G01 X-6.4682 Y3.8248
G01 X-6.4660 Y3.8175
G01 X-6.4653 Y3.8100
G00 Z1.0000
G00 X-3.9654 Y3.8100
G01 F25.00
G01 Z-0.0011
G01 F120.00
G01 X-3.9661 Y3.8175
G01 X-3.9683 Y3.8248
G01 X-3.9719 Y3.8315
G01 X-3.9767 Y3.8373
G01 X-3.9826 Y3.8421
G01 X-3.9893 Y3.8457
G01 X-3.9965 Y3.8479
G01 X-4.0041 Y3.8487
G01 X-4.0116 Y3.8479
G01 X-4.0188 Y3.8457
G01 X-4.0255 Y3.8421
G01 X-4.0314 Y3.8373
G01 X-4.0362 Y3.8315
G01 X-4.0398 Y3.8248
G01 X-4.0420 Y3.8175
G01 X-4.0427 Y3.8100
G01 X-4.0420 Y3.8025
G01 X-4.0398 Y3.7952
G01 X-4.0362 Y3.7885
G01 X-4.0314 Y3.7827
G01 X-4.0255 Y3.7779
G01 X-4.0223 Y3.7759
G01 X-4.0153 Y3.7730
G01 X-4.0078 Y3.7715
G01 X-4.0003 Y3.7715
G01 X-3.9928 Y3.7730
G01 X-3.9858 Y3.7759
G01 X-3.9795 Y3.7801
G01 X-3.9767 Y3.7827
G01 X-3.9719 Y3.7885
G01 X-3.9683 Y3.7952
G01 X-3.9661 Y3.8025
G01 X-3.9654 Y3.8100
G01 X-3.7251 Y3.8100
G01 X-3.7264 Y3.8373
G01 X-3.7305 Y3.8644
G01 X-3.7371 Y3.8910
G01 X-3.7463 Y3.9167
G01 X-3.7580 Y3.9415
G01 X-3.7721 Y3.9650
G01 X-3.7884 Y3.9870
G01 X-3.8068 Y4.0072
G01 X-3.8271 Y4.0256
G01 X-3.8491 Y4.0419
G01 X-3.8726 Y4.0560
G01 X-3.8973 Y4.0677
G01 X-3.9231 Y4.0769
G01 X-3.9496 Y4.0836
G01 X-3.9767 Y4.0876
G01 X-4.0041 Y4.0890
G01 X-4.0314 Y4.0876
G01 X-4.0585 Y4.0836
G01 X-4.0850 Y4.0769
G01 X-4.1108 Y4.0677
G01 X-4.1355 Y4.0560
G01 X-4.1590 Y4.0419
G01 X-4.1810 Y4.0256
G01 X-4.2013 Y4.0072
G01 X-4.2197 Y3.9870
G01 X-4.2360 Y3.9650
G01 X-4.2501 Y3.9415
G01 X-4.2618 Y3.9167
G01 X-4.2710 Y3.8910
G01 X-4.2776 Y3.8644
G01 X-4.2817 Y3.8373
G01 X-4.2830 Y3.8100
G01 X-4.2817 Y3.7827
G01 X-4.2776 Y3.7556
G01 X-4.2710 Y3.7290
G01 X-4.2618 Y3.7033
G01 X-4.2501 Y3.6785
G01 X-4.2360 Y3.6550
G01 X-4.2197 Y3.6330
G01 X-4.2013 Y3.6128
G01 X-4.1810 Y3.5944
G01 X-4.1590 Y3.5781
G01 X-4.1355 Y3.5640
G01 X-4.1108 Y3.5523
G01 X-4.0850 Y3.5431
G01 X-4.0585 Y3.5364
G01 X-4.0314 Y3.5324
G01 X-4.0040 Y3.5310
G01 X-3.9767 Y3.5324
G01 X-3.9496 Y3.5364
G01 X-3.9231 Y3.5431
G01 X-3.8973 Y3.5523
G01 X-3.8726 Y3.5640
G01 X-3.8491 Y3.5781
G01 X-3.8271 Y3.5944
G01 X-3.8068 Y3.6128
G01 X-3.7884 Y3.6330
G01 X-3.7721 Y3.6550
G01 X-3.7580 Y3.6785
G01 X-3.7463 Y3.7033
G01 X-3.7371 Y3.7290
G01 X-3.7305 Y3.7556
G01 X-3.7264 Y3.7827
G01 X-3.7251 Y3.8100
G01 X-3.4848 Y3.8100
G01 X-3.4873 Y3.8609
G01 X-3.4948 Y3.9113
G01 X-3.5072 Y3.9607
G01 X-3.5243 Y4.0087
G01 X-3.5461 Y4.0548
G01 X-3.5723 Y4.0985
G01 X-3.6027 Y4.1394
G01 X-3.6369 Y4.1772
G01 X-3.6746 Y4.2114
G01 X-3.7156 Y4.2417
G01 X-3.7593 Y4.2679
G01 X-3.8053 Y4.2897
G01 X-3.8533 Y4.3069
G01 X-3.9028 Y4.3193
G01 X-3.9532 Y4.3267
G01 X-4.0041 Y4.3292
G01 X-4.0549 Y4.3267
G01 X-4.1053 Y4.3193
G01 X-4.1548 Y4.3069
G01 X-4.2028 Y4.2897
G01 X-4.2488 Y4.2679
G01 X-4.2925 Y4.2417
G01 X-4.3335 Y4.2114
G01 X-4.3712 Y4.1772
G01 X-4.4054 Y4.1394
G01 X-4.4358 Y4.0985
G01 X-4.4620 Y4.0548
G01 X-4.4838 Y4.0087
G01 X-4.5009 Y3.9607
G01 X-4.5133 Y3.9113
G01 X-4.5208 Y3.8609
G01 X-4.5233 Y3.8100
G01 X-4.5208 Y3.7591
G01 X-4.5133 Y3.7087
G01 X-4.5009 Y3.6593
G01 X-4.4838 Y3.6113
G01 X-4.4620 Y3.5652
G01 X-4.4358 Y3.5215
G01 X-4.4054 Y3.4806
G01 X-4.3712 Y3.4428
G01 X-4.3335 Y3.4086
G01 X-4.2925 Y3.3783
G01 X-4.2488 Y3.3521
G01 X-4.2028 Y3.3303
G01 X-4.1548 Y3.3131
G01 X-4.1053 Y3.3007
G01 X-4.0549 Y3.2933
G01 X-4.0040 Y3.2908
G01 X-3.9532 Y3.2933
G01 X-3.9028 Y3.3007
G01 X-3.8533 Y3.3131
G01 X-3.8053 Y3.3303
G01 X-3.7593 Y3.3521
G01 X-3.7156 Y3.3783
G01 X-3.6746 Y3.4086
G01 X-3.6369 Y3.4428
G01 X-3.6027 Y3.4806
G01 X-3.5723 Y3.5215
G01 X-3.5461 Y3.5652
G01 X-3.5243 Y3.6113
G01 X-3.5072 Y3.6593
G01 X-3.4948 Y3.7087
G01 X-3.4873 Y3.7591
G01 X-3.4848 Y3.8100
G01 X-3.2445 Y3.8100
G01 X-3.2482 Y3.8844
G01 X-3.2591 Y3.9582
G01 X-3.2772 Y4.0305
G01 X-3.3023 Y4.1007
G01 X-3.3342 Y4.1680
G01 X-3.3725 Y4.2320
G01 X-3.4169 Y4.2918
G01 X-3.4670 Y4.3471
G01 X-3.5222 Y4.3971
G01 X-3.5821 Y4.4415
G01 X-3.6460 Y4.4798
G01 X-3.7134 Y4.5117
G01 X-3.7836 Y4.5368
G01 X-3.8559 Y4.5549
G01 X-3.9296 Y4.5659
G01 X-4.0041 Y4.5695
G01 X-4.0785 Y4.5659
G01 X-4.1522 Y4.5549
G01 X-4.2245 Y4.5368
G01 X-4.2947 Y4.5117
G01 X-4.3621 Y4.4798
G01 X-4.4260 Y4.4415
G01 X-4.4859 Y4.3971
G01 X-4.5411 Y4.3471
G01 X-4.5912 Y4.2918
G01 X-4.6356 Y4.2320
G01 X-4.6739 Y4.1680
G01 X-4.7058 Y4.1007
G01 X-4.7309 Y4.0305
G01 X-4.7490 Y3.9582
G01 X-4.7599 Y3.8844
G01 X-4.7636 Y3.8100
G01 X-4.7599 Y3.7356
G01 X-4.7490 Y3.6618
G01 X-4.7309 Y3.5895
G01 X-4.7058 Y3.5193
G01 X-4.6739 Y3.4520
G01 X-4.6356 Y3.3880
G01 X-4.5912 Y3.3282
G01 X-4.5411 Y3.2729
G01 X-4.4859 Y3.2229
G01 X-4.4260 Y3.1785
G01 X-4.3621 Y3.1402
G01 X-4.2947 Y3.1083
G01 X-4.2245 Y3.0832
G01 X-4.1522 Y3.0651
G01 X-4.0785 Y3.0541
G01 X-4.0040 Y3.0505
G01 X-3.9296 Y3.0541
G01 X-3.8559 Y3.0651
G01 X-3.7836 Y3.0832
G01 X-3.7134 Y3.1083
G01 X-3.6460 Y3.1402
G01 X-3.5821 Y3.1785
G01 X-3.5222 Y3.2229
G01 X-3.4670 Y3.2729
G01 X-3.4169 Y3.3282
G01 X-3.3725 Y3.3880
G01 X-3.3342 Y3.4520
G01 X-3.3023 Y3.5193
G01 X-3.2772 Y3.5895
G01 X-3.2591 Y3.6618
G01 X-3.2482 Y3.7356
G01 X-3.2445 Y3.8100
G01 X-3.0042 Y3.8100
G01 X-3.0090 Y3.9080
G01 X-3.0234 Y4.0051
G01 X-3.0473 Y4.1002
G01 X-3.0803 Y4.1926
G01 X-3.1223 Y4.2813
G01 X-3.1727 Y4.3655
G01 X-3.2312 Y4.4443
G01 X-3.2971 Y4.5170
G01 X-3.3698 Y4.5829
G01 X-3.4486 Y4.6413
G01 X-3.5327 Y4.6918
G01 X-3.6214 Y4.7337
G01 X-3.7138 Y4.7668
G01 X-3.8090 Y4.7906
G01 X-3.9061 Y4.8050
G01 X-4.0041 Y4.8098
G01 X-4.1020 Y4.8050
G01 X-4.1991 Y4.7906
G01 X-4.2943 Y4.7668
G01 X-4.3867 Y4.7337
G01 X-4.4754 Y4.6918
G01 X-4.5595 Y4.6413
G01 X-4.6383 Y4.5829
G01 X-4.7110 Y4.5170
G01 X-4.7769 Y4.4443
G01 X-4.8354 Y4.3655
G01 X-4.8858 Y4.2813
G01 X-4.9278 Y4.1926
G01 X-4.9608 Y4.1002
G01 X-4.9847 Y4.0051
G01 X-4.9991 Y3.9080
G01 X-5.0039 Y3.8100
G01 X-4.9991 Y3.7120
G01 X-4.9847 Y3.6149
G01 X-4.9608 Y3.5198
G01 X-4.9278 Y3.4274
G01 X-4.8858 Y3.3387
G01 X-4.8354 Y3.2545
G01 X-4.7769 Y3.1757
G01 X-4.7110 Y3.1030
G01 X-4.6383 Y3.0371
G01 X-4.5595 Y2.9787
G01 X-4.4754 Y2.9282
G01 X-4.3867 Y2.8863
G01 X-4.2943 Y2.8532
G01 X-4.1991 Y2.8294
G01 X-4.1020 Y2.8150
G01 X-4.0040 Y2.8102
G01 X-3.9061 Y2.8150
G01 X-3.8090 Y2.8294
G01 X-3.7138 Y2.8532
G01 X-3.6214 Y2.8863
G01 X-3.5327 Y2.9282
G01 X-3.4486 Y2.9787
G01 X-3.3698 Y3.0371
G01 X-3.2971 Y3.1030
G01 X-3.2312 Y3.1757
G01 X-3.1727 Y3.2545
G01 X-3.1223 Y3.3387
G01 X-3.0803 Y3.4274
G01 X-3.0473 Y3.5198
G01 X-3.0234 Y3.6149
G01 X-3.0090 Y3.7120
G01 X-3.0042 Y3.8100
G00 Z1.0000
G00 X-1.4653 Y3.8100
G01 F25.00
G01 Z-0.0011
G01 F120.00
G01 X-1.4660 Y3.8175
G01 X-1.4682 Y3.8248
G01 X-1.4718 Y3.8315
G01 X-1.4766 Y3.8373
G01 X-1.4825 Y3.8421
G01 X-1.4891 Y3.8457
G01 X-1.4964 Y3.8479
G01 X-1.5039 Y3.8487
G01 X-1.5115 Y3.8479
G01 X-1.5187 Y3.8457
G01 X-1.5254 Y3.8421
G01 X-1.5313 Y3.8373
G01 X-1.5361 Y3.8315
G01 X-1.5396 Y3.8248
G01 X-1.5418 Y3.8175
G01 X-1.5426 Y3.8100
G01 X-1.5418 Y3.8025
G01 X-1.5409 Y3.7988
G01 X-1.5380 Y3.7918
G01 X-1.5338 Y3.7855
G01 X-1.5285 Y3.7801
G01 X-1.5222 Y3.7759
G01 X-1.5152 Y3.7730
G01 X-1.5077 Y3.7715
G01 X-1.5001 Y3.7715
G01 X-1.4927 Y3.7730
G01 X-1.4857 Y3.7759
G01 X-1.4794 Y3.7801
G01 X-1.4766 Y3.7827
G01 X-1.4718 Y3.7885
G01 X-1.4682 Y3.7952
G01 X-1.4660 Y3.8025
G01 X-1.4653 Y3.8100
G01 X-1.2250 Y3.8100
G01 X-1.2263 Y3.8373
G01 X-1.2303 Y3.8644
G01 X-1.2370 Y3.8910
G01 X-1.2462 Y3.9167
G01 X-1.2579 Y3.9415
G01 X-1.2720 Y3.9650
G01 X-1.2883 Y3.9870
G01 X-1.3067 Y4.0072
G01 X-1.3270 Y4.0256
G01 X-1.3490 Y4.0419
G01 X-1.3724 Y4.0560
G01 X-1.3972 Y4.0677
G01 X-1.4230 Y4.0769
G01 X-1.4495 Y4.0836
G01 X-1.4766 Y4.0876
G01 X-1.5039 Y4.0890
G01 X-1.5313 Y4.0876
G01 X-1.5584 Y4.0836
G01 X-1.5849 Y4.0769
G01 X-1.6107 Y4.0677
G01 X-1.6354 Y4.0560
G01 X-1.6589 Y4.0419
G01 X-1.6809 Y4.0256
G01 X-1.7012 Y4.0072
G01 X-1.7196 Y3.9870
G01 X-1.7359 Y3.9650
G01 X-1.7499 Y3.9415
G01 X-1.7616 Y3.9167
G01 X-1.7709 Y3.8910
G01 X-1.7775 Y3.8644
G01 X-1.7815 Y3.8373
G01 X-1.7829 Y3.8100
G01 X-1.7815 Y3.7827
G01 X-1.7775 Y3.7556
G01 X-1.7709 Y3.7290
G01 X-1.7616 Y3.7033
G01 X-1.7499 Y3.6785
G01 X-1.7359 Y3.6550
G01 X-1.7196 Y3.6330
G01 X-1.7012 Y3.6128
G01 X-1.6809 Y3.5944
G01 X-1.6589 Y3.5781
G01 X-1.6354 Y3.5640
G01 X-1.6107 Y3.5523
G01 X-1.5849 Y3.5431
G01 X-1.5584 Y3.5364
G01 X-1.5313 Y3.5324
G01 X-1.5039 Y3.5310
G01 X-1.4766 Y3.5324
G01 X-1.4495 Y3.5364
G01 X-1.4230 Y3.5431
G01 X-1.3972 Y3.5523
G01 X-1.3724 Y3.5640
G01 X-1.3490 Y3.5781
G01 X-1.3270 Y3.5944
G01 X-1.3067 Y3.6128
G01 X-1.2883 Y3.6330
G01 X-1.2720 Y3.6550
G01 X-1.2579 Y3.6785
G01 X-1.2462 Y3.7033
G01 X-1.2370 Y3.7290
G01 X-1.2303 Y3.7556
G01 X-1.2263 Y3.7827
G01 X-1.2250 Y3.8100
G01 X-0.9847 Y3.8100
G01 X-0.9872 Y3.8609
G01 X-0.9947 Y3.9113
G01 X-1.0070 Y3.9607
G01 X-1.0242 Y4.0087
G01 X-1.0460 Y4.0548
G01 X-1.0722 Y4.0985
G01 X-1.1026 Y4.1394
G01 X-1.1368 Y4.1772
G01 X-1.1745 Y4.2114
G01 X-1.2155 Y4.2417
G01 X-1.2592 Y4.2679
G01 X-1.3052 Y4.2897
G01 X-1.3532 Y4.3069
G01 X-1.4026 Y4.3193
G01 X-1.4530 Y4.3267
G01 X-1.5039 Y4.3292
G01 X-1.5548 Y4.3267
G01 X-1.6052 Y4.3193
G01 X-1.6547 Y4.3069
G01 X-1.7026 Y4.2897
G01 X-1.7487 Y4.2679
G01 X-1.7924 Y4.2417
G01 X-1.8333 Y4.2114
G01 X-1.8711 Y4.1772
G01 X-1.9053 Y4.1394
G01 X-1.9357 Y4.0985
G01 X-1.9619 Y4.0548
G01 X-1.9836 Y4.0087
G01 X-2.0008 Y3.9607
G01 X-2.0132 Y3.9113
G01 X-2.0207 Y3.8609
G01 X-2.0232 Y3.8100
G01 X-2.0207 Y3.7591
G01 X-2.0132 Y3.7087
G01 X-2.0008 Y3.6593
G01 X-1.9836 Y3.6113
G01 X-1.9619 Y3.5652
G01 X-1.9357 Y3.5215
G01 X-1.9053 Y3.4806
G01 X-1.8711 Y3.4428
G01 X-1.8333 Y3.4086
G01 X-1.7924 Y3.3783
G01 X-1.7487 Y3.3521
G01 X-1.7026 Y3.3303
G01 X-1.6547 Y3.3131
G01 X-1.6052 Y3.3007
G01 X-1.5548 Y3.2933
G01 X-1.5039 Y3.2908
G01 X-1.4530 Y3.2933
G01 X-1.4026 Y3.3007
G01 X-1.3532 Y3.3131
G01 X-1.3052 Y3.3303
G01 X-1.2592 Y3.3521
G01 X-1.2155 Y3.3783
G01 X-1.1745 Y3.4086
G01 X-1.1368 Y3.4428
G01 X-1.1026 Y3.4806
G01 X-1.0722 Y3.5215
G01 X-1.0460 Y3.5652
G01 X-1.0242 Y3.6113
G01 X-1.0070 Y3.6593
G01 X-0.9947 Y3.7087
G01 X-0.9872 Y3.7591
G01 X-0.9847 Y3.8100
G01 X-0.7444 Y3.8100
G01 X-0.7481 Y3.8844
G01 X-0.7590 Y3.9582
G01 X-0.7771 Y4.0305
G01 X-0.8022 Y4.1007
G01 X-0.8341 Y4.1680
G01 X-0.8724 Y4.2320
G01 X-0.9168 Y4.2918
G01 X-0.9669 Y4.3471
G01 X-1.0221 Y4.3971
G01 X-1.0820 Y4.4415
G01 X-1.1459 Y4.4798
G01 X-1.2133 Y4.5117
G01 X-1.2835 Y4.5368
G01 X-1.3558 Y4.5549
G01 X-1.4295 Y4.5659
G01 X-1.5039 Y4.5695
G01 X-1.5784 Y4.5659
G01 X-1.6521 Y4.5549
G01 X-1.7244 Y4.5368
G01 X-1.7946 Y4.5117
G01 X-1.8620 Y4.4798
G01 X-1.9259 Y4.4415
G01 X-1.9858 Y4.3971
G01 X-2.0410 Y4.3471
G01 X-2.0911 Y4.2918
G01 X-2.1355 Y4.2320
G01 X-2.1738 Y4.1680
G01 X-2.2056 Y4.1007
G01 X-2.2308 Y4.0305
G01 X-2.2489 Y3.9582
G01 X-2.2598 Y3.8844
G01 X-2.2635 Y3.8100
G01 X-2.2598 Y3.7356
G01 X-2.2489 Y3.6618
G01 X-2.2308 Y3.5895
G01 X-2.2056 Y3.5193
G01 X-2.1738 Y3.4520
G01 X-2.1355 Y3.3880
G01 X-2.0911 Y3.3282
G01 X-2.0410 Y3.2729
G01 X-1.9858 Y3.2229
G01 X-1.9259 Y3.1785
G01 X-1.8620 Y3.1402
G01 X-1.7946 Y3.1083
G01 X-1.7244 Y3.0832
G01 X-1.6521 Y3.0651
G01 X-1.5784 Y3.0541
G01 X-1.5039 Y3.0505
G01 X-1.4295 Y3.0541
G01 X-1.3558 Y3.0651
G01 X-1.2835 Y3.0832
G01 X-1.2133 Y3.1083
G01 X-1.1459 Y3.1402
G01 X-1.0820 Y3.1785
G01 X-1.0221 Y3.2229
G01 X-0.9669 Y3.2729
G01 X-0.9168 Y3.3282
G01 X-0.8724 Y3.3880
G01 X-0.8341 Y3.4520
G01 X-0.8022 Y3.5193
G01 X-0.7771 Y3.5895
G01 X-0.7590 Y3.6618
G01 X-0.7481 Y3.7356
G01 X-0.7444 Y3.8100
G01 X-0.5041 Y3.8100
G01 X-0.5089 Y3.9080
G01 X-0.5233 Y4.0051
G01 X-0.5472 Y4.1002
G01 X-0.5802 Y4.1926
G01 X-0.6222 Y4.2813
G01 X-0.6726 Y4.3655
G01 X-0.7311 Y4.4443
G01 X-0.7970 Y4.5170
G01 X-0.8697 Y4.5829
G01 X-0.9485 Y4.6413
G01 X-1.0326 Y4.6918
G01 X-1.1213 Y4.7337
G01 X-1.2137 Y4.7668
G01 X-1.3089 Y4.7906
G01 X-1.4059 Y4.8050
G01 X-1.5039 Y4.8098
G01 X-1.6019 Y4.8050
G01 X-1.6990 Y4.7906
G01 X-1.7942 Y4.7668
G01 X-1.8865 Y4.7337
G01 X-1.9752 Y4.6918
G01 X-2.0594 Y4.6413
G01 X-2.1382 Y4.5829
G01 X-2.2109 Y4.5170
G01 X-2.2768 Y4.4443
G01 X-2.3352 Y4.3655
G01 X-2.3857 Y4.2813
G01 X-2.4276 Y4.1926
G01 X-2.4607 Y4.1002
G01 X-2.4845 Y4.0051
G01 X-2.4989 Y3.9080
G01 X-2.5037 Y3.8100
G01 X-2.4989 Y3.7120
G01 X-2.4845 Y3.6149
G01 X-2.4607 Y3.5198
G01 X-2.4276 Y3.4274
G01 X-2.3857 Y3.3387
G01 X-2.3352 Y3.2545
G01 X-2.2768 Y3.1757
G01 X-2.2109 Y3.1030
G01 X-2.1382 Y3.0371
G01 X-2.0594 Y2.9787
G01 X-1.9752 Y2.9282
G01 X-1.8865 Y2.8863
G01 X-1.7942 Y2.8532
G01 X-1.6990 Y2.8294
G01 X-1.6019 Y2.8150
G01 X-1.5039 Y2.8102
G01 X-1.4059 Y2.8150
G01 X-1.3089 Y2.8294
G01 X-1.2137 Y2.8532
G01 X-1.1213 Y2.8863
G01 X-1.0326 Y2.9282
G01 X-0.9485 Y2.9787
G01 X-0.8697 Y3.0371
G01 X-0.7970 Y3.1030
G01 X-0.7311 Y3.1757
G01 X-0.6726 Y3.2545
G01 X-0.6222 Y3.3387
G01 X-0.5802 Y3.4274
G01 X-0.5472 Y3.5198
G01 X-0.5233 Y3.6149
G01 X-0.5089 Y3.7120
G01 X-0.5041 Y3.8100
G00 Z1.0000
G00 X1.0346 Y3.8100
G01 F25.00
G01 Z-0.0011
G01 F120.00
G01 X1.0338 Y3.8025
G01 X1.0316 Y3.7952
G01 X1.0281 Y3.7885
G01 X1.0233 Y3.7827
G01 X1.0174 Y3.7779
G01 X1.0107 Y3.7743
G01 X1.0035 Y3.7721
G01 X0.9959 Y3.7713
G01 X0.9884 Y3.7721
G01 X0.9811 Y3.7743
G01 X0.9745 Y3.7779
G01 X0.9686 Y3.7827
G01 X0.9638 Y3.7885
G01 X0.9602 Y3.7952
G01 X0.9580 Y3.8025
G01 X0.9573 Y3.8100
G01 X0.9580 Y3.8175
G01 X0.9602 Y3.8248
G01 X0.9638 Y3.8315
G01 X0.9686 Y3.8373
G01 X0.9745 Y3.8421
G01 X0.9811 Y3.8457
G01 X0.9884 Y3.8479
G01 X0.9959 Y3.8487
G01 X0.9997 Y3.8485
G01 X1.0072 Y3.8470
G01 X1.0142 Y3.8441
G01 X1.0205 Y3.8399
G01 X1.0258 Y3.8345
G01 X1.0300 Y3.8282
G01 X1.0329 Y3.8212
G01 X1.0344 Y3.8138
G01 X1.0346 Y3.8100
G01 X1.2749 Y3.8100
G01 X1.2735 Y3.7827
G01 X1.2695 Y3.7556
G01 X1.2629 Y3.7290
G01 X1.2536 Y3.7033
G01 X1.2419 Y3.6785
G01 X1.2279 Y3.6550
G01 X1.2116 Y3.6330
G01 X1.1932 Y3.6128
G01 X1.1729 Y3.5944
G01 X1.1509 Y3.5781
G01 X1.1274 Y3.5640
G01 X1.1027 Y3.5523
G01 X1.0769 Y3.5431
G01 X1.0504 Y3.5364
G01 X1.0233 Y3.5324
G01 X0.9959 Y3.5310
G01 X0.9686 Y3.5324
G01 X0.9415 Y3.5364
G01 X0.9150 Y3.5431
G01 X0.8892 Y3.5523
G01 X0.8644 Y3.5640
G01 X0.8410 Y3.5781
G01 X0.8190 Y3.5944
G01 X0.7987 Y3.6128
G01 X0.7803 Y3.6330
G01 X0.7640 Y3.6550
G01 X0.7499 Y3.6785
G01 X0.7382 Y3.7033
G01 X0.7290 Y3.7290
G01 X0.7223 Y3.7556
G01 X0.7183 Y3.7827
G01 X0.7170 Y3.8100
G01 X0.7183 Y3.8373
G01 X0.7223 Y3.8644
G01 X0.7290 Y3.8910
G01 X0.7382 Y3.9167
G01 X0.7499 Y3.9415
G01 X0.7640 Y3.9650
G01 X0.7803 Y3.9870
G01 X0.7987 Y4.0072
G01 X0.8190 Y4.0256
G01 X0.8410 Y4.0419
G01 X0.8644 Y4.0560
G01 X0.8892 Y4.0677
G01 X0.9150 Y4.0769
G01 X0.9415 Y4.0836
G01 X0.9686 Y4.0876
G01 X0.9959 Y4.0890
G01 X1.0233 Y4.0876
G01 X1.0504 Y4.0836
G01 X1.0769 Y4.0769
G01 X1.1027 Y4.0677
G01 X1.1274 Y4.0560
G01 X1.1509 Y4.0419
G01 X1.1729 Y4.0256
G01 X1.1932 Y4.0072
G01 X1.2116 Y3.9870
G01 X1.2279 Y3.9650
G01 X1.2419 Y3.9415
G01 X1.2536 Y3.9167
G01 X1.2629 Y3.8910
G01 X1.2695 Y3.8644
G01 X1.2735 Y3.8373
G01 X1.2749 Y3.8100
G01 X1.5152 Y3.8100
G01 X1.5127 Y3.7591
G01 X1.5052 Y3.7087
G01 X1.4928 Y3.6593
G01 X1.4756 Y3.6113
G01 X1.4539 Y3.5652
G01 X1.4277 Y3.5215
G01 X1.3973 Y3.4806
G01 X1.3631 Y3.4428
G01 X1.3253 Y3.4086
G01 X1.2844 Y3.3783
G01 X1.2407 Y3.3521
G01 X1.1946 Y3.3303
G01 X1.1467 Y3.3131
G01 X1.0972 Y3.3007
G01 X1.0468 Y3.2933
G01 X0.9959 Y3.2908
G01 X0.9450 Y3.2933
G01 X0.8946 Y3.3007
G01 X0.8452 Y3.3131
G01 X0.7972 Y3.3303
G01 X0.7512 Y3.3521
G01 X0.7075 Y3.3783
G01 X0.6665 Y3.4086
G01 X0.6288 Y3.4428
G01 X0.5946 Y3.4806
G01 X0.5642 Y3.5215
G01 X0.5380 Y3.5652
G01 X0.5162 Y3.6113
G01 X0.4990 Y3.6593
G01 X0.4867 Y3.7087
G01 X0.4792 Y3.7591
G01 X0.4767 Y3.8100
G01 X0.4792 Y3.8609
G01 X0.4867 Y3.9113
G01 X0.4990 Y3.9607
G01 X0.5162 Y4.0087
G01 X0.5380 Y4.0548
G01 X0.5642 Y4.0985
G01 X0.5946 Y4.1394
G01 X0.6288 Y4.1772
G01 X0.6665 Y4.2114
G01 X0.7075 Y4.2417
G01 X0.7512 Y4.2679
G01 X0.7972 Y4.2897
G01 X0.8452 Y4.3069
G01 X0.8946 Y4.3193
G01 X0.9450 Y4.3267
G01 X0.9959 Y4.3292
G01 X1.0468 Y4.3267
G01 X1.0972 Y4.3193
G01 X1.1467 Y4.3069
G01 X1.1946 Y4.2897
G01 X1.2407 Y4.2679
G01 X1.2844 Y4.2417
G01 X1.3253 Y4.2114
G01 X1.3631 Y4.1772
G01 X1.3973 Y4.1394
G01 X1.4277 Y4.0985
G01 X1.4539 Y4.0548
G01 X1.4756 Y4.0087
G01 X1.4928 Y3.9607
G01 X1.5052 Y3.9113
G01 X1.5127 Y3.8609
G01 X1.5152 Y3.8100
G01 X1.7555 Y3.8100
G01 X1.7518 Y3.7356
G01 X1.7409 Y3.6618
G01 X1.7228 Y3.5895
G01 X1.6976 Y3.5193
G01 X1.6658 Y3.4520
G01 X1.6275 Y3.3880
G01 X1.5831 Y3.3282
G01 X1.5330 Y3.2729
G01 X1.4778 Y3.2229
G01 X1.4179 Y3.1785
G01 X1.3540 Y3.1402
G01 X1.2866 Y3.1083
G01 X1.2164 Y3.0832
G01 X1.1441 Y3.0651
G01 X1.0704 Y3.0541
G01 X0.9959 Y3.0505
G01 X0.9215 Y3.0541
G01 X0.8478 Y3.0651
G01 X0.7755 Y3.0832
G01 X0.7053 Y3.1083
G01 X0.6379 Y3.1402
G01 X0.5740 Y3.1785
G01 X0.5141 Y3.2229
G01 X0.4589 Y3.2729
G01 X0.4088 Y3.3282
G01 X0.3644 Y3.3880
G01 X0.3261 Y3.4520
G01 X0.2942 Y3.5193
G01 X0.2691 Y3.5895
G01 X0.2510 Y3.6618
G01 X0.2401 Y3.7356
G01 X0.2364 Y3.8100
G01 X0.2401 Y3.8844
G01 X0.2510 Y3.9582
G01 X0.2691 Y4.0305
G01 X0.2942 Y4.1007
G01 X0.3261 Y4.1680
G01 X0.3644 Y4.2320
G01 X0.4088 Y4.2918
G01 X0.4589 Y4.3471
G01 X0.5141 Y4.3971
G01 X0.5740 Y4.4415
G01 X0.6379 Y4.4798
G01 X0.7053 Y4.5117
G01 X0.7755 Y4.5368
G01 X0.8478 Y4.5549
G01 X0.9215 Y4.5659
G01 X0.9959 Y4.5695
G01 X1.0704 Y4.5659
G01 X1.1441 Y4.5549
G01 X1.2164 Y4.5368
G01 X1.2866 Y4.5117
G01 X1.3540 Y4.4798
G01 X1.4179 Y4.4415
G01 X1.4778 Y4.3971
G01 X1.5330 Y4.3471
G01 X1.5831 Y4.2918
G01 X1.6275 Y4.2320
G01 X1.6658 Y4.1680
G01 X1.6976 Y4.1007
G01 X1.7228 Y4.0305
G01 X1.7409 Y3.9582
G01 X1.7518 Y3.8844
G01 X1.7555 Y3.8100
G01 X1.9957 Y3.8100
G01 X1.9909 Y3.7120
G01 X1.9765 Y3.6149
G01 X1.9527 Y3.5198
G01 X1.9196 Y3.4274
G01 X1.8777 Y3.3387
G01 X1.8272 Y3.2545
G01 X1.7688 Y3.1757
G01 X1.7029 Y3.1030
G01 X1.6302 Y3.0371
G01 X1.5514 Y2.9787
G01 X1.4672 Y2.9282
G01 X1.3785 Y2.8863
G01 X1.2862 Y2.8532
G01 X1.1910 Y2.8294
G01 X1.0939 Y2.8150
G01 X0.9959 Y2.8102
G01 X0.8979 Y2.8150
G01 X0.8009 Y2.8294
G01 X0.7057 Y2.8532
G01 X0.6133 Y2.8863
G01 X0.5246 Y2.9282
G01 X0.4405 Y2.9787
G01 X0.3617 Y3.0371
G01 X0.2890 Y3.1030
G01 X0.2231 Y3.1757
G01 X0.1646 Y3.2545
G01 X0.1142 Y3.3387
G01 X0.0722 Y3.4274
G01 X0.0392 Y3.5198
G01 X0.0153 Y3.6149
G01 X0.0009 Y3.7120
G01 X-0.0039 Y3.8100
G01 X0.0009 Y3.9080
G01 X0.0153 Y4.0051
G01 X0.0392 Y4.1002
G01 X0.0722 Y4.1926
G01 X0.1142 Y4.2813
G01 X0.1646 Y4.3655
G01 X0.2231 Y4.4443
G01 X0.2890 Y4.5170
G01 X0.3617 Y4.5829
G01 X0.4405 Y4.6413
G01 X0.5246 Y4.6918
G01 X0.6133 Y4.7337
G01 X0.7057 Y4.7668
G01 X0.8009 Y4.7906
G01 X0.8979 Y4.8050
G01 X0.9959 Y4.8098
G01 X1.0939 Y4.8050
G01 X1.1910 Y4.7906
G01 X1.2862 Y4.7668
G01 X1.3785 Y4.7337
G01 X1.4672 Y4.6918
G01 X1.5514 Y4.6413
G01 X1.6302 Y4.5829
G01 X1.7029 Y4.5170
G01 X1.7688 Y4.4443
G01 X1.8272 Y4.3655
G01 X1.8777 Y4.2813
G01 X1.9196 Y4.1926
G01 X1.9527 Y4.1002
G01 X1.9765 Y4.0051
G01 X1.9909 Y3.9080
G01 X1.9957 Y3.8100
G00 Z1.0000
G00 X3.5347 Y3.8100
G01 F25.00
G01 Z-0.0011
G01 F120.00
G01 X3.5340 Y3.8025
G01 X3.5318 Y3.7952
G01 X3.5282 Y3.7885
G01 X3.5234 Y3.7827
G01 X3.5175 Y3.7779
G01 X3.5108 Y3.7743
G01 X3.5036 Y3.7721
G01 X3.4961 Y3.7713
G01 X3.4885 Y3.7721
G01 X3.4813 Y3.7743
G01 X3.4746 Y3.7779
G01 X3.4687 Y3.7827
G01 X3.4639 Y3.7885
G01 X3.4603 Y3.7952
G01 X3.4581 Y3.8025
G01 X3.4574 Y3.8100
G01 X3.4581 Y3.8175
G01 X3.4603 Y3.8248
G01 X3.4639 Y3.8315
G01 X3.4687 Y3.8373
G01 X3.4746 Y3.8421
G01 X3.4813 Y3.8457
G01 X3.4885 Y3.8479
G01 X3.4923 Y3.8485
G01 X3.4998 Y3.8485
G01 X3.5073 Y3.8470
G01 X3.5143 Y3.8441
G01 X3.5206 Y3.8399
G01 X3.5259 Y3.8345
G01 X3.5301 Y3.8282
G01 X3.5330 Y3.8212
G01 X3.5345 Y3.8138
G01 X3.5347 Y3.8100
G01 X3.7750 Y3.8100
G01 X3.7737 Y3.7827
G01 X3.7696 Y3.7556
G01 X3.7630 Y3.7290
G01 X3.7538 Y3.7033
G01 X3.7421 Y3.6785
G01 X3.7280 Y3.6550
G01 X3.7117 Y3.6330
G01 X3.6933 Y3.6128
G01 X3.6730 Y3.5944
G01 X3.6510 Y3.5781
G01 X3.6275 Y3.5640
G01 X3.6028 Y3.5523
G01 X3.5770 Y3.5431
G01 X3.5505 Y3.5364
G01 X3.5234 Y3.5324
G01 X3.4961 Y3.5310
G01 X3.4687 Y3.5324
G01 X3.4416 Y3.5364
G01 X3.4151 Y3.5431
G01 X3.3893 Y3.5523
G01 X3.3646 Y3.5640
G01 X3.3411 Y3.5781
G01 X3.3191 Y3.5944
G01 X3.2988 Y3.6128
G01 X3.2804 Y3.6330
G01 X3.2641 Y3.6550
G01 X3.2500 Y3.6785
G01 X3.2383 Y3.7033
G01 X3.2291 Y3.7290
G01 X3.2225 Y3.7556
G01 X3.2184 Y3.7827
G01 X3.2171 Y3.8100
G01 X3.2184 Y3.8373
G01 X3.2225 Y3.8644
G01 X3.2291 Y3.8910
G01 X3.2383 Y3.9167
G01 X3.2500 Y3.9415
G01 X3.2641 Y3.9650
G01 X3.2804 Y3.9870
G01 X3.2988 Y4.0072
G01 X3.3191 Y4.0256
G01 X3.3411 Y4.0419
G01 X3.3646 Y4.0560
G01 X3.3893 Y4.0677
G01 X3.4151 Y4.0769
G01 X3.4416 Y4.0836
G01 X3.4687 Y4.0876
G01 X3.4960 Y4.0890
G01 X3.5234 Y4.0876
G01 X3.5505 Y4.0836
G01 X3.5770 Y4.0769
G01 X3.6028 Y4.0677
G01 X3.6275 Y4.0560
G01 X3.6510 Y4.0419
G01 X3.6730 Y4.0256
G01 X3.6933 Y4.0072
G01 X3.7117 Y3.9870
G01 X3.7280 Y3.9650
G01 X3.7421 Y3.9415
G01 X3.7538 Y3.9167
G01 X3.7630 Y3.8910
G01 X3.7696 Y3.8644
G01 X3.7737 Y3.8373
G01 X3.7750 Y3.8100
G01 X4.0153 Y3.8100
G01 X4.0128 Y3.7591
G01 X4.0053 Y3.7087
G01 X3.9929 Y3.6593
G01 X3.9758 Y3.6113
G01 X3.9540 Y3.5652
G01 X3.9278 Y3.5215
G01 X3.8974 Y3.4806
G01 X3.8632 Y3.4428
G01 X3.8255 Y3.4086
G01 X3.7845 Y3.3783
G01 X3.7408 Y3.3521
G01 X3.6948 Y3.3303
G01 X3.6468 Y3.3131
G01 X3.5973 Y3.3007
G01 X3.5469 Y3.2933
G01 X3.4961 Y3.2908
G01 X3.4452 Y3.2933
G01 X3.3948 Y3.3007
G01 X3.3453 Y3.3131
G01 X3.2973 Y3.3303
G01 X3.2513 Y3.3521
G01 X3.2076 Y3.3783
G01 X3.1666 Y3.4086
G01 X3.1289 Y3.4428
G01 X3.0947 Y3.4806
G01 X3.0643 Y3.5215
G01 X3.0381 Y3.5652
G01 X3.0163 Y3.6113
G01 X2.9992 Y3.6593
G01 X2.9868 Y3.7087
G01 X2.9793 Y3.7591
G01 X2.9768 Y3.8100
G01 X2.9793 Y3.8609
G01 X2.9868 Y3.9113
G01 X2.9992 Y3.9607
G01 X3.0163 Y4.0087
G01 X3.0381 Y4.0548
G01 X3.0643 Y4.0985
G01 X3.0947 Y4.1394
G01 X3.1289 Y4.1772
G01 X3.1666 Y4.2114
G01 X3.2076 Y4.2417
G01 X3.2513 Y4.2679
G01 X3.2973 Y4.2897
G01 X3.3453 Y4.3069
G01 X3.3948 Y4.3193
G01 X3.4452 Y4.3267
G01 X3.4960 Y4.3292
G01 X3.5469 Y4.3267
G01 X3.5973 Y4.3193
G01 X3.6468 Y4.3069
G01 X3.6948 Y4.2897
G01 X3.7408 Y4.2679
G01 X3.7845 Y4.2417
G01 X3.8255 Y4.2114
G01 X3.8632 Y4.1772
G01 X3.8974 Y4.1394
G01 X3.9278 Y4.0985
G01 X3.9540 Y4.0548
G01 X3.9758 Y4.0087
G01 X3.9929 Y3.9607
G01 X4.0053 Y3.9113
G01 X4.0128 Y3.8609
G01 X4.0153 Y3.8100
G01 X4.2556 Y3.8100
G01 X4.2519 Y3.7356
G01 X4.2410 Y3.6618
