(G-CODE GENERATED BY FLATCAM v8.994 - www.flatcam.org - Version Date: 2020/11/7)

(Name: Gerber_BottomLayer.GBL_1_cutout_cnc)
(Type: G-code from Geometry)
(Units: MM)

(Created on Friday, 15 July 2022 at 22:04)

(This preprocessor is the default preprocessor used by FlatCAM.)
(It is made to work with MACH3 compatible motion controllers.)

(TOOL DIAMETER: 3.175 mm)
(Feedrate_XY: 25.0 mm/min)
(Feedrate_Z: 25.0 mm/min)
(Feedrate rapids 1500.0 mm/min)

(Z_Cut: -1.8 mm)
(DepthPerCut: 0.6 mm <=>3 passes)
(Z_Move: 1.0 mm)
(Z Start: None mm)
(Z End: 15.0 mm)
(X,Y End: None mm)
(Steps per circle: 64)
(Preprocessor Geometry: default)

(X range:  -10.1914 ...    9.6834  mm)
(Y range:   -7.5244 ...    7.9054  mm)

(Spindle Speed: 1000.0 RPM)
G21
G90
G94

G01 F25.00

M5
G00 Z15.0000
G00 X0.0000 Y0.0000
T1
M6    
(MSG, Change to Tool Dia = 3.1750)
M0
G00 Z15.0000

M03 S1000.0
G01 F25.00
G00 X9.6834 Y-1.7970
G01 F25.00
G01 Z-0.6000
G01 F25.00
G01 X9.6834 Y-5.7353
G01 X9.6756 Y-5.8974
G01 X9.6523 Y-6.0580
G01 X9.6447 Y-6.0971
G01 X9.6029 Y-6.2650
G01 X9.5443 Y-6.4276
G01 X9.4692 Y-6.5834
G01 X9.3787 Y-6.7307
G01 X9.3563 Y-6.7632
G01 X9.2632 Y-6.8862
G01 X9.1592 Y-7.0002
G01 X9.0452 Y-7.1042
G01 X8.9222 Y-7.1973
G01 X8.8897 Y-7.2197
G01 X8.7424 Y-7.3102
G01 X8.5866 Y-7.3853
G01 X8.4240 Y-7.4439
G01 X8.2561 Y-7.4857
G01 X8.2170 Y-7.4933
G01 X8.0564 Y-7.5166
G01 X7.8943 Y-7.5244
G01 X2.5638 Y-7.5244
G01 X-7.3127 Y-7.4944
G01 X-7.3902 Y-7.4923
G01 X-7.4196 Y-7.4909
G01 X-7.5841 Y-7.4747
G01 X-7.6131 Y-7.4704
G01 X-7.7753 Y-7.4382
G01 X-7.8038 Y-7.4311
G01 X-7.9620 Y-7.3832
G01 X-7.9896 Y-7.3733
G01 X-8.1424 Y-7.3102
G01 X-8.1690 Y-7.2977
G01 X-8.3148 Y-7.2199
G01 X-8.3400 Y-7.2048
G01 X-8.4776 Y-7.1132
G01 X-8.5012 Y-7.0957
G01 X-8.6291 Y-6.9910
G01 X-8.6509 Y-6.9713
G01 X-8.7109 Y-6.9144
G01 X-9.5313 Y-6.0965
G01 X-9.5886 Y-6.0365
G01 X-9.6085 Y-6.0146
G01 X-9.7139 Y-5.8865
G01 X-9.7315 Y-5.8628
G01 X-9.8239 Y-5.7250
G01 X-9.8391 Y-5.6997
G01 X-9.9174 Y-5.5534
G01 X-9.9301 Y-5.5268
G01 X-9.9937 Y-5.3735
G01 X-10.0036 Y-5.3457
G01 X-10.0519 Y-5.1870
G01 X-10.0591 Y-5.1583
G01 X-10.0915 Y-4.9956
G01 X-10.0959 Y-4.9664
G01 X-10.1122 Y-4.8013
G01 X-10.1149 Y-4.7394
G01 X-10.1907 Y-2.2137
G01 X-10.1914 Y-2.1631
G01 X-10.1914 Y-1.7970
G00 X-10.1914 Y-1.7970
G01 F25.00
G01 Z-1.2000
G01 F25.00
G01 X-10.1914 Y-2.1631
G01 X-10.1907 Y-2.2137
G01 X-10.1149 Y-4.7394
G01 X-10.1122 Y-4.8013
G01 X-10.0959 Y-4.9664
G01 X-10.0915 Y-4.9956
G01 X-10.0591 Y-5.1583
G01 X-10.0519 Y-5.1870
G01 X-10.0036 Y-5.3457
G01 X-9.9937 Y-5.3735
G01 X-9.9301 Y-5.5268
G01 X-9.9174 Y-5.5534
G01 X-9.8391 Y-5.6997
G01 X-9.8239 Y-5.7250
G01 X-9.7315 Y-5.8628
G01 X-9.7139 Y-5.8865
G01 X-9.6085 Y-6.0146
G01 X-9.5886 Y-6.0365
G01 X-9.5313 Y-6.0965
G01 X-8.7109 Y-6.9144
G01 X-8.6509 Y-6.9713
G01 X-8.6291 Y-6.9910
G01 X-8.5012 Y-7.0957
G01 X-8.4776 Y-7.1132
G01 X-8.3400 Y-7.2048
G01 X-8.3148 Y-7.2199
G01 X-8.1690 Y-7.2977
G01 X-8.1424 Y-7.3102
G01 X-7.9896 Y-7.3733
G01 X-7.9620 Y-7.3832
G01 X-7.8038 Y-7.4311
G01 X-7.7753 Y-7.4382
G01 X-7.6131 Y-7.4704
G01 X-7.5841 Y-7.4747
G01 X-7.4196 Y-7.4909
G01 X-7.3902 Y-7.4923
G01 X-7.3127 Y-7.4944
G01 X2.5690 Y-7.5244
G01 X7.8943 Y-7.5244
G01 X8.0564 Y-7.5166
G01 X8.2170 Y-7.4933
G01 X8.2561 Y-7.4857
G01 X8.4240 Y-7.4439
G01 X8.5866 Y-7.3853
G01 X8.7424 Y-7.3102
G01 X8.8897 Y-7.2197
G01 X8.9222 Y-7.1973
G01 X9.0452 Y-7.1042
G01 X9.1592 Y-7.0002
G01 X9.2632 Y-6.8862
G01 X9.3563 Y-6.7632
G01 X9.3787 Y-6.7307
G01 X9.4692 Y-6.5834
G01 X9.5443 Y-6.4276
G01 X9.6029 Y-6.2650
G01 X9.6447 Y-6.0971
G01 X9.6523 Y-6.0580
G01 X9.6756 Y-5.8974
G01 X9.6834 Y-5.7353
G01 X9.6834 Y-1.7970
G00 X9.6834 Y-1.7970
G01 F25.00
G01 Z-1.8000
G01 F25.00
G01 X9.6834 Y-5.7353
G01 X9.6756 Y-5.8974
G01 X9.6523 Y-6.0580
G01 X9.6447 Y-6.0971
G01 X9.6029 Y-6.2650
G01 X9.5443 Y-6.4276
G01 X9.4692 Y-6.5834
G01 X9.3787 Y-6.7307
G01 X9.3563 Y-6.7632
G01 X9.2632 Y-6.8862
G01 X9.1592 Y-7.0002
G01 X9.0452 Y-7.1042
G01 X8.9222 Y-7.1973
G01 X8.8897 Y-7.2197
G01 X8.7424 Y-7.3102
G01 X8.5866 Y-7.3853
G01 X8.4240 Y-7.4439
G01 X8.2561 Y-7.4857
G01 X8.2170 Y-7.4933
G01 X8.0564 Y-7.5166
G01 X7.8943 Y-7.5244
G01 X2.5638 Y-7.5244
G01 X-7.3127 Y-7.4944
G01 X-7.3902 Y-7.4923
G01 X-7.4196 Y-7.4909
G01 X-7.5841 Y-7.4747
G01 X-7.6131 Y-7.4704
G01 X-7.7753 Y-7.4382
G01 X-7.8038 Y-7.4311
G01 X-7.9620 Y-7.3832
G01 X-7.9896 Y-7.3733
G01 X-8.1424 Y-7.3102
G01 X-8.1690 Y-7.2977
G01 X-8.3148 Y-7.2199
G01 X-8.3400 Y-7.2048
G01 X-8.4776 Y-7.1132
G01 X-8.5012 Y-7.0957
G01 X-8.6291 Y-6.9910
G01 X-8.6509 Y-6.9713
G01 X-8.7109 Y-6.9144
G01 X-9.5313 Y-6.0965
G01 X-9.5886 Y-6.0365
G01 X-9.6085 Y-6.0146
G01 X-9.7139 Y-5.8865
G01 X-9.7315 Y-5.8628
G01 X-9.8239 Y-5.7250
G01 X-9.8391 Y-5.6997
G01 X-9.9174 Y-5.5534
G01 X-9.9301 Y-5.5268
G01 X-9.9937 Y-5.3735
G01 X-10.0036 Y-5.3457
G01 X-10.0519 Y-5.1870
G01 X-10.0591 Y-5.1583
G01 X-10.0915 Y-4.9956
G01 X-10.0959 Y-4.9664
G01 X-10.1122 Y-4.8013
G01 X-10.1149 Y-4.7394
G01 X-10.1907 Y-2.2137
G01 X-10.1914 Y-2.1631
G01 X-10.1914 Y-1.7970
G00 Z1.0000
G00 X-10.1914 Y2.3780
G01 F25.00
G01 Z-0.6000
G01 F25.00
G01 X-10.1914 Y6.1163
G01 X-10.1836 Y6.2784
G01 X-10.1603 Y6.4390
G01 X-10.1527 Y6.4781
G01 X-10.1109 Y6.6460
G01 X-10.0523 Y6.8086
G01 X-9.9772 Y6.9644
G01 X-9.8867 Y7.1117
G01 X-9.8643 Y7.1442
G01 X-9.7712 Y7.2672
G01 X-9.6672 Y7.3812
G01 X-9.5532 Y7.4852
G01 X-9.4302 Y7.5783
G01 X-9.3977 Y7.6007
G01 X-9.2504 Y7.6912
G01 X-9.0946 Y7.7663
G01 X-8.9320 Y7.8249
G01 X-8.7641 Y7.8667
G01 X-8.7250 Y7.8743
G01 X-8.5644 Y7.8976
G01 X-8.4023 Y7.9054
G01 X-0.4506 Y7.9054
G01 X-0.4182 Y7.9051
G01 X6.6999 Y7.7684
G01 X6.7503 Y7.7667
G01 X6.7797 Y7.7652
G01 X6.9445 Y7.7490
G01 X6.9737 Y7.7447
G01 X7.1361 Y7.7124
G01 X7.1647 Y7.7052
G01 X7.3231 Y7.6571
G01 X7.3509 Y7.6472
G01 X7.5039 Y7.5838
G01 X7.5305 Y7.5712
G01 X7.6765 Y7.4932
G01 X7.7018 Y7.4780
G01 X7.8395 Y7.3860
G01 X7.8632 Y7.3685
G01 X7.9912 Y7.2634
G01 X8.0130 Y7.2436
G01 X8.0730 Y7.1865
G01 X9.0255 Y6.2340
G01 X9.0826 Y6.1740
G01 X9.1024 Y6.1522
G01 X9.2074 Y6.0242
G01 X9.2250 Y6.0005
G01 X9.3170 Y5.8628
G01 X9.3321 Y5.8376
G01 X9.4102 Y5.6915
G01 X9.4228 Y5.6649
G01 X9.4862 Y5.5119
G01 X9.4961 Y5.4842
G01 X9.5442 Y5.3257
G01 X9.5513 Y5.2971
G01 X9.5836 Y5.1347
G01 X9.5879 Y5.1056
G01 X9.6042 Y4.9408
G01 X9.6056 Y4.9113
G01 X9.6074 Y4.8597
G01 X9.6532 Y2.3780
G00 X9.6532 Y2.3780
G01 F25.00
G01 Z-1.2000
G01 F25.00
G01 X9.6074 Y4.8597
G01 X9.6056 Y4.9113
G01 X9.6042 Y4.9408
G01 X9.5879 Y5.1056
G01 X9.5836 Y5.1347
G01 X9.5513 Y5.2971
G01 X9.5442 Y5.3257
G01 X9.4961 Y5.4842
G01 X9.4862 Y5.5119
G01 X9.4228 Y5.6649
G01 X9.4102 Y5.6915
G01 X9.3321 Y5.8376
G01 X9.3170 Y5.8628
G01 X9.2250 Y6.0005
G01 X9.2074 Y6.0242
G01 X9.1024 Y6.1522
G01 X9.0826 Y6.1740
G01 X9.0255 Y6.2340
G01 X8.0730 Y7.1865
G01 X8.0130 Y7.2436
G01 X7.9912 Y7.2634
G01 X7.8632 Y7.3685
G01 X7.8395 Y7.3860
G01 X7.7018 Y7.4780
G01 X7.6765 Y7.4932
G01 X7.5305 Y7.5712
G01 X7.5039 Y7.5838
G01 X7.3509 Y7.6472
G01 X7.3231 Y7.6571
G01 X7.1647 Y7.7052
G01 X7.1361 Y7.7124
G01 X6.9737 Y7.7447
G01 X6.9445 Y7.7490
G01 X6.7797 Y7.7652
G01 X6.7503 Y7.7667
G01 X6.6999 Y7.7684
G01 X-0.4182 Y7.9051
G01 X-0.4506 Y7.9054
G01 X-8.4023 Y7.9054
G01 X-8.5644 Y7.8976
G01 X-8.7250 Y7.8743
G01 X-8.7641 Y7.8667
G01 X-8.9320 Y7.8249
G01 X-9.0946 Y7.7663
G01 X-9.2504 Y7.6912
G01 X-9.3977 Y7.6007
G01 X-9.4302 Y7.5783
G01 X-9.5532 Y7.4852
G01 X-9.6672 Y7.3812
G01 X-9.7712 Y7.2672
G01 X-9.8643 Y7.1442
G01 X-9.8867 Y7.1117
G01 X-9.9772 Y6.9644
G01 X-10.0523 Y6.8086
G01 X-10.1109 Y6.6460
G01 X-10.1527 Y6.4781
G01 X-10.1603 Y6.4390
G01 X-10.1836 Y6.2784
G01 X-10.1914 Y6.1163
G01 X-10.1914 Y2.3780
G00 X-10.1914 Y2.3780
G01 F25.00
G01 Z-1.8000
G01 F25.00
G01 X-10.1914 Y6.1163
G01 X-10.1836 Y6.2784
G01 X-10.1603 Y6.4390
G01 X-10.1527 Y6.4781
G01 X-10.1109 Y6.6460
G01 X-10.0523 Y6.8086
G01 X-9.9772 Y6.9644
G01 X-9.8867 Y7.1117
G01 X-9.8643 Y7.1442
G01 X-9.7712 Y7.2672
G01 X-9.6672 Y7.3812
G01 X-9.5532 Y7.4852
G01 X-9.4302 Y7.5783
G01 X-9.3977 Y7.6007
G01 X-9.2504 Y7.6912
G01 X-9.0946 Y7.7663
G01 X-8.9320 Y7.8249
G01 X-8.7641 Y7.8667
G01 X-8.7250 Y7.8743
G01 X-8.5644 Y7.8976
G01 X-8.4023 Y7.9054
G01 X-0.4506 Y7.9054
G01 X-0.4182 Y7.9051
G01 X6.6999 Y7.7684
G01 X6.7503 Y7.7667
G01 X6.7797 Y7.7652
G01 X6.9445 Y7.7490
G01 X6.9737 Y7.7447
G01 X7.1361 Y7.7124
G01 X7.1647 Y7.7052
G01 X7.3231 Y7.6571
G01 X7.3509 Y7.6472
G01 X7.5039 Y7.5838
G01 X7.5305 Y7.5712
G01 X7.6765 Y7.4932
G01 X7.7018 Y7.4780
G01 X7.8395 Y7.3860
G01 X7.8632 Y7.3685
G01 X7.9912 Y7.2634
G01 X8.0130 Y7.2436
G01 X8.0730 Y7.1865
G01 X9.0255 Y6.2340
G01 X9.0826 Y6.1740
G01 X9.1024 Y6.1522
G01 X9.2074 Y6.0242
G01 X9.2250 Y6.0005
G01 X9.3170 Y5.8628
G01 X9.3321 Y5.8376
G01 X9.4102 Y5.6915
G01 X9.4228 Y5.6649
G01 X9.4862 Y5.5119
G01 X9.4961 Y5.4842
G01 X9.5442 Y5.3257
G01 X9.5513 Y5.2971
G01 X9.5836 Y5.1347
G01 X9.5879 Y5.1056
G01 X9.6042 Y4.9408
G01 X9.6056 Y4.9113
G01 X9.6074 Y4.8597
G01 X9.6532 Y2.3780
G00 Z1.0000
M05
G00 Z1.0000
G00 Z15.00


