(G-CODE GENERATED BY FLATCAM v8.994 - www.flatcam.org - Version Date: 2020/11/7)

(Name: Gerber_BottomLayer.GBL_1_ncc_cnc)
(Type: G-code from Geometry)
(Units: MM)

(Created on Friday, 15 July 2022 at 21:59)

(This preprocessor is the default preprocessor used by FlatCAM.)
(It is made to work with MACH3 compatible motion controllers.)

(TOOL DIAMETER: 0.1448 mm)
(Feedrate_XY: 120.0 mm/min)
(Feedrate_Z: 25.0 mm/min)
(Feedrate rapids 1500.0 mm/min)

(Z_Cut: -0.048 mm)
(Z_Move: 1.0 mm)
(Z Start: None mm)
(Z End: 15.0 mm)
(X,Y End: None mm)
(Steps per circle: 64)
(Preprocessor Geometry: default)

(X range:   -8.4264 ...    7.9204  mm)
(Y range:   -5.7640 ...    6.1422  mm)

(Spindle Speed: 1000.0 RPM)
G21
G90
G94

G01 F120.00

M5
G00 Z15.0000
G00 X0.0000 Y0.0000
T1
M6    
(MSG, Change to Tool Dia = 0.1448)
M0
G00 Z15.0000

M03 S1000.0
G01 F120.00
G00 X2.5878 Y0.0959
G01 F25.00
G01 Z-0.0480
G01 F120.00
G01 X2.5917 Y0.1064
G01 X2.5951 Y0.1177
G01 X2.5978 Y0.1288
G01 X2.5998 Y0.1404
G01 X2.6015 Y0.1582
G01 X2.6033 Y0.2068
G01 X2.6029 Y0.2174
G01 X2.6021 Y0.2265
G01 X2.5990 Y0.2454
G01 X2.5945 Y0.2625
G01 X2.5862 Y0.2858
G01 X2.6241 Y0.2679
G01 X2.6352 Y0.2631
G01 X2.7237 Y0.2314
G01 X2.7352 Y0.2277
G01 X2.8343 Y0.2030
G01 X2.8444 Y0.2011
G01 X2.9162 Y0.1905
G01 X2.8448 Y0.1799
G01 X2.8444 Y0.1799
G01 X2.8343 Y0.1780
G01 X2.7352 Y0.1533
G01 X2.7237 Y0.1496
G01 X2.6352 Y0.1179
G01 X2.6241 Y0.1131
G01 X2.5878 Y0.0959
G01 X2.6607 Y0.1886
G01 X2.6609 Y0.1924
G01 X2.6660 Y0.1905
G01 X2.6607 Y0.1886
G01 X3.1798 Y0.1905
G01 X3.2516 Y0.2011
G01 X3.2617 Y0.2030
G01 X3.3550 Y0.2262
G01 X3.3646 Y0.2288
G01 X3.4638 Y0.2643
G01 X3.5521 Y0.3058
G01 X3.3897 Y0.1434
G01 X3.3697 Y0.1505
G01 X3.3588 Y0.1539
G01 X3.2641 Y0.1775
G01 X3.2516 Y0.1799
G01 X3.1798 Y0.1905
G01 X3.9664 Y0.6876
G01 X4.0081 Y0.7576
G01 X4.0497 Y0.8453
G01 X4.0545 Y0.8342
G01 X4.0602 Y0.8230
G01 X4.0671 Y0.8115
G01 X4.0741 Y0.8015
G01 X4.0990 Y0.7691
G01 X4.1062 Y0.7604
G01 X4.1171 Y0.7490
G01 X4.1294 Y0.7382
G01 X4.1034 Y0.7344
G01 X4.0926 Y0.7324
G01 X4.0578 Y0.7237
G01 X4.0479 Y0.7209
G01 X4.0048 Y0.7055
G01 X3.9664 Y0.6876
G01 X5.0959 Y0.7424
G01 X5.1050 Y0.7505
G01 X5.1130 Y0.7586
G01 X5.1208 Y0.7674
G01 X5.1278 Y0.7765
G01 X5.1573 Y0.8194
G01 X5.1644 Y0.8320
G01 X5.1712 Y0.8467
G01 X5.1752 Y0.8572
G01 X5.1790 Y0.8696
G01 X5.1894 Y0.9118
G01 X5.1921 Y0.9250
G01 X5.1937 Y0.9375
G01 X5.1945 Y0.9516
G01 X5.1943 Y0.9649
G01 X5.1932 Y0.9781
G01 X5.2106 Y0.9624
G01 X5.2194 Y0.9552
G01 X5.3062 Y0.8909
G01 X5.3167 Y0.8841
G01 X5.4061 Y0.8307
G01 X5.4171 Y0.8250
G01 X5.5136 Y0.7795
G01 X5.6167 Y0.7424
G01 X5.0959 Y0.7424
G01 X5.2132 Y0.8003
G01 X5.2210 Y0.8160
G01 X5.2280 Y0.8329
G01 X5.2335 Y0.8496
G01 X5.2385 Y0.8689
G01 X5.2681 Y0.8469
G01 X5.2785 Y0.8397
G01 X5.3437 Y0.8004
G01 X5.2132 Y0.8003
G00 Z1.0000
G00 X5.4978 Y-0.2923
G01 F25.00
G01 Z-0.0480
G01 F120.00
G01 X6.3428 Y-0.2923
G01 X6.3387 Y-0.3048
G01 X6.3354 Y-0.3171
G01 X6.3326 Y-0.3299
G01 X6.3306 Y-0.3425
G01 X6.3249 Y-0.4017
G01 X6.3243 Y-0.4152
G01 X6.3245 Y-0.4288
G01 X6.3232 Y-0.4284
G01 X6.3229 Y-0.4283
G01 X6.3212 Y-0.4279
G01 X6.3191 Y-0.4273
G01 X6.2237 Y-0.4034
G01 X6.2128 Y-0.4010
G01 X6.2004 Y-0.3988
G01 X6.1024 Y-0.3843
G01 X6.0904 Y-0.3828
G01 X6.0793 Y-0.3820
G01 X5.9797 Y-0.3771
G01 X5.9612 Y-0.3770
G01 X5.8587 Y-0.3820
G01 X5.8461 Y-0.3830
G01 X5.8349 Y-0.3844
G01 X5.7297 Y-0.4001
G01 X5.7146 Y-0.4034
G01 X5.6114 Y-0.4293
G01 X5.5971 Y-0.4339
G01 X5.5383 Y-0.4549
G01 X5.5374 Y-0.4409
G01 X5.5326 Y-0.3915
G01 X5.5302 Y-0.3764
G01 X5.5271 Y-0.3621
G01 X5.5219 Y-0.3441
G01 X5.5150 Y-0.3259
G01 X5.5071 Y-0.3089
G01 X5.4978 Y-0.2923
G01 X5.5839 Y-0.3502
G01 X5.6883 Y-0.3502
G01 X5.6041 Y-0.3713
G01 X5.5889 Y-0.3756
G01 X5.5866 Y-0.3628
G01 X5.5839 Y-0.3502
G01 X6.2497 Y-0.3502
G01 X6.2715 Y-0.3502
G01 X6.2710 Y-0.3556
G01 X6.2497 Y-0.3502
G01 X6.4065 Y-0.5189
G01 X6.3132 Y-0.4858
G01 X6.2098 Y-0.4597
G01 X6.1994 Y-0.4574
G01 X6.0946 Y-0.4417
G01 X6.0848 Y-0.4405
G01 X5.9779 Y-0.4350
G01 X5.9630 Y-0.4349
G01 X5.8518 Y-0.4406
G01 X5.7463 Y-0.4561
G01 X5.7320 Y-0.4588
G01 X5.6326 Y-0.4836
G01 X5.6190 Y-0.4876
G01 X5.5172 Y-0.5241
G01 X5.5068 Y-0.5286
G01 X5.4623 Y-0.5496
G01 X5.4721 Y-0.5196
G01 X5.4757 Y-0.5064
G01 X5.4787 Y-0.4901
G01 X5.4804 Y-0.4725
G01 X5.4806 Y-0.4609
G01 X5.4801 Y-0.4510
G01 X5.4756 Y-0.4033
G01 X5.4736 Y-0.3888
G01 X5.4704 Y-0.3739
G01 X5.4676 Y-0.3645
G01 X5.4642 Y-0.3547
G01 X5.4567 Y-0.3375
G01 X5.4510 Y-0.3271
G01 X5.4250 Y-0.2828
G01 X5.4155 Y-0.2694
G01 X5.4046 Y-0.2567
G01 X5.3930 Y-0.2453
G01 X5.3798 Y-0.2344
G01 X6.4211 Y-0.2344
G01 X6.4392 Y-0.2337
G01 X6.4336 Y-0.2428
G01 X6.4105 Y-0.2830
G01 X6.4061 Y-0.2914
G01 X6.4013 Y-0.3017
G01 X6.3969 Y-0.3132
G01 X6.3927 Y-0.3268
G01 X6.3897 Y-0.3400
G01 X6.3875 Y-0.3540
G01 X6.3824 Y-0.4102
G01 X6.3823 Y-0.4256
G01 X6.3834 Y-0.4401
G01 X6.3860 Y-0.4563
G01 X6.3898 Y-0.4719
G01 X6.3933 Y-0.4828
G01 X6.4065 Y-0.5189
G00 Z1.0000
G00 X6.6615 Y-2.7086
G01 F25.00
G01 Z-0.0480
G01 F120.00
G01 X6.6044 Y-2.6746
G01 X6.5596 Y-2.6530
G01 X6.6259 Y-2.6132
G01 X6.6356 Y-2.6066
G01 X6.6569 Y-2.5907
G01 X6.6532 Y-2.6139
G01 X6.6518 Y-2.6250
G01 X6.6510 Y-2.6373
G01 X6.6511 Y-2.6507
G01 X6.6521 Y-2.6633
G01 X6.6540 Y-2.6765
G01 X6.6615 Y-2.7086
G00 Z1.0000
G00 X5.6234 Y-2.6371
G01 F25.00
G01 Z-0.0480
G01 F120.00
G01 X5.6234 Y-2.6995
G01 X5.5473 Y-2.7268
G01 X5.4464 Y-2.7744
G01 X5.4402 Y-2.7778
G01 X5.3476 Y-2.8333
G01 X5.3417 Y-2.8372
G01 X5.2522 Y-2.9037
G01 X5.1682 Y-2.9797
G01 X5.0896 Y-3.0662
G01 X5.0232 Y-3.1557
G01 X5.0192 Y-3.1617
G01 X4.9611 Y-3.2589
G01 X4.9128 Y-3.3613
G01 X4.8740 Y-3.4697
G01 X4.8460 Y-3.5813
G01 X4.8292 Y-3.6951
G01 X4.8235 Y-3.8100
G01 X4.8292 Y-3.9249
G01 X4.8460 Y-4.0387
G01 X4.8740 Y-4.1503
G01 X4.9128 Y-4.2587
G01 X4.9620 Y-4.3627
G01 X5.0211 Y-4.4614
G01 X5.0896 Y-4.5538
G01 X5.1669 Y-4.6390
G01 X5.2522 Y-4.7163
G01 X5.3446 Y-4.7848
G01 X5.4433 Y-4.8440
G01 X5.5473 Y-4.8932
G01 X5.6556 Y-4.9319
G01 X5.7672 Y-4.9599
G01 X5.8810 Y-4.9768
G01 X5.9959 Y-4.9824
G01 X6.1108 Y-4.9768
G01 X6.2246 Y-4.9599
G01 X6.3362 Y-4.9319
G01 X6.4446 Y-4.8932
G01 X6.5454 Y-4.8456
G01 X6.5517 Y-4.8422
G01 X6.6443 Y-4.7867
G01 X6.6502 Y-4.7828
G01 X6.7397 Y-4.7163
G01 X6.8249 Y-4.6390
G01 X6.9022 Y-4.5538
G01 X6.9687 Y-4.4643
G01 X6.9726 Y-4.4583
G01 X7.0281 Y-4.3658
G01 X7.0315 Y-4.3595
G01 X7.0791 Y-4.2587
G01 X7.1178 Y-4.1503
G01 X7.1458 Y-4.0387
G01 X7.1622 Y-3.9284
G01 X7.1629 Y-3.9214
G01 X7.1683 Y-3.8082
G01 X7.1627 Y-3.6951
G01 X7.1464 Y-3.5848
G01 X7.1450 Y-3.5778
G01 X7.1178 Y-3.4697
G01 X7.0791 Y-3.3613
G01 X7.0315 Y-3.2605
G01 X7.0281 Y-3.2542
G01 X6.9697 Y-3.1572
G01 X6.9022 Y-3.0662
G01 X6.8274 Y-2.9836
G01 X6.8224 Y-2.9785
G01 X6.7383 Y-2.9026
G01 X6.6473 Y-2.8352
G01 X6.5486 Y-2.7760
G01 X6.4446 Y-2.7268
G01 X6.3685 Y-2.6995
G01 X6.3685 Y-2.6178
G01 X6.3826 Y-2.6124
G01 X6.4745 Y-2.5688
G01 X6.5618 Y-2.5166
G01 X6.5677 Y-2.5127
G01 X6.6465 Y-2.4542
G01 X6.6520 Y-2.4497
G01 X6.7273 Y-2.3814
G01 X6.7957 Y-2.3061
G01 X6.8002 Y-2.3006
G01 X6.8586 Y-2.2217
G01 X6.8626 Y-2.2158
G01 X6.9148 Y-2.1286
G01 X6.9591 Y-2.0351
G01 X6.9952 Y-1.9344
G01 X7.0200 Y-1.8357
G01 X7.0214 Y-1.8288
G01 X7.0358 Y-1.7317
G01 X7.0365 Y-1.7246
G01 X7.0414 Y-1.6231
G01 X7.0362 Y-1.5179
G01 X7.0208 Y-1.4138
G01 X6.9957 Y-1.3135
G01 X6.9598 Y-1.2127
G01 X6.9164 Y-1.1207
G01 X6.9130 Y-1.1144
G01 X6.8607 Y-1.0273
G01 X6.8002 Y-0.9455
G01 X6.7957 Y-0.9400
G01 X6.7273 Y-0.8647
G01 X6.6493 Y-0.7941
G01 X6.5677 Y-0.7334
G01 X6.5618 Y-0.7295
G01 X6.4745 Y-0.6773
G01 X6.3826 Y-0.6337
G01 X6.3761 Y-0.6310
G01 X6.2820 Y-0.5974
G01 X6.1782 Y-0.5713
G01 X6.0741 Y-0.5558
G01 X5.9690 Y-0.5507
G01 X5.8674 Y-0.5556
G01 X5.8604 Y-0.5562
G01 X5.7598 Y-0.5713
G01 X5.6611 Y-0.5959
G01 X5.6543 Y-0.5979
G01 X5.5619 Y-0.6310
G01 X5.5554 Y-0.6337
G01 X5.4635 Y-0.6773
G01 X5.3732 Y-0.7314
G01 X5.2887 Y-0.7941
G01 X5.2107 Y-0.8647
G01 X5.1400 Y-0.9427
G01 X5.0773 Y-1.0273
G01 X5.0232 Y-1.1175
G01 X4.9797 Y-1.2094
G01 X4.9770 Y-1.2160
G01 X4.9428 Y-1.3117
G01 X4.9172 Y-1.4138
G01 X4.9018 Y-1.5179
G01 X4.8966 Y-1.6230
G01 X4.9018 Y-1.7282
G01 X4.9172 Y-1.8323
G01 X4.9428 Y-1.9344
G01 X4.9789 Y-2.0351
G01 X5.0232 Y-2.1286
G01 X5.0773 Y-2.2188
G01 X5.1400 Y-2.3034
G01 X5.2120 Y-2.3826
G01 X5.2887 Y-2.4520
G01 X5.3747 Y-2.5157
G01 X5.4651 Y-2.5696
G01 X5.5586 Y-2.6138
G01 X5.6234 Y-2.6371
G01 X5.5244 Y-2.6736
G01 X5.4153 Y-2.7253
G01 X5.3130 Y-2.7866
G01 X5.2205 Y-2.8550
G01 X5.2106 Y-2.8631
G01 X5.1306 Y-2.9356
G01 X5.1215 Y-2.9447
G01 X5.0444 Y-3.0300
G01 X4.9762 Y-3.1218
G01 X4.9695 Y-3.1319
G01 X4.9140 Y-3.2245
G01 X4.9080 Y-3.2357
G01 X4.8590 Y-3.3398
G01 X4.8188 Y-3.4522
G01 X4.7894 Y-3.5693
G01 X4.7723 Y-3.6831
G01 X4.7711 Y-3.6958
G01 X4.7658 Y-3.8036
G01 X4.7656 Y-3.8125
G01 X4.7711 Y-3.9242
G01 X4.7723 Y-3.9369
G01 X4.7894 Y-4.0507
G01 X4.8169 Y-4.1610
G01 X4.8206 Y-4.1732
G01 X4.8590 Y-4.2802
G01 X4.9105 Y-4.3893
G01 X4.9733 Y-4.4941
G01 X5.0409 Y-4.5855
G01 X5.0490 Y-4.5954
G01 X5.1255 Y-4.6795
G01 X5.2106 Y-4.7569
G01 X5.2205 Y-4.7650
G01 X5.3072 Y-4.8293
G01 X5.3178 Y-4.8364
G01 X5.4153 Y-4.8947
G01 X5.5244 Y-4.9464
G01 X5.6395 Y-4.9875
G01 X5.7497 Y-5.0153
G01 X5.7622 Y-5.0178
G01 X5.8690 Y-5.0336
G01 X5.8817 Y-5.0349
G01 X5.9966 Y-5.0403
G01 X6.1101 Y-5.0349
G01 X6.1229 Y-5.0336
G01 X6.2352 Y-5.0168
G01 X6.3537 Y-4.9871
G01 X6.4661 Y-4.9469
G01 X6.5702 Y-4.8979
G01 X6.5815 Y-4.8919
G01 X6.6800 Y-4.8326
G01 X6.7759 Y-4.7615
G01 X6.8613 Y-4.6844
G01 X6.8703 Y-4.6753
G01 X6.9474 Y-4.5900
G01 X7.0185 Y-4.4941
G01 X7.0778 Y-4.3955
G01 X7.0838 Y-4.3843
G01 X7.1329 Y-4.2802
G01 X7.1731 Y-4.1678
G01 X7.2012 Y-4.0563
G01 X7.2037 Y-4.0437
G01 X7.2195 Y-3.9369
G01 X7.2207 Y-3.9249
G01 X7.2262 Y-3.8093
G01 X7.2204 Y-3.6901
G01 X7.2027 Y-3.5707
G01 X7.1750 Y-3.4590
G01 X7.1713 Y-3.4468
G01 X7.1349 Y-3.3451
G01 X7.1300 Y-3.3333
G01 X7.0806 Y-3.2294
G01 X7.0210 Y-3.1298
G01 X7.0152 Y-3.1212
G01 X6.9509 Y-3.0345
G01 X6.9428 Y-3.0246
G01 X6.8654 Y-2.9395
G01 X6.7813 Y-2.8631
G01 X6.7745 Y-2.8574
G01 X6.6800 Y-2.7874
G01 X6.5793 Y-2.7269
G01 X6.5702 Y-2.7221
G01 X6.4703 Y-2.6749
G01 X6.4614 Y-2.6713
G01 X6.4264 Y-2.6587
G01 X6.4264 Y-2.6558
G01 X6.4961 Y-2.6228
G01 X6.5040 Y-2.6187
G01 X6.5937 Y-2.5650
G01 X6.6022 Y-2.5592
G01 X6.6810 Y-2.5007
G01 X6.6880 Y-2.4952
G01 X6.7636 Y-2.4267
G01 X6.7727 Y-2.4177
G01 X6.8432 Y-2.3396
G01 X6.9066 Y-2.2542
G01 X6.9122 Y-2.2456
G01 X6.9662 Y-2.1553
G01 X7.0107 Y-2.0615
G01 X7.0156 Y-2.0496
G01 X7.0504 Y-1.9518
G01 X7.0762 Y-1.8498
G01 X7.0787 Y-1.8373
G01 X7.0939 Y-1.7331
G01 X7.0992 Y-1.6294
G01 X7.0992 Y-1.6167
G01 X7.0938 Y-1.5116
G01 X7.0787 Y-1.4088
G01 X7.0762 Y-1.3963
G01 X7.0504 Y-1.2943
G01 X7.0156 Y-1.1965
G01 X7.0107 Y-1.1846
G01 X6.9662 Y-1.0908
G01 X6.9122 Y-1.0005
G01 X6.9051 Y-0.9898
G01 X6.8423 Y-0.9054
G01 X6.7727 Y-0.8284
G01 X6.7636 Y-0.8194
G01 X6.6855 Y-0.7489
G01 X6.5976 Y-0.6836
G01 X6.5025 Y-0.6265
G01 X6.4022 Y-0.5790
G01 X6.2978 Y-0.5416
G01 X6.1902 Y-0.5146
G01 X6.0805 Y-0.4982
G01 X5.9697 Y-0.4927
G01 X5.8589 Y-0.4981
G01 X5.7492 Y-0.5143
G01 X5.6416 Y-0.5412
G01 X5.5371 Y-0.5785
G01 X5.4368 Y-0.6259
G01 X5.3416 Y-0.6828
G01 X5.2525 Y-0.7489
G01 X5.1702 Y-0.8233
G01 X5.0957 Y-0.9054
G01 X5.0296 Y-0.9945
G01 X4.9725 Y-1.0896
G01 X4.9250 Y-1.1898
G01 X4.8876 Y-1.2943
G01 X4.8605 Y-1.4018
G01 X4.8442 Y-1.5116
G01 X4.8387 Y-1.6223
G01 X4.8441 Y-1.7331
G01 X4.8597 Y-1.8397
G01 X4.8618 Y-1.8498
G01 X4.8876 Y-1.9518
G01 X4.9224 Y-2.0496
G01 X4.9273 Y-2.0615
G01 X4.9718 Y-2.1553
G01 X5.0258 Y-2.2456
G01 X5.0329 Y-2.2563
G01 X5.0948 Y-2.3396
G01 X5.1653 Y-2.4177
G01 X5.1744 Y-2.4267
G01 X5.2525 Y-2.4972
G01 X5.3358 Y-2.5592
G01 X5.3464 Y-2.5663
G01 X5.4355 Y-2.6196
G01 X5.5306 Y-2.6647
G01 X5.5388 Y-2.6683
G01 X5.3060 Y-2.6091
G01 X5.3164 Y-2.6158
G01 X5.4022 Y-2.6672
G01 X5.3921 Y-2.6721
G01 X5.3834 Y-2.6768
G01 X5.3037 Y-2.7245
G01 X5.3080 Y-2.7076
G01 X5.3104 Y-2.6957
G01 X5.3121 Y-2.6823
G01 X5.3129 Y-2.6688
G01 X5.3127 Y-2.6553
G01 X5.3116 Y-2.6425
G01 X5.3060 Y-2.6091
G00 Z1.0000
G00 X4.6521 Y-3.2443
G01 F25.00
G01 Z-0.0480
G01 F120.00
G01 X4.6725 Y-3.2516
G01 X4.6898 Y-3.2563
G01 X4.7088 Y-3.2594
G01 X4.7273 Y-3.2606
G01 X4.7773 Y-3.2594
G01 X4.7936 Y-3.2580
G01 X4.8055 Y-3.2560
G01 X4.8168 Y-3.2534
G01 X4.8284 Y-3.2500
G01 X4.8390 Y-3.2461
G01 X4.8089 Y-3.3099
G01 X4.8024 Y-3.3256
G01 X4.7641 Y-3.4330
G01 X4.7608 Y-3.4446
G01 X4.7460 Y-3.5036
G01 X4.7312 Y-3.4446
G01 X4.7279 Y-3.4330
G01 X4.6894 Y-3.3253
G01 X4.6831 Y-3.3099
G01 X4.6521 Y-3.2443
G01 X4.7460 Y-4.1164
G01 X4.7608 Y-4.1754
G01 X4.7641 Y-4.1870
G01 X4.8024 Y-4.2944
G01 X4.8089 Y-4.3101
G01 X4.8390 Y-4.3739
G01 X4.8284 Y-4.3700
G01 X4.8168 Y-4.3665
G01 X4.8055 Y-4.3639
G01 X4.7936 Y-4.3620
G01 X4.7773 Y-4.3606
G01 X4.7273 Y-4.3594
G01 X4.7088 Y-4.3606
G01 X4.6898 Y-4.3637
G01 X4.6725 Y-4.3684
G01 X4.6521 Y-4.3757
G01 X4.6831 Y-4.3101
G01 X4.6894 Y-4.2947
G01 X4.7279 Y-4.1870
G01 X4.7312 Y-4.1754
G01 X4.7460 Y-4.1164
G00 Z1.0000
G00 X2.2460 Y-3.5041
G01 F25.00
G01 Z-0.0480
G01 F120.00
G01 X2.2311 Y-3.4446
G01 X2.2277 Y-3.4330
G01 X2.1893 Y-3.3253
G01 X2.1830 Y-3.3099
G01 X2.1520 Y-3.2443
G01 X2.1727 Y-3.2518
G01 X2.1902 Y-3.2565
G01 X2.2088 Y-3.2595
G01 X2.2195 Y-3.2603
G01 X2.2286 Y-3.2606
G01 X2.2769 Y-3.2594
G01 X2.2937 Y-3.2579
G01 X2.3054 Y-3.2560
G01 X2.3166 Y-3.2534
G01 X2.3280 Y-3.2500
G01 X2.3393 Y-3.2459
G01 X2.3090 Y-3.3099
G01 X2.3025 Y-3.3256
G01 X2.2642 Y-3.4330
G01 X2.2609 Y-3.4446
G01 X2.2460 Y-3.5041
G00 Z1.0000
G00 X2.0062 Y-4.6081
G01 F25.00
G01 Z-0.0480
G01 F120.00
G01 X2.0617 Y-4.5333
G01 X2.0678 Y-4.5245
G01 X2.1277 Y-4.4250
G01 X2.1356 Y-4.4103
G01 X2.1825 Y-4.3111
G01 X2.1883 Y-4.2974
G01 X2.2277 Y-4.1870
G01 X2.2311 Y-4.1754
G01 X2.2460 Y-4.1159
G01 X2.2609 Y-4.1754
G01 X2.2642 Y-4.1870
G01 X2.3025 Y-4.2944
G01 X2.3075 Y-4.3068
G01 X2.0062 Y-4.6081
G01 X1.4389 Y-5.0183
G01 X1.4813 Y-5.0031
G01 X1.4925 Y-4.9986
G01 X1.5949 Y-4.9503
G01 X1.6060 Y-4.9446
G01 X1.7110 Y-4.8815
G01 X1.7940 Y-4.8203
G01 X1.5960 Y-5.0183
G01 X1.4389 Y-5.0183
G01 X0.1711 Y-4.9604
G01 X0.1787 Y-4.9450
G01 X0.1854 Y-4.9284
G01 X0.1905 Y-4.9129
G01 X0.1963 Y-4.8913
G01 X0.2475 Y-4.9289
G01 X0.2576 Y-4.9354
G01 X0.2994 Y-4.9604
G01 X0.1711 Y-4.9604
G01 X0.0531 Y-5.0183
G01 X0.0650 Y-5.0074
G01 X0.0760 Y-4.9955
G01 X0.0831 Y-4.9864
G01 X0.1061 Y-4.9551
G01 X0.1123 Y-4.9461
G01 X0.1185 Y-4.9358
G01 X0.1239 Y-4.9254
G01 X0.1285 Y-4.9151
G01 X0.1326 Y-4.9042
G01 X0.1361 Y-4.8926
G01 X0.1469 Y-4.8510
G01 X0.1497 Y-4.8371
G01 X0.1515 Y-4.8230
G01 X0.1522 Y-4.8089
G01 X0.1518 Y-4.7948
G01 X0.1504 Y-4.7805
G01 X0.1741 Y-4.8019
G01 X0.1828 Y-4.8091
G01 X0.2770 Y-4.8789
G01 X0.2877 Y-4.8859
G01 X0.3815 Y-4.9421
G01 X0.3966 Y-4.9501
G01 X0.3969 Y-4.9503
G01 X0.4945 Y-4.9964
G01 X0.4980 Y-4.9981
G01 X0.5102 Y-5.0030
G01 X0.5530 Y-5.0183
G01 X0.0531 Y-5.0183
G00 Z1.0000
G00 X-0.2674 Y-4.4753
G01 F25.00
G01 Z-0.0480
G01 F120.00
G01 X-0.2746 Y-4.4753
G01 X-0.2818 Y-4.4761
G01 X-0.2888 Y-4.4776
G01 X-0.2957 Y-4.4798
G01 X-0.3371 Y-4.4956
G01 X-0.3464 Y-4.5007
G01 X-0.3548 Y-4.5071
G01 X-0.3864 Y-4.5364
G01 X-0.3922 Y-4.5429
G01 X-0.4727 Y-4.6536
G01 X-0.5005 Y-4.6838
G01 X-0.5068 Y-4.6921
G01 X-0.5289 Y-4.7281
G01 X-0.5322 Y-4.7345
G01 X-0.5342 Y-4.7394
G01 X-0.5359 Y-4.7445
G01 X-0.5376 Y-4.7515
G01 X-0.5444 Y-4.7953
G01 X-0.5447 Y-4.8074
G01 X-0.5430 Y-4.8194
G01 X-0.5335 Y-4.8604
G01 X-0.5305 Y-4.8689
G01 X-0.5265 Y-4.8770
G01 X-0.5007 Y-4.9150
G01 X-0.4974 Y-4.9193
G01 X-0.4925 Y-4.9246
G01 X-0.4871 Y-4.9293
G01 X-0.4828 Y-4.9325
G01 X-0.4482 Y-4.9549
G01 X-0.4387 Y-4.9601
G01 X-0.4319 Y-4.9627
G01 X-0.4267 Y-4.9643
G01 X-0.3850 Y-4.9727
G01 X-0.3762 Y-4.9739
G01 X-0.1377 Y-4.9741
G01 X-0.1275 Y-4.9734
G01 X-0.0848 Y-4.9654
G01 X-0.0778 Y-4.9635
G01 X-0.0693 Y-4.9601
G01 X-0.0613 Y-4.9557
G01 X-0.0263 Y-4.9334
G01 X-0.0180 Y-4.9265
G01 X-0.0108 Y-4.9185
G01 X0.0137 Y-4.8851
G01 X0.0167 Y-4.8805
G01 X0.0201 Y-4.8740
G01 X0.0239 Y-4.8638
G01 X0.0352 Y-4.8196
G01 X0.0362 Y-4.8106
G01 X0.0362 Y-4.8015
G01 X0.0310 Y-4.7585
G01 X0.0296 Y-4.7514
G01 X0.0280 Y-4.7461
G01 X0.0238 Y-4.7361
G01 X0.0038 Y-4.6994
G01 X-0.0009 Y-4.6923
G01 X-0.0820 Y-4.5935
G01 X-0.1070 Y-4.5540
G01 X-0.1112 Y-4.5481
G01 X-0.1160 Y-4.5426
G01 X-0.1468 Y-4.5109
G01 X-0.1552 Y-4.5044
G01 X-0.1629 Y-4.5000
G01 X-0.2022 Y-4.4828
G01 X-0.2106 Y-4.4797
G01 X-0.2176 Y-4.4780
G01 X-0.2247 Y-4.4770
G01 X-0.2674 Y-4.4753
G01 X-0.2652 Y-4.4174
G01 X-0.2774 Y-4.4175
G01 X-0.2903 Y-4.4188
G01 X-0.3012 Y-4.4210
G01 X-0.3136 Y-4.4247
G01 X-0.3533 Y-4.4396
G01 X-0.3636 Y-4.4440
G01 X-0.3775 Y-4.4518
G01 X-0.3903 Y-4.4612
G01 X-0.4263 Y-4.4945
G01 X-0.4358 Y-4.5048
G01 X-0.4412 Y-4.5117
G01 X-0.5176 Y-4.6168
G01 X-0.5445 Y-4.6461
G01 X-0.5540 Y-4.6585
G01 X-0.5793 Y-4.6996
G01 X-0.5846 Y-4.7098
G01 X-0.5883 Y-4.7187
G01 X-0.5914 Y-4.7278
G01 X-0.5940 Y-4.7386
G01 X-0.6015 Y-4.7852
G01 X-0.6025 Y-4.7945
G01 X-0.6028 Y-4.8038
G01 X-0.6023 Y-4.8146
G01 X-0.6011 Y-4.8238
G01 X-0.5902 Y-4.8724
G01 X-0.5881 Y-4.8800
G01 X-0.5848 Y-4.8891
G01 X-0.5800 Y-4.8996
G01 X-0.5746 Y-4.9094
G01 X-0.5492 Y-4.9468
G01 X-0.5443 Y-4.9535
G01 X-0.5392 Y-4.9595
G01 X-0.5287 Y-4.9700
G01 X-0.5212 Y-4.9762
G01 X-0.5148 Y-4.9808
G01 X-0.4735 Y-5.0073
G01 X-0.4648 Y-5.0118
G01 X-0.4558 Y-5.0157
G01 X-0.4465 Y-5.0189
G01 X-0.4384 Y-5.0210
G01 X-0.3925 Y-5.0302
G01 X-0.3830 Y-5.0314
G01 X-0.3748 Y-5.0319
G01 X-0.1353 Y-5.0320
G01 X-0.1262 Y-5.0315
G01 X-0.1171 Y-5.0304
G01 X-0.0751 Y-5.0225
G01 X-0.0638 Y-5.0197
G01 X-0.0513 Y-5.0154
G01 X-0.0410 Y-5.0107
G01 X-0.0302 Y-5.0046
G01 X0.0051 Y-4.9821
G01 X0.0129 Y-4.9764
G01 X0.0203 Y-4.9701
G01 X0.0293 Y-4.9608
G01 X0.0370 Y-4.9513
G01 X0.0617 Y-4.9176
G01 X0.0662 Y-4.9105
G01 X0.0709 Y-4.9019
G01 X0.0762 Y-4.8898
G01 X0.0797 Y-4.8791
G01 X0.0910 Y-4.8357
G01 X0.0926 Y-4.8275
G01 X0.0936 Y-4.8195
G01 X0.0943 Y-4.8065
G01 X0.0937 Y-4.7949
G01 X0.0886 Y-4.7526
G01 X0.0866 Y-4.7411
G01 X0.0827 Y-4.7271
G01 X0.0798 Y-4.7192
G01 X0.0765 Y-4.7119
G01 X0.0543 Y-4.6711
G01 X0.0470 Y-4.6596
G01 X0.0418 Y-4.6529
G01 X-0.0350 Y-4.5594
G01 X-0.0595 Y-4.5208
G01 X-0.0662 Y-4.5117
G01 X-0.0738 Y-4.5029
G01 X-0.1063 Y-4.4695
G01 X-0.1136 Y-4.4632
G01 X-0.1201 Y-4.4583
G01 X-0.1281 Y-4.4531
G01 X-0.1349 Y-4.4493
G01 X-0.1790 Y-4.4297
G01 X-0.1904 Y-4.4253
G01 X-0.2029 Y-4.4219
G01 X-0.2171 Y-4.4196
G01 X-0.2253 Y-4.4190
G01 X-0.2652 Y-4.4174
G01 X-0.2540 Y-4.1164
G01 X-0.2392 Y-4.1754
G01 X-0.2359 Y-4.1870
G01 X-0.1975 Y-4.2947
G01 X-0.1911 Y-4.3101
G01 X-0.1606 Y-4.3746
G01 X-0.1720 Y-4.3704
G01 X-0.1830 Y-4.3672
G01 X-0.1945 Y-4.3645
G01 X-0.2059 Y-4.3626
G01 X-0.2223 Y-4.3611
G01 X-0.2238 Y-4.3610
G01 X-0.2629 Y-4.3595
G01 X-0.2633 Y-4.3595
G01 X-0.2715 Y-4.3594
G01 X-0.2902 Y-4.3604
G01 X-0.2995 Y-4.3617
G01 X-0.3101 Y-4.3636
G01 X-0.3268 Y-4.3681
G01 X-0.3479 Y-4.3757
G01 X-0.3169 Y-4.3101
G01 X-0.3105 Y-4.2947
G01 X-0.2721 Y-4.1870
G01 X-0.2688 Y-4.1754
G01 X-0.2540 Y-4.1164
G01 X-0.1609 Y-3.2460
G01 X-0.1911 Y-3.3099
G01 X-0.1975 Y-3.3253
G01 X-0.2359 Y-3.4330
G01 X-0.2392 Y-3.4446
G01 X-0.2540 Y-3.5036
G01 X-0.2688 Y-3.4446
G01 X-0.2721 Y-3.4330
G01 X-0.3105 Y-3.3253
G01 X-0.3169 Y-3.3099
G01 X-0.3479 Y-3.2443
G01 X-0.3271 Y-3.2518
G01 X-0.3096 Y-3.2565
G01 X-0.2911 Y-3.2595
G01 X-0.2821 Y-3.2602
G01 X-0.2713 Y-3.2606
G01 X-0.2230 Y-3.2594
G01 X-0.2062 Y-3.2579
G01 X-0.1945 Y-3.2560
G01 X-0.1833 Y-3.2534
G01 X-0.1719 Y-3.2500
G01 X-0.1609 Y-3.2460
G00 Z1.0000
G00 X-0.8074 Y-4.9604
G01 F25.00
G01 Z-0.0480
G01 F120.00
G01 X-0.7656 Y-4.9354
G01 X-0.7555 Y-4.9289
G01 X-0.7047 Y-4.8916
G01 X-0.7002 Y-4.9095
G01 X-0.6944 Y-4.9269
G01 X-0.6873 Y-4.9438
G01 X-0.6789 Y-4.9604
G01 X-0.8074 Y-4.9604
G01 X-1.0610 Y-5.0183
G01 X-1.0182 Y-5.0030
G01 X-1.0060 Y-4.9981
G01 X-0.9046 Y-4.9501
G01 X-0.8895 Y-4.9421
G01 X-0.7957 Y-4.8859
G01 X-0.7850 Y-4.8789
G01 X-0.6908 Y-4.8091
G01 X-0.6821 Y-4.8019
G01 X-0.6594 Y-4.7814
G01 X-0.6605 Y-4.7948
G01 X-0.6606 Y-4.8083
G01 X-0.6598 Y-4.8217
G01 X-0.6582 Y-4.8334
G01 X-0.6560 Y-4.8450
G01 X-0.6460 Y-4.8881
G01 X-0.6424 Y-4.9002
G01 X-0.6377 Y-4.9127
G01 X-0.6316 Y-4.9261
G01 X-0.6240 Y-4.9396
G01 X-0.5943 Y-4.9833
G01 X-0.5870 Y-4.9927
G01 X-0.5789 Y-5.0018
G01 X-0.5705 Y-5.0102
G01 X-0.5613 Y-5.0183
G01 X-1.0610 Y-5.0183
G01 X-2.3288 Y-4.9604
G01 X-2.3212 Y-4.9450
G01 X-2.3144 Y-4.9284
G01 X-2.3093 Y-4.9128
G01 X-2.3036 Y-4.8913
G01 X-2.2524 Y-4.9289
G01 X-2.2422 Y-4.9354
G01 X-2.2005 Y-4.9604
G01 X-2.3288 Y-4.9604
G01 X-2.4468 Y-5.0183
G01 X-2.4349 Y-5.0074
G01 X-2.4239 Y-4.9955
G01 X-2.4168 Y-4.9865
G01 X-2.3938 Y-4.9551
G01 X-2.3876 Y-4.9461
G01 X-2.3814 Y-4.9358
G01 X-2.3760 Y-4.9254
G01 X-2.3714 Y-4.9151
G01 X-2.3673 Y-4.9041
G01 X-2.3638 Y-4.8926
G01 X-2.3530 Y-4.8509
G01 X-2.3502 Y-4.8371
G01 X-2.3484 Y-4.8230
G01 X-2.3477 Y-4.8089
G01 X-2.3481 Y-4.7948
G01 X-2.3495 Y-4.7805
G01 X-2.3258 Y-4.8019
G01 X-2.3170 Y-4.8091
G01 X-2.2229 Y-4.8789
G01 X-2.2121 Y-4.8859
G01 X-2.1183 Y-4.9421
G01 X-2.1033 Y-4.9501
G01 X-2.1029 Y-4.9503
G01 X-2.0054 Y-4.9964
G01 X-2.0018 Y-4.9981
G01 X-1.9896 Y-5.0030
G01 X-1.9469 Y-5.0183
G01 X-2.4468 Y-5.0183
G00 Z1.0000
G00 X-2.7673 Y-4.4753
G01 F25.00
G01 Z-0.0480
G01 F120.00
G01 X-2.7744 Y-4.4753
G01 X-2.7815 Y-4.4761
G01 X-2.7885 Y-4.4776
G01 X-2.7952 Y-4.4797
G01 X-2.8374 Y-4.4955
G01 X-2.8470 Y-4.5008
G01 X-2.8556 Y-4.5075
G01 X-2.8866 Y-4.5368
G01 X-2.8922 Y-4.5431
G01 X-2.9725 Y-4.6536
G01 X-3.0003 Y-4.6838
G01 X-3.0066 Y-4.6921
G01 X-3.0288 Y-4.7281
G01 X-3.0321 Y-4.7345
G01 X-3.0341 Y-4.7394
G01 X-3.0363 Y-4.7463
G01 X-3.0374 Y-4.7515
G01 X-3.0443 Y-4.7954
G01 X-3.0446 Y-4.8061
G01 X-3.0437 Y-4.8149
G01 X-3.0349 Y-4.8560
G01 X-3.0319 Y-4.8663
G01 X-3.0298 Y-4.8713
G01 X-3.0264 Y-4.8777
G01 X-3.0001 Y-4.9157
G01 X-2.9929 Y-4.9240
G01 X-2.9889 Y-4.9278
G01 X-2.9831 Y-4.9322
G01 X-2.9490 Y-4.9546
G01 X-2.9399 Y-4.9597
G01 X-2.9351 Y-4.9617
G01 X-2.9284 Y-4.9639
G01 X-2.8847 Y-4.9727
G01 X-2.8760 Y-4.9739
G01 X-2.6375 Y-4.9741
G01 X-2.6274 Y-4.9734
G01 X-2.5847 Y-4.9654
G01 X-2.5776 Y-4.9635
G01 X-2.5691 Y-4.9601
G01 X-2.5611 Y-4.9557
G01 X-2.5261 Y-4.9334
G01 X-2.5178 Y-4.9265
G01 X-2.5106 Y-4.9185
G01 X-2.4861 Y-4.8851
G01 X-2.4823 Y-4.8789
G01 X-2.4798 Y-4.8740
G01 X-2.4760 Y-4.8638
G01 X-2.4647 Y-4.8196
G01 X-2.4636 Y-4.8106
G01 X-2.4637 Y-4.8016
G01 X-2.4689 Y-4.7586
G01 X-2.4713 Y-4.7479
G01 X-2.4738 Y-4.7410
G01 X-2.4761 Y-4.7360
G01 X-2.4961 Y-4.6994
G01 X-2.5007 Y-4.6923
G01 X-2.5818 Y-4.5935
G01 X-2.6069 Y-4.5540
G01 X-2.6118 Y-4.5471
G01 X-2.6163 Y-4.5421
G01 X-2.6478 Y-4.5104
G01 X-2.6550 Y-4.5048
G01 X-2.6628 Y-4.5002
G01 X-2.7017 Y-4.4829
G01 X-2.7102 Y-4.4798
G01 X-2.7173 Y-4.4780
G01 X-2.7245 Y-4.4770
G01 X-2.7673 Y-4.4753
G01 X-2.7650 Y-4.4174
G01 X-2.7771 Y-4.4175
G01 X-2.7899 Y-4.4188
G01 X-2.8007 Y-4.4209
G01 X-2.8130 Y-4.4245
G01 X-2.8531 Y-4.4394
G01 X-2.8638 Y-4.4440
G01 X-2.8710 Y-4.4477
G01 X-2.8781 Y-4.4520
G01 X-2.8847 Y-4.4566
G01 X-2.8913 Y-4.4618
G01 X-2.9269 Y-4.4952
G01 X-2.9360 Y-4.5051
G01 X-2.9411 Y-4.5117
G01 X-3.0174 Y-4.6168
G01 X-3.0443 Y-4.6461
G01 X-3.0539 Y-4.6585
G01 X-3.0792 Y-4.6996
G01 X-3.0845 Y-4.7098
G01 X-3.0882 Y-4.7187
G01 X-3.0917 Y-4.7292
G01 X-3.0939 Y-4.7386
G01 X-3.1014 Y-4.7853
G01 X-3.1024 Y-4.7949
G01 X-3.1026 Y-4.8045
G01 X-3.1022 Y-4.8141
G01 X-3.1010 Y-4.8237
G01 X-3.0910 Y-4.8707
G01 X-3.0884 Y-4.8801
G01 X-3.0852 Y-4.8892
G01 X-3.0791 Y-4.9022
G01 X-3.0710 Y-4.9154
G01 X-3.0452 Y-4.9521
G01 X-3.0379 Y-4.9608
G01 X-3.0295 Y-4.9691
G01 X-3.0234 Y-4.9743
G01 X-3.0155 Y-4.9802
G01 X-2.9749 Y-5.0067
G01 X-2.9666 Y-5.0111
G01 X-2.9579 Y-5.0150
G01 X-2.9491 Y-5.0182
G01 X-2.9400 Y-5.0207
G01 X-2.8935 Y-5.0300
G01 X-2.8858 Y-5.0311
G01 X-2.8763 Y-5.0319
G01 X-2.6352 Y-5.0320
G01 X-2.6260 Y-5.0315
G01 X-2.6170 Y-5.0304
G01 X-2.5750 Y-5.0225
G01 X-2.5622 Y-5.0193
G01 X-2.5512 Y-5.0154
G01 X-2.5409 Y-5.0107
G01 X-2.5301 Y-5.0046
G01 X-2.4948 Y-4.9821
G01 X-2.4870 Y-4.9764
G01 X-2.4796 Y-4.9701
G01 X-2.4705 Y-4.9608
G01 X-2.4629 Y-4.9513
G01 X-2.4382 Y-4.9176
G01 X-2.4329 Y-4.9093
G01 X-2.4289 Y-4.9019
G01 X-2.4237 Y-4.8898
G01 X-2.4201 Y-4.8791
G01 X-2.4089 Y-4.8356
G01 X-2.4073 Y-4.8274
G01 X-2.4062 Y-4.8195
G01 X-2.4056 Y-4.8080
G01 X-2.4061 Y-4.7949
G01 X-2.4112 Y-4.7526
G01 X-2.4132 Y-4.7411
G01 X-2.4171 Y-4.7271
G01 X-2.4201 Y-4.7192
G01 X-2.4234 Y-4.7119
G01 X-2.4455 Y-4.6711
G01 X-2.4529 Y-4.6596
G01 X-2.4581 Y-4.6529
G01 X-2.5348 Y-4.5594
G01 X-2.5593 Y-4.5210
G01 X-2.5665 Y-4.5111
G01 X-2.5745 Y-4.5020
G01 X-2.6077 Y-4.4685
G01 X-2.6141 Y-4.4631
G01 X-2.6205 Y-4.4583
G01 X-2.6275 Y-4.4537
G01 X-2.6345 Y-4.4497
G01 X-2.6420 Y-4.4460
G01 X-2.6789 Y-4.4297
G01 X-2.6912 Y-4.4251
G01 X-2.7039 Y-4.4217
G01 X-2.7168 Y-4.4196
G01 X-2.7252 Y-4.4190
G01 X-2.7650 Y-4.4174
G01 X-2.6605 Y-4.3746
G01 X-2.6711 Y-4.3707
G01 X-2.6823 Y-4.3673
G01 X-2.6940 Y-4.3646
G01 X-2.7055 Y-4.3626
G01 X-2.7222 Y-4.3611
G01 X-2.7713 Y-4.3594
G01 X-2.7898 Y-4.3604
G01 X-2.7990 Y-4.3616
G01 X-2.8095 Y-4.3635
G01 X-2.8274 Y-4.3683
G01 X-2.8480 Y-4.3757
G01 X-2.8170 Y-4.3101
G01 X-2.8107 Y-4.2947
G01 X-2.7722 Y-4.1870
G01 X-2.7689 Y-4.1754
G01 X-2.7540 Y-4.1159
G01 X-2.7391 Y-4.1754
G01 X-2.7357 Y-4.1870
G01 X-2.6973 Y-4.2947
G01 X-2.6910 Y-4.3101
G01 X-2.6605 Y-4.3746
G00 Z1.0000
G00 X-3.3075 Y-4.9604
G01 F25.00
G01 Z-0.0480
G01 F120.00
G01 X-3.2658 Y-4.9354
G01 X-3.2556 Y-4.9289
G01 X-3.2050 Y-4.8917
G01 X-3.2006 Y-4.9094
G01 X-3.1948 Y-4.9268
G01 X-3.1877 Y-4.9437
G01 X-3.1793 Y-4.9604
G01 X-3.3075 Y-4.9604
G01 X-3.5611 Y-5.0183
G01 X-3.5183 Y-5.0030
G01 X-3.5062 Y-4.9981
G01 X-3.4047 Y-4.9501
G01 X-3.3897 Y-4.9421
G01 X-3.2958 Y-4.8859
G01 X-3.2851 Y-4.8789
G01 X-3.1910 Y-4.8091
G01 X-3.1822 Y-4.8019
G01 X-3.1592 Y-4.7812
G01 X-3.1603 Y-4.7937
G01 X-3.1605 Y-4.8068
G01 X-3.1598 Y-4.8193
G01 X-3.1581 Y-4.8331
G01 X-3.1468 Y-4.8864
G01 X-3.1431 Y-4.8992
G01 X-3.1383 Y-4.9124
G01 X-3.1321 Y-4.9257
G01 X-3.1240 Y-4.9401
G01 X-3.0938 Y-4.9838
G01 X-3.0866 Y-4.9931
G01 X-3.0785 Y-5.0021
G01 X-3.0702 Y-5.0104
G01 X-3.0611 Y-5.0183
G01 X-3.5611 Y-5.0183
G01 X-4.8287 Y-4.9604
G01 X-4.8207 Y-4.9442
G01 X-4.8139 Y-4.9274
G01 X-4.8086 Y-4.9108
G01 X-4.8036 Y-4.8913
G01 X-4.7525 Y-4.9289
G01 X-4.7423 Y-4.9354
G01 X-4.7006 Y-4.9604
G01 X-4.8287 Y-4.9604
G01 X-4.8499 Y-4.7802
G01 X-4.8259 Y-4.8019
G01 X-4.8171 Y-4.8091
G01 X-4.7230 Y-4.8789
G01 X-4.7123 Y-4.8859
G01 X-4.6184 Y-4.9421
G01 X-4.6034 Y-4.9501
G01 X-4.6031 Y-4.9503
G01 X-4.5055 Y-4.9964
G01 X-4.5019 Y-4.9981
G01 X-4.4898 Y-5.0030
G01 X-4.4470 Y-5.0183
G01 X-4.9472 Y-5.0183
G01 X-4.9351 Y-5.0072
G01 X-4.9242 Y-4.9954
G01 X-4.8940 Y-4.9556
G01 X-4.8876 Y-4.9463
G01 X-4.8815 Y-4.9363
G01 X-4.8760 Y-4.9257
G01 X-4.8712 Y-4.9151
G01 X-4.8670 Y-4.9038
G01 X-4.8635 Y-4.8920
G01 X-4.8528 Y-4.8487
G01 X-4.8503 Y-4.8353
G01 X-4.8487 Y-4.8217
G01 X-4.8481 Y-4.8081
G01 X-4.8485 Y-4.7944
G01 X-4.8499 Y-4.7802
G00 Z1.0000
G00 X-5.2677 Y-4.4753
G01 F25.00
G01 Z-0.0480
G01 F120.00
G01 X-5.2749 Y-4.4753
G01 X-5.2820 Y-4.4761
G01 X-5.2891 Y-4.4776
G01 X-5.2959 Y-4.4798
G01 X-5.3375 Y-4.4956
G01 X-5.3469 Y-4.5009
G01 X-5.3555 Y-4.5075
G01 X-5.3865 Y-4.5368
G01 X-5.3921 Y-4.5431
G01 X-5.4724 Y-4.6536
G01 X-5.5002 Y-4.6838
G01 X-5.5065 Y-4.6921
G01 X-5.5286 Y-4.7281
G01 X-5.5338 Y-4.7390
G01 X-5.5371 Y-4.7506
G01 X-5.5448 Y-4.7963
G01 X-5.5451 Y-4.8016
G01 X-5.5449 Y-4.8088
G01 X-5.5432 Y-4.8194
G01 X-5.5337 Y-4.8603
G01 X-5.5309 Y-4.8685
G01 X-5.5262 Y-4.8778
G01 X-5.5000 Y-4.9157
G01 X-5.4928 Y-4.9240
G01 X-5.4888 Y-4.9277
G01 X-5.4829 Y-4.9322
G01 X-5.4489 Y-4.9546
G01 X-5.4398 Y-4.9597
G01 X-5.4284 Y-4.9639
G01 X-5.3853 Y-4.9727
G01 X-5.3764 Y-4.9739
G01 X-5.1374 Y-4.9741
G01 X-5.1271 Y-4.9734
G01 X-5.0849 Y-4.9653
G01 X-5.0779 Y-4.9634
G01 X-5.0695 Y-4.9601
G01 X-5.0615 Y-4.9557
G01 X-5.0266 Y-4.9334
G01 X-5.0211 Y-4.9292
G01 X-5.0173 Y-4.9256
G01 X-5.0104 Y-4.9177
G01 X-4.9865 Y-4.8858
G01 X-4.9825 Y-4.8796
G01 X-4.9800 Y-4.8748
G01 X-4.9772 Y-4.8681
G01 X-4.9756 Y-4.8629
G01 X-4.9653 Y-4.8206
G01 X-4.9641 Y-4.8119
G01 X-4.9641 Y-4.8014
G01 X-4.9690 Y-4.7604
G01 X-4.9702 Y-4.7534
G01 X-4.9715 Y-4.7483
G01 X-4.9739 Y-4.7416
G01 X-4.9761 Y-4.7368
G01 X-4.9956 Y-4.7001
G01 X-5.0005 Y-4.6925
G01 X-5.0817 Y-4.5935
G01 X-5.1068 Y-4.5540
G01 X-5.1117 Y-4.5471
G01 X-5.1162 Y-4.5421
G01 X-5.1476 Y-4.5104
G01 X-5.1548 Y-4.5048
G01 X-5.1627 Y-4.5002
G01 X-5.2016 Y-4.4829
G01 X-5.2101 Y-4.4798
G01 X-5.2172 Y-4.4780
G01 X-5.2244 Y-4.4770
G01 X-5.2677 Y-4.4753
G01 X-5.2655 Y-4.4174
G01 X-5.2777 Y-4.4175
G01 X-5.2906 Y-4.4188
G01 X-5.3032 Y-4.4215
G01 X-5.3139 Y-4.4247
G01 X-5.3535 Y-4.4396
G01 X-5.3641 Y-4.4442
G01 X-5.3711 Y-4.4479
G01 X-5.3782 Y-4.4522
G01 X-5.3848 Y-4.4567
G01 X-5.3913 Y-4.4619
G01 X-5.4268 Y-4.4952
G01 X-5.4358 Y-4.5051
G01 X-5.4410 Y-4.5117
G01 X-5.5173 Y-4.6168
G01 X-5.5442 Y-4.6461
G01 X-5.5537 Y-4.6585
G01 X-5.5790 Y-4.6995
G01 X-5.5841 Y-4.7093
G01 X-5.5878 Y-4.7179
G01 X-5.5912 Y-4.7281
G01 X-5.5938 Y-4.7388
G01 X-5.6017 Y-4.7851
G01 X-5.6027 Y-4.7947
G01 X-5.6030 Y-4.8043
G01 X-5.6025 Y-4.8140
G01 X-5.6014 Y-4.8236
G01 X-5.5997 Y-4.8323
G01 X-5.5905 Y-4.8723
G01 X-5.5879 Y-4.8813
G01 X-5.5853 Y-4.8885
G01 X-5.5787 Y-4.9026
G01 X-5.5709 Y-4.9154
G01 X-5.5451 Y-4.9521
G01 X-5.5377 Y-4.9608
G01 X-5.5294 Y-4.9691
G01 X-5.5219 Y-4.9755
G01 X-5.5153 Y-4.9802
G01 X-5.4748 Y-5.0067
G01 X-5.4665 Y-5.0111
G01 X-5.4580 Y-5.0149
G01 X-5.4492 Y-5.0181
G01 X-5.4402 Y-5.0207
G01 X-5.3942 Y-5.0299
G01 X-5.3846 Y-5.0313
G01 X-5.3768 Y-5.0319
G01 X-5.1350 Y-5.0320
G01 X-5.1258 Y-5.0315
G01 X-5.1166 Y-5.0303
G01 X-5.0751 Y-5.0224
G01 X-5.0624 Y-5.0193
G01 X-5.0514 Y-5.0154
G01 X-5.0425 Y-5.0114
G01 X-5.0339 Y-5.0067
G01 X-4.9985 Y-4.9843
G01 X-4.9887 Y-4.9775
G01 X-4.9792 Y-4.9693
G01 X-4.9725 Y-4.9626
G01 X-4.9664 Y-4.9555
G01 X-4.9412 Y-4.9220
G01 X-4.9343 Y-4.9117
G01 X-4.9288 Y-4.9019
G01 X-4.9236 Y-4.8899
G01 X-4.9196 Y-4.8774
G01 X-4.9092 Y-4.8355
G01 X-4.9077 Y-4.8279
G01 X-4.9065 Y-4.8186
G01 X-4.9060 Y-4.8060
G01 X-4.9065 Y-4.7948
G01 X-4.9118 Y-4.7509
G01 X-4.9142 Y-4.7384
G01 X-4.9183 Y-4.7249
G01 X-4.9240 Y-4.7115
G01 X-4.9447 Y-4.6723
G01 X-4.9525 Y-4.6600
G01 X-4.9580 Y-4.6529
G01 X-5.0347 Y-4.5594
G01 X-5.0592 Y-4.5210
G01 X-5.0663 Y-4.5111
G01 X-5.0744 Y-4.5020
G01 X-5.1076 Y-4.4685
G01 X-5.1140 Y-4.4631
G01 X-5.1204 Y-4.4583
G01 X-5.1274 Y-4.4537
G01 X-5.1344 Y-4.4497
G01 X-5.1419 Y-4.4460
G01 X-5.1788 Y-4.4297
G01 X-5.1911 Y-4.4250
G01 X-5.2038 Y-4.4217
G01 X-5.2167 Y-4.4196
G01 X-5.2251 Y-4.4189
G01 X-5.2655 Y-4.4174
G01 X-5.2540 Y-4.1164
G01 X-5.2392 Y-4.1754
G01 X-5.2359 Y-4.1870
G01 X-5.1974 Y-4.2947
G01 X-5.1911 Y-4.3101
G01 X-5.1607 Y-4.3745
G01 X-5.1717 Y-4.3704
G01 X-5.1829 Y-4.3671
G01 X-5.1939 Y-4.3646
G01 X-5.2054 Y-4.3626
G01 X-5.2221 Y-4.3611
G01 X-5.2236 Y-4.3610
G01 X-5.2632 Y-4.3595
G01 X-5.2636 Y-4.3595
G01 X-5.2719 Y-4.3594
G01 X-5.2905 Y-4.3604
G01 X-5.3012 Y-4.3619
G01 X-5.3104 Y-4.3637
G01 X-5.3271 Y-4.3681
G01 X-5.3478 Y-4.3756
G01 X-5.3169 Y-4.3101
G01 X-5.3105 Y-4.2947
G01 X-5.2721 Y-4.1870
G01 X-5.2688 Y-4.1754
G01 X-5.2540 Y-4.1164
G01 X-5.3316 Y-3.8136
G01 X-5.3316 Y-3.8064
G01 X-5.3372 Y-3.6951
G01 X-5.3534 Y-3.5848
G01 X-5.3548 Y-3.5778
G01 X-5.3820 Y-3.4697
G01 X-5.4195 Y-3.3647
G01 X-5.4222 Y-3.3581
G01 X-5.4684 Y-3.2605
G01 X-5.4717 Y-3.2542
G01 X-5.5291 Y-3.1586
G01 X-5.5976 Y-3.0662
G01 X-5.6749 Y-2.9810
G01 X-5.7602 Y-2.9037
G01 X-5.8526 Y-2.8352
G01 X-5.9513 Y-2.7760
G01 X-6.0553 Y-2.7268
G01 X-6.1619 Y-2.6886
G01 X-6.2752 Y-2.6601
G01 X-6.3890 Y-2.6432
G01 X-6.5039 Y-2.6376
G01 X-6.6153 Y-2.6430
G01 X-6.6224 Y-2.6437
G01 X-6.7291 Y-2.6595
G01 X-6.7361 Y-2.6609
G01 X-6.8442 Y-2.6881
G01 X-6.9493 Y-2.7256
G01 X-6.9558 Y-2.7283
G01 X-7.0566 Y-2.7760
G01 X-7.1553 Y-2.8352
G01 X-7.2477 Y-2.9037
G01 X-7.3329 Y-2.9810
G01 X-7.4102 Y-3.0662
G01 X-7.4767 Y-3.1557
G01 X-7.4806 Y-3.1617
G01 X-7.5379 Y-3.2573
G01 X-7.5856 Y-3.3581
G01 X-7.5884 Y-3.3647
G01 X-7.6247 Y-3.4663
G01 X-7.6268 Y-3.4731
G01 X-7.6538 Y-3.5813
G01 X-7.6707 Y-3.6951
G01 X-7.6763 Y-3.8100
G01 X-7.6709 Y-3.9214
G01 X-7.6702 Y-3.9284
G01 X-7.6544 Y-4.0352
G01 X-7.6530 Y-4.0422
G01 X-7.6258 Y-4.1503
G01 X-7.5884 Y-4.2553
G01 X-7.5856 Y-4.2619
G01 X-7.5379 Y-4.3627
G01 X-7.4787 Y-4.4614
G01 X-7.4102 Y-4.5538
G01 X-7.3354 Y-4.6364
G01 X-7.3304 Y-4.6415
G01 X-7.2504 Y-4.7140
G01 X-7.2449 Y-4.7185
G01 X-7.1553 Y-4.7848
G01 X-7.0597 Y-4.8422
G01 X-7.0534 Y-4.8456
G01 X-6.9526 Y-4.8932
G01 X-6.8442 Y-4.9319
G01 X-6.7326 Y-4.9599
G01 X-6.6224 Y-4.9763
G01 X-6.6153 Y-4.9770
G01 X-6.5039 Y-4.9824
G01 X-6.3925 Y-4.9770
G01 X-6.3855 Y-4.9763
G01 X-6.2769 Y-4.9602
G01 X-6.1636 Y-4.9319
G01 X-6.0553 Y-4.8932
G01 X-5.9513 Y-4.8440
G01 X-5.8526 Y-4.7848
G01 X-5.7602 Y-4.7163
G01 X-5.6749 Y-4.6390
G01 X-5.5976 Y-4.5538
G01 X-5.5291 Y-4.4614
G01 X-5.4717 Y-4.3658
G01 X-5.4684 Y-4.3595
G01 X-5.4208 Y-4.2587
G01 X-5.3820 Y-4.1503
G01 X-5.3548 Y-4.0422
G01 X-5.3534 Y-4.0352
G01 X-5.3372 Y-3.9249
G01 X-5.3316 Y-3.8136
G01 X-5.1610 Y-3.2461
G01 X-5.1911 Y-3.3099
G01 X-5.1976 Y-3.3256
G01 X-5.2359 Y-3.4330
G01 X-5.2392 Y-3.4446
G01 X-5.2540 Y-3.5036
G01 X-5.2688 Y-3.4446
G01 X-5.2721 Y-3.4330
G01 X-5.3105 Y-3.3253
G01 X-5.3169 Y-3.3099
G01 X-5.3478 Y-3.2444
G01 X-5.3274 Y-3.2518
G01 X-5.3099 Y-3.2564
G01 X-5.2914 Y-3.2595
G01 X-5.2806 Y-3.2603
G01 X-5.2716 Y-3.2606
G01 X-5.2227 Y-3.2594
G01 X-5.2064 Y-3.2580
G01 X-5.1945 Y-3.2561
G01 X-5.1832 Y-3.2535
G01 X-5.1716 Y-3.2500
G01 X-5.1610 Y-3.2461
G00 Z1.0000
G00 X-4.6947 Y-1.6823
G01 F25.00
G01 Z-0.0480
G01 F120.00
G01 X-4.7019 Y-1.6811
G01 X-4.7092 Y-1.6807
G01 X-4.7165 Y-1.6810
G01 X-4.7219 Y-1.6817
G01 X-4.7659 Y-1.6905
G01 X-4.7746 Y-1.6933
G01 X-4.7844 Y-1.6980
G01 X-4.8248 Y-1.7242
G01 X-4.8301 Y-1.7285
G01 X-4.8511 Y-1.7487
G01 X-4.9626 Y-1.8328
G01 X-5.0834 Y-1.9026
G01 X-5.2118 Y-1.9570
G01 X-5.3460 Y-1.9952
G01 X-5.4835 Y-2.0167
G01 X-5.6228 Y-2.0210
G01 X-5.7617 Y-2.0081
G01 X-5.8978 Y-1.9780
G01 X-6.0290 Y-1.9317
G01 X-6.1651 Y-1.8634
G01 X-6.1987 Y-1.8485
G01 X-6.2053 Y-1.8459
G01 X-6.2122 Y-1.8440
G01 X-6.2192 Y-1.8428
G01 X-6.2590 Y-1.8398
G01 X-6.2711 Y-1.8402
G01 X-6.2813 Y-1.8422
G01 X-6.3177 Y-1.8528
G01 X-6.3277 Y-1.8568
G01 X-6.3355 Y-1.8613
G01 X-6.3655 Y-1.8822
G01 X-6.3739 Y-1.8891
G01 X-6.6676 Y-2.1822
G01 X-6.6743 Y-2.1903
G01 X-6.6981 Y-2.2257
G01 X-6.7023 Y-2.2333
G01 X-6.7056 Y-2.2414
G01 X-6.7079 Y-2.2498
G01 X-6.7163 Y-2.2901
G01 X-6.7171 Y-2.2954
G01 X-6.7175 Y-2.3024
G01 X-6.7173 Y-2.3095
G01 X-6.7163 Y-2.3166
G01 X-6.7089 Y-2.3564
G01 X-6.7059 Y-2.3665
G01 X-6.7032 Y-2.3730
G01 X-6.6998 Y-2.3792
G01 X-6.6765 Y-2.4152
G01 X-6.6709 Y-2.4224
G01 X-6.6658 Y-2.4276
G01 X-6.6602 Y-2.4322
G01 X-6.6222 Y-2.4592
G01 X-6.6126 Y-2.4641
G01 X-6.6040 Y-2.4670
G01 X-6.5619 Y-2.4765
G01 X-6.5550 Y-2.4777
G01 X-6.5481 Y-2.4783
G01 X-6.3897 Y-2.4827
G01 X-6.2394 Y-2.5044
G01 X-6.0924 Y-2.5430
G01 X-5.9503 Y-2.5978
G01 X-5.8160 Y-2.6691
G01 X-5.6902 Y-2.7549
G01 X-5.5755 Y-2.8546
G01 X-5.4724 Y-2.9665
G01 X-5.3941 Y-3.0743
G01 X-5.3899 Y-3.0795
G01 X-5.3853 Y-3.0843
G01 X-5.3568 Y-3.1112
G01 X-5.3499 Y-3.1170
G01 X-5.3423 Y-3.1219
G01 X-5.3342 Y-3.1258
G01 X-5.2943 Y-3.1408
G01 X-5.2876 Y-3.1427
G01 X-5.2825 Y-3.1438
G01 X-5.2773 Y-3.1445
G01 X-5.2704 Y-3.1448
G01 X-5.2272 Y-3.1437
G01 X-5.2181 Y-3.1426
G01 X-5.2076 Y-3.1399
G01 X-5.2008 Y-3.1372
G01 X-5.1605 Y-3.1186
G01 X-5.1516 Y-3.1128
G01 X-5.1436 Y-3.1058
G01 X-5.1162 Y-3.0779
G01 X-5.1113 Y-3.0723
G01 X-5.1070 Y-3.0663
G01 X-5.0818 Y-3.0271
G01 X-4.9854 Y-2.9090
G01 X-4.8765 Y-2.8031
G01 X-4.7561 Y-2.7101
G01 X-4.6211 Y-2.6290
G01 X-4.6123 Y-2.6228
G01 X-4.5832 Y-2.5976
G01 X-4.5780 Y-2.5924
G01 X-4.5745 Y-2.5881
G01 X-4.5694 Y-2.5805
G01 X-4.5517 Y-2.5485
G01 X-4.5493 Y-2.5436
G01 X-4.5466 Y-2.5369
G01 X-4.5443 Y-2.5281
G01 X-4.5378 Y-2.4923
G01 X-4.5367 Y-2.4814
G01 X-4.5367 Y-1.8547
G01 X-4.5375 Y-1.8442
G01 X-4.5460 Y-1.8003
G01 X-4.5479 Y-1.7934
G01 X-4.5505 Y-1.7867
G01 X-4.5556 Y-1.7772
G01 X-4.5784 Y-1.7432
G01 X-4.5817 Y-1.7388
G01 X-4.5864 Y-1.7333
G01 X-4.5917 Y-1.7283
G01 X-4.5975 Y-1.7239
G01 X-4.6315 Y-1.7006
G01 X-4.6409 Y-1.6954
G01 X-4.6475 Y-1.6928
G01 X-4.6544 Y-1.6908
G01 X-4.6947 Y-1.6823
G01 X-4.6828 Y-1.6256
G01 X-4.6950 Y-1.6236
G01 X-4.7063 Y-1.6228
G01 X-4.7179 Y-1.6230
G01 X-4.7292 Y-1.6242
G01 X-4.7806 Y-1.6345
G01 X-4.7949 Y-1.6390
G01 X-4.8070 Y-1.6444
G01 X-4.8184 Y-1.6509
G01 X-4.8590 Y-1.6775
G01 X-4.8686 Y-1.6853
G01 X-4.8887 Y-1.7045
G01 X-4.9946 Y-1.7845
G01 X-5.1093 Y-1.8506
G01 X-5.2311 Y-1.9023
G01 X-5.3584 Y-1.9385
G01 X-5.4889 Y-1.9589
G01 X-5.6211 Y-1.9630
G01 X-5.7527 Y-1.9507
G01 X-5.8818 Y-1.9222
G01 X-6.0063 Y-1.8783
G01 X-6.1398 Y-1.8113
G01 X-6.1788 Y-1.7940
G01 X-6.1865 Y-1.7912
G01 X-6.1957 Y-1.7884
G01 X-6.2065 Y-1.7861
G01 X-6.2178 Y-1.7847
G01 X-6.2569 Y-1.7819
G01 X-6.2724 Y-1.7822
G01 X-6.2834 Y-1.7835
G01 X-6.2938 Y-1.7856
G01 X-6.3322 Y-1.7967
G01 X-6.3408 Y-1.7995
G01 X-6.3540 Y-1.8052
G01 X-6.3668 Y-1.8126
G01 X-6.4006 Y-1.8361
G01 X-6.4070 Y-1.8410
G01 X-6.4133 Y-1.8466
G01 X-6.7072 Y-2.1399
G01 X-6.7142 Y-2.1474
G01 X-6.7211 Y-2.1563
G01 X-6.7482 Y-2.1967
G01 X-6.7534 Y-2.2061
G01 X-6.7573 Y-2.2146
G01 X-6.7606 Y-2.2234
G01 X-6.7637 Y-2.2341
G01 X-6.7734 Y-2.2803
G01 X-6.7748 Y-2.2898
G01 X-6.7754 Y-2.2993
G01 X-6.7753 Y-2.3089
G01 X-6.7746 Y-2.3184
G01 X-6.7732 Y-2.3272
G01 X-6.7657 Y-2.3677
G01 X-6.7615 Y-2.3830
G01 X-6.7563 Y-2.3961
G01 X-6.7488 Y-2.4100
G01 X-6.7239 Y-2.4484
G01 X-6.7169 Y-2.4577
G01 X-6.7103 Y-2.4650
G01 X-6.7032 Y-2.4718
G01 X-6.6957 Y-2.4781
G01 X-6.6571 Y-2.5056
G01 X-6.6501 Y-2.5100
G01 X-6.6431 Y-2.5138
G01 X-6.6294 Y-2.5196
G01 X-6.6219 Y-2.5221
G01 X-6.6131 Y-2.5244
G01 X-6.5721 Y-2.5336
G01 X-6.5598 Y-2.5355
G01 X-6.5498 Y-2.5361
G01 X-6.3947 Y-2.5405
G01 X-6.2509 Y-2.5613
G01 X-6.1102 Y-2.5982
G01 X-5.9744 Y-2.6506
G01 X-5.8460 Y-2.7188
G01 X-5.7257 Y-2.8008
G01 X-5.6159 Y-2.8963
G01 X-5.5173 Y-3.0032
G01 X-5.4410 Y-3.1083
G01 X-5.4350 Y-3.1159
G01 X-5.4256 Y-3.1259
G01 X-5.3924 Y-3.1572
G01 X-5.3836 Y-3.1641
G01 X-5.3755 Y-3.1696
G01 X-5.3670 Y-3.1744
G01 X-5.3565 Y-3.1792
G01 X-5.3097 Y-3.1967
G01 X-5.2976 Y-3.1999
G01 X-5.2852 Y-3.2019
G01 X-5.2696 Y-3.2027
G01 X-5.2250 Y-3.2015
G01 X-5.2119 Y-3.2003
G01 X-5.1990 Y-3.1977
G01 X-5.1896 Y-3.1950
G01 X-5.1804 Y-3.1915
G01 X-5.1389 Y-3.1726
G01 X-5.1265 Y-3.1658
G01 X-5.1161 Y-3.1586
G01 X-5.1041 Y-3.1482
G01 X-5.0744 Y-3.1179
G01 X-5.0677 Y-3.1105
G01 X-5.0597 Y-3.0998
G01 X-5.0348 Y-3.0612
G01 X-4.9426 Y-2.9482
G01 X-4.8385 Y-2.8469
G01 X-4.7234 Y-2.7580
G01 X-4.5864 Y-2.6756
G01 X-4.5750 Y-2.6671
G01 X-4.5461 Y-2.6421
G01 X-4.5399 Y-2.6364
G01 X-4.5302 Y-2.6254
G01 X-4.5215 Y-2.6132
G01 X-4.5006 Y-2.5757
G01 X-4.4950 Y-2.5640
G01 X-4.4910 Y-2.5531
G01 X-4.4877 Y-2.5405
G01 X-4.4804 Y-2.5000
G01 X-4.4791 Y-2.4887
G01 X-4.4788 Y-2.4795
G01 X-4.4788 Y-1.8547
G01 X-4.4791 Y-1.8459
G01 X-4.4801 Y-1.8364
G01 X-4.4901 Y-1.7853
G01 X-4.4932 Y-1.7746
G01 X-4.4979 Y-1.7626
G01 X-4.5015 Y-1.7551
G01 X-4.5064 Y-1.7468
G01 X-4.5304 Y-1.7109
G01 X-4.5366 Y-1.7024
G01 X-4.5442 Y-1.6936
G01 X-4.5524 Y-1.6858
G01 X-4.5626 Y-1.6776
G01 X-4.5993 Y-1.6524
G01 X-4.6132 Y-1.6444
G01 X-4.6250 Y-1.6393
G01 X-4.6373 Y-1.6354
G01 X-4.6828 Y-1.6256
G01 X-4.5504 Y-1.3733
G01 X-4.5504 Y-1.5467
G01 X-4.5695 Y-1.5370
G01 X-4.5891 Y-1.5291
G01 X-4.6078 Y-1.5233
G01 X-4.6165 Y-1.5212
G01 X-4.6202 Y-1.5204
G01 X-4.6203 Y-1.5204
G01 X-4.6302 Y-1.5183
G01 X-4.6285 Y-1.5156
G01 X-4.5831 Y-1.4398
G01 X-4.5791 Y-1.4327
G01 X-4.5724 Y-1.4199
G01 X-4.5504 Y-1.3733
G01 X-4.6302 Y-0.2597
G01 X-4.6078 Y-0.2547
G01 X-4.5891 Y-0.2489
G01 X-4.5696 Y-0.2410
G01 X-4.5504 Y-0.2313
G01 X-4.5504 Y-0.4047
G01 X-4.5724 Y-0.3581
G01 X-4.5791 Y-0.3453
G01 X-4.6302 Y-0.2597
G01 X-4.4924 Y-0.1131
G01 X-4.4924 Y-1.6649
G01 X-4.5003 Y-1.6558
G01 X-4.5093 Y-1.6467
G01 X-4.5180 Y-1.6390
G01 X-4.5286 Y-1.6308
G01 X-4.5728 Y-1.6007
G01 X-4.5856 Y-1.5935
G01 X-4.6005 Y-1.5867
G01 X-4.6136 Y-1.5820
G01 X-4.6270 Y-1.5782
G01 X-4.6323 Y-1.5770
G01 X-4.6709 Y-1.5689
G01 X-4.6712 Y-1.5688
G01 X-4.6834 Y-1.5667
G01 X-4.6975 Y-1.5653
G01 X-4.7099 Y-1.5649
G01 X-4.7234 Y-1.5654
G01 X-4.7372 Y-1.5669
G01 X-4.6828 Y-1.4930
G01 X-4.6328 Y-1.4100
G01 X-4.6279 Y-1.4014
G01 X-4.5829 Y-1.3061
G01 X-4.5793 Y-1.2968
G01 X-4.5495 Y-1.2137
G01 X-4.5492 Y-1.2127
G01 X-4.5444 Y-1.1970
G01 X-4.5227 Y-1.1103
G01 X-4.5191 Y-1.0926
G01 X-4.5049 Y-0.9950
G01 X-4.5000 Y-0.8982
G01 X-4.4998 Y-0.8883
G01 X-4.5049 Y-0.7830
G01 X-4.5191 Y-0.6854
G01 X-4.5227 Y-0.6677
G01 X-4.5444 Y-0.5810
G01 X-4.5492 Y-0.5653
G01 X-4.5829 Y-0.4719
G01 X-4.5863 Y-0.4641
G01 X-4.6241 Y-0.3843
G01 X-4.6279 Y-0.3766
G01 X-4.6328 Y-0.3680
G01 X-4.6828 Y-0.2850
G01 X-4.7373 Y-0.2111
G01 X-4.7234 Y-0.2126
G01 X-4.7099 Y-0.2131
G01 X-4.6975 Y-0.2127
G01 X-4.6834 Y-0.2113
G01 X-4.6712 Y-0.2092
G01 X-4.6270 Y-0.1998
G01 X-4.6136 Y-0.1960
G01 X-4.6006 Y-0.1913
G01 X-4.5856 Y-0.1845
G01 X-4.5729 Y-0.1774
G01 X-4.5287 Y-0.1473
G01 X-4.5180 Y-0.1390
G01 X-4.5139 Y-0.1355
G01 X-4.5122 Y-0.1340
G01 X-4.5109 Y-0.1328
G01 X-4.5093 Y-0.1313
G01 X-4.5003 Y-0.1222
G01 X-4.4924 Y-0.1131
G00 Z1.0000
G00 X-4.6885 Y0.4762
G01 F25.00
G01 Z-0.0480
G01 F120.00
G01 X-4.6953 Y0.4776
G01 X-4.7022 Y0.4782
G01 X-4.7092 Y0.4782
G01 X-4.7161 Y0.4775
G01 X-4.7595 Y0.4710
G01 X-4.7681 Y0.4685
G01 X-4.7780 Y0.4641
G01 X-4.8125 Y0.4444
G01 X-4.8198 Y0.4397
G01 X-4.9057 Y0.3663
G01 X-4.9521 Y0.3358
G01 X-4.9593 Y0.3301
G01 X-4.9907 Y0.2988
G01 X-4.9976 Y0.2904
G01 X-5.0014 Y0.2843
G01 X-5.0039 Y0.2794
G01 X-5.0206 Y0.2411
G01 X-5.0239 Y0.2309
G01 X-5.0256 Y0.2203
G01 X-5.0274 Y0.1764
G01 X-5.0270 Y0.1675
G01 X-5.0255 Y0.1588
G01 X-5.0236 Y0.1520
G01 X-5.0092 Y0.1126
G01 X-5.0053 Y0.1043
G01 X-5.0014 Y0.0981
G01 X-4.9970 Y0.0923
G01 X-4.9675 Y0.0594
G01 X-4.9595 Y0.0524
G01 X-4.8511 Y-0.0294
G01 X-4.8301 Y-0.0495
G01 X-4.8248 Y-0.0538
G01 X-4.7860 Y-0.0791
G01 X-4.7763 Y-0.0840
G01 X-4.7659 Y-0.0875
G01 X-4.7219 Y-0.0962
G01 X-4.7165 Y-0.0970
G01 X-4.7092 Y-0.0973
G01 X-4.7019 Y-0.0969
G01 X-4.6965 Y-0.0961
G01 X-4.6527 Y-0.0868
G01 X-4.6425 Y-0.0833
G01 X-4.6377 Y-0.0810
G01 X-4.6315 Y-0.0774
G01 X-4.5946 Y-0.0520
G01 X-4.5890 Y-0.0473
G01 X-4.5840 Y-0.0420
G01 X-4.5784 Y-0.0348
G01 X-4.5547 Y0.0008
G01 X-4.5498 Y0.0104
G01 X-4.5465 Y0.0206
G01 X-4.5377 Y0.0644
G01 X-4.5367 Y0.0749
G01 X-4.5369 Y0.3094
G01 X-4.5379 Y0.3177
G01 X-4.5454 Y0.3570
G01 X-4.5489 Y0.3686
G01 X-4.5518 Y0.3749
G01 X-4.5552 Y0.3809
G01 X-4.5771 Y0.4150
G01 X-4.5838 Y0.4235
G01 X-4.5890 Y0.4286
G01 X-4.5947 Y0.4331
G01 X-4.6271 Y0.4565
G01 X-4.6361 Y0.4617
G01 X-4.6425 Y0.4645
G01 X-4.6492 Y0.4667
G01 X-4.6885 Y0.4762
G01 X-4.6748 Y0.5325
G01 X-4.6847 Y0.5345
G01 X-4.6940 Y0.5357
G01 X-4.7034 Y0.5362
G01 X-4.7128 Y0.5360
G01 X-4.7238 Y0.5349
G01 X-4.7626 Y0.5292
G01 X-4.7760 Y0.5266
G01 X-4.7900 Y0.5221
G01 X-4.8031 Y0.5163
G01 X-4.8433 Y0.4935
G01 X-4.8562 Y0.4848
G01 X-4.9405 Y0.4127
G01 X-4.9829 Y0.3849
G01 X-4.9937 Y0.3770
G01 X-5.0030 Y0.3685
G01 X-5.0309 Y0.3406
G01 X-5.0375 Y0.3333
G01 X-5.0465 Y0.3215
G01 X-5.0539 Y0.3090
G01 X-5.0578 Y0.3009
G01 X-5.0745 Y0.2622
G01 X-5.0783 Y0.2514
G01 X-5.0810 Y0.2406
G01 X-5.0829 Y0.2294
G01 X-5.0837 Y0.2190
G01 X-5.0853 Y0.1748
G01 X-5.0848 Y0.1638
G01 X-5.0837 Y0.1544
G01 X-5.0818 Y0.1450
G01 X-5.0792 Y0.1358
G01 X-5.0639 Y0.0937
G01 X-5.0607 Y0.0859
G01 X-5.0564 Y0.0771
G01 X-5.0513 Y0.0686
G01 X-5.0468 Y0.0619
G01 X-5.0394 Y0.0528
G01 X-5.0082 Y0.0182
G01 X-5.0023 Y0.0127
G01 X-4.9950 Y0.0066
G01 X-4.8887 Y-0.0736
G01 X-4.8696 Y-0.0918
G01 X-4.8601 Y-0.0997
G01 X-4.8520 Y-0.1054
G01 X-4.8140 Y-0.1298
G01 X-4.8069 Y-0.1336
G01 X-4.7980 Y-0.1377
G01 X-4.7887 Y-0.1412
G01 X-4.7806 Y-0.1435
G01 X-4.7324 Y-0.1532
G01 X-4.7245 Y-0.1544
G01 X-4.7147 Y-0.1551
G01 X-4.7030 Y-0.1550
G01 X-4.6900 Y-0.1537
G01 X-4.6404 Y-0.1434
G01 X-4.6311 Y-0.1408
G01 X-4.6204 Y-0.1368
G01 X-4.6117 Y-0.1328
G01 X-4.6020 Y-0.1273
G01 X-4.5615 Y-0.0995
G01 X-4.5524 Y-0.0922
G01 X-4.5443 Y-0.0844
G01 X-4.5377 Y-0.0770
G01 X-4.5318 Y-0.0692
G01 X-4.5071 Y-0.0325
G01 X-4.5007 Y-0.0213
G01 X-4.4949 Y-0.0082
G01 X-4.4901 Y0.0073
G01 X-4.4808 Y0.0539
G01 X-4.4791 Y0.0679
G01 X-4.4788 Y0.0767
G01 X-4.4788 Y0.3050
G01 X-4.4791 Y0.3141
G01 X-4.4804 Y0.3248
G01 X-4.4881 Y0.3661
G01 X-4.4909 Y0.3776
G01 X-4.4948 Y0.3894
G01 X-4.4999 Y0.4008
G01 X-4.5052 Y0.4101
G01 X-4.5287 Y0.4468
G01 X-4.5333 Y0.4533
G01 X-4.5386 Y0.4598
G01 X-4.5476 Y0.4692
G01 X-4.5576 Y0.4777
G01 X-4.5938 Y0.5038
G01 X-4.6072 Y0.5120
G01 X-4.6186 Y0.5173
G01 X-4.6304 Y0.5215
G01 X-4.6748 Y0.5325
G01 X-4.5504 Y0.7857
G01 X-4.5504 Y0.6130
G01 X-4.5685 Y0.6219
G01 X-4.5864 Y0.6290
G01 X-4.6034 Y0.6343
G01 X-4.6093 Y0.6358
G01 X-4.6098 Y0.6359
G01 X-4.6301 Y0.6409
G01 X-4.5831 Y0.7192
G01 X-4.5828 Y0.7198
G01 X-4.5824 Y0.7204
G01 X-4.5821 Y0.7209
G01 X-4.5810 Y0.7229
G01 X-4.5791 Y0.7263
G01 X-4.5724 Y0.7391
G01 X-4.5504 Y0.7857
G01 X-4.6301 Y1.8991
G01 X-4.6034 Y1.9057
G01 X-4.5864 Y1.9110
G01 X-4.5685 Y1.9181
G01 X-4.5504 Y1.9270
G01 X-4.5504 Y1.7543
G01 X-4.5724 Y1.8009
G01 X-4.5791 Y1.8137
G01 X-4.6301 Y1.8991
G01 X-4.7377 Y1.9486
G01 X-4.7233 Y1.9467
G01 X-4.7090 Y1.9459
G01 X-4.6937 Y1.9462
G01 X-4.6795 Y1.9477
G01 X-4.6641 Y1.9505
G01 X-4.6221 Y1.9607
G01 X-4.6097 Y1.9643
G01 X-4.5989 Y1.9682
G01 X-4.5839 Y1.9749
G01 X-4.5686 Y1.9834
G01 X-4.5588 Y1.9900
G01 X-4.5269 Y2.0129
G01 X-4.5169 Y2.0207
G01 X-4.5082 Y2.0284
G01 X-4.4997 Y2.0369
G01 X-4.4924 Y2.0451
G01 X-4.4924 Y0.4949
G01 X-4.4997 Y0.5031
G01 X-4.5082 Y0.5116
G01 X-4.5169 Y0.5193
G01 X-4.5269 Y0.5271
G01 X-4.5588 Y0.5500
G01 X-4.5686 Y0.5566
G01 X-4.5839 Y0.5651
G01 X-4.5989 Y0.5718
G01 X-4.6097 Y0.5757
G01 X-4.6221 Y0.5793
G01 X-4.6235 Y0.5796
G01 X-4.6611 Y0.5888
G01 X-4.6641 Y0.5895
G01 X-4.6795 Y0.5923
G01 X-4.6937 Y0.5938
G01 X-4.7090 Y0.5941
G01 X-4.7233 Y0.5933
G01 X-4.7377 Y0.5914
G01 X-4.6828 Y0.6660
G01 X-4.6328 Y0.7490
G01 X-4.6279 Y0.7576
G01 X-4.5829 Y0.8529
G01 X-4.5793 Y0.8622
G01 X-4.5495 Y0.9453
G01 X-4.5494 Y0.9457
G01 X-4.5444 Y0.9620
G01 X-4.5227 Y1.0487
G01 X-4.5191 Y1.0664
G01 X-4.5049 Y1.1640
G01 X-4.4998 Y1.2693
G01 X-4.5000 Y1.2792
G01 X-4.5049 Y1.3760
G01 X-4.5191 Y1.4736
G01 X-4.5227 Y1.4913
G01 X-4.5444 Y1.5780
G01 X-4.5492 Y1.5937
G01 X-4.5829 Y1.6871
G01 X-4.5863 Y1.6949
G01 X-4.6241 Y1.7747
G01 X-4.6279 Y1.7824
G01 X-4.6328 Y1.7910
G01 X-4.6828 Y1.8740
G01 X-4.7377 Y1.9486
G00 Z1.0000
G00 X-4.4345 Y2.9127
G01 F25.00
G01 Z-0.0480
G01 F120.00
G01 X-4.4345 Y-2.6587
G01 X-4.4696 Y-2.6713
G01 X-4.4785 Y-2.6749
G01 X-4.5783 Y-2.7221
G01 X-4.5874 Y-2.7269
G01 X-4.6882 Y-2.7874
G01 X-4.7826 Y-2.8574
G01 X-4.7894 Y-2.8631
G01 X-4.8735 Y-2.9395
G01 X-4.9509 Y-3.0246
G01 X-4.9590 Y-3.0345
G01 X-5.0233 Y-3.1212
G01 X-5.0291 Y-3.1298
G01 X-5.0888 Y-3.2294
G01 X-5.1381 Y-3.3333
G01 X-5.1430 Y-3.3451
G01 X-5.1794 Y-3.4468
G01 X-5.1831 Y-3.4590
G01 X-5.2109 Y-3.5707
G01 X-5.2285 Y-3.6901
G01 X-5.2344 Y-3.8093
G01 X-5.2288 Y-3.9267
G01 X-5.2277 Y-3.9369
G01 X-5.2109 Y-4.0493
G01 X-5.1816 Y-4.1665
G01 X-5.1410 Y-4.2802
G01 X-5.0894 Y-4.3893
G01 X-5.0274 Y-4.4929
G01 X-4.9555 Y-4.5900
G01 X-4.8745 Y-4.6795
G01 X-4.7851 Y-4.7606
G01 X-4.6882 Y-4.8326
G01 X-4.5846 Y-4.8947
G01 X-4.4755 Y-4.9464
G01 X-4.3619 Y-4.9871
G01 X-4.2448 Y-5.0165
G01 X-4.1253 Y-5.0343
G01 X-4.0048 Y-5.0403
G01 X-3.8874 Y-5.0347
G01 X-3.8771 Y-5.0336
G01 X-3.7647 Y-5.0168
G01 X-3.6476 Y-4.9875
G01 X-3.5339 Y-4.9469
G01 X-3.4298 Y-4.8979
G01 X-3.4185 Y-4.8919
G01 X-3.3211 Y-4.8334
G01 X-3.2286 Y-4.7650
G01 X-3.2187 Y-4.7569
G01 X-3.1387 Y-4.6844
G01 X-3.1297 Y-4.6753
G01 X-3.0526 Y-4.5900
G01 X-2.9807 Y-4.4929
G01 X-2.9187 Y-4.3893
G01 X-2.8671 Y-4.2802
G01 X-2.8269 Y-4.1678
G01 X-2.7975 Y-4.0507
G01 X-2.7797 Y-3.9313
G01 X-2.7738 Y-3.8125
G01 X-2.7739 Y-3.8036
G01 X-2.7792 Y-3.6958
G01 X-2.7804 Y-3.6831
G01 X-2.7975 Y-3.5693
G01 X-2.8269 Y-3.4522
G01 X-2.8671 Y-3.3398
G01 X-2.9161 Y-3.2357
G01 X-2.9222 Y-3.2245
G01 X-2.9777 Y-3.1319
G01 X-2.9825 Y-3.1244
G01 X-3.0526 Y-3.0300
G01 X-3.1297 Y-2.9447
G01 X-3.1387 Y-2.9356
G01 X-3.2187 Y-2.8631
G01 X-3.2255 Y-2.8574
G01 X-3.3199 Y-2.7874
G01 X-3.4207 Y-2.7269
G01 X-3.4298 Y-2.7221
G01 X-3.5296 Y-2.6749
G01 X-3.5385 Y-2.6713
G01 X-3.5736 Y-2.6587
G01 X-3.5736 Y2.9127
G01 X-3.5385 Y2.9253
G01 X-3.5296 Y2.9289
G01 X-3.4298 Y2.9761
G01 X-3.4207 Y2.9809
G01 X-3.3199 Y3.0414
G01 X-3.2255 Y3.1114
G01 X-3.2187 Y3.1171
G01 X-3.1346 Y3.1935
G01 X-3.0572 Y3.2786
G01 X-3.0491 Y3.2885
G01 X-2.9848 Y3.3752
G01 X-2.9790 Y3.3838
G01 X-2.9187 Y3.4847
G01 X-2.8677 Y3.5925
G01 X-2.8269 Y3.7062
G01 X-2.7988 Y3.8177
G01 X-2.7963 Y3.8303
G01 X-2.7804 Y3.9371
G01 X-2.7792 Y3.9498
G01 X-2.7737 Y4.0647
G01 X-2.7796 Y4.1839
G01 X-2.7963 Y4.2977
G01 X-2.7988 Y4.3103
G01 X-2.8269 Y4.4218
G01 X-2.8671 Y4.5342
G01 X-2.9161 Y4.6383
G01 X-2.9222 Y4.6495
G01 X-2.9815 Y4.7481
G01 X-3.0526 Y4.8440
G01 X-3.1297 Y4.9293
G01 X-3.1387 Y4.9384
G01 X-3.2241 Y5.0155
G01 X-3.3199 Y5.0866
G01 X-3.4185 Y5.1459
G01 X-3.4298 Y5.1519
G01 X-3.5339 Y5.2009
G01 X-3.6445 Y5.2406
G01 X-3.6531 Y5.2430
G01 X-3.7647 Y5.2708
G01 X-3.8771 Y5.2876
G01 X-3.8898 Y5.2889
G01 X-3.9977 Y5.2942
G01 X-4.0104 Y5.2942
G01 X-4.1239 Y5.2885
G01 X-4.2378 Y5.2718
G01 X-4.2503 Y5.2693
G01 X-4.3605 Y5.2415
G01 X-4.4742 Y5.2009
G01 X-4.5846 Y5.1487
G01 X-4.6822 Y5.0904
G01 X-4.6928 Y5.0833
G01 X-4.7795 Y5.0190
G01 X-4.7894 Y5.0109
G01 X-4.8735 Y4.9345
G01 X-4.9509 Y4.8494
G01 X-4.9590 Y4.8395
G01 X-5.0266 Y4.7481
G01 X-5.0894 Y4.6433
G01 X-5.1410 Y4.5342
G01 X-5.1794 Y4.4272
G01 X-5.1831 Y4.4150
G01 X-5.2109 Y4.3033
G01 X-5.2277 Y4.1909
G01 X-5.2289 Y4.1782
G01 X-5.2343 Y4.0665
G01 X-5.2342 Y4.0576
G01 X-5.2285 Y3.9441
G01 X-5.2118 Y3.8303
G01 X-5.2093 Y3.8177
G01 X-5.1831 Y3.7130
G01 X-5.1794 Y3.7008
G01 X-5.1404 Y3.5925
G01 X-5.0888 Y3.4834
G01 X-5.0274 Y3.3811
G01 X-4.9575 Y3.2866
G01 X-4.9509 Y3.2786
G01 X-4.8745 Y3.1945
G01 X-4.7851 Y3.1134
G01 X-4.6882 Y3.0414
G01 X-4.5874 Y2.9809
G01 X-4.5783 Y2.9761
G01 X-4.4785 Y2.9289
G01 X-4.4696 Y2.9253
G01 X-4.4345 Y2.9127
G01 X-4.3766 Y2.9535
G01 X-4.3766 Y-2.6995
G01 X-4.4527 Y-2.7268
G01 X-4.5583 Y-2.7769
G01 X-4.6554 Y-2.8352
G01 X-4.7492 Y-2.9049
G01 X-4.8331 Y-2.9810
G01 X-4.9103 Y-3.0662
G01 X-4.9789 Y-3.1586
G01 X-5.0372 Y-3.2558
G01 X-5.0872 Y-3.3613
G01 X-5.1249 Y-3.4663
G01 X-5.1269 Y-3.4731
G01 X-5.1531 Y-3.5778
G01 X-5.1545 Y-3.5848
G01 X-5.1708 Y-3.6951
G01 X-5.1764 Y-3.8100
G01 X-5.1708 Y-3.9249
G01 X-5.1545 Y-4.0352
G01 X-5.1531 Y-4.0422
G01 X-5.1260 Y-4.1503
G01 X-5.0872 Y-4.2587
G01 X-5.0380 Y-4.3627
G01 X-4.9808 Y-4.4583
G01 X-4.9768 Y-4.4643
G01 X-4.9125 Y-4.5510
G01 X-4.9080 Y-4.5565
G01 X-4.8331 Y-4.6390
G01 X-4.7505 Y-4.7140
G01 X-4.7450 Y-4.7185
G01 X-4.6554 Y-4.7848
G01 X-4.5567 Y-4.8440
G01 X-4.4527 Y-4.8932
G01 X-4.3444 Y-4.9319
G01 X-4.2328 Y-4.9599
G01 X-4.1190 Y-4.9768
G01 X-4.0041 Y-4.9824
G01 X-3.8927 Y-4.9770
G01 X-3.8856 Y-4.9763
G01 X-3.7788 Y-4.9605
G01 X-3.7719 Y-4.9591
G01 X-3.6637 Y-4.9319
G01 X-3.5587 Y-4.8944
G01 X-3.5521 Y-4.8917
G01 X-3.4514 Y-4.8440
G01 X-3.3527 Y-4.7848
G01 X-3.2603 Y-4.7163
G01 X-3.1776 Y-4.6415
G01 X-3.1726 Y-4.6364
G01 X-3.0978 Y-4.5538
G01 X-3.0292 Y-4.4614
G01 X-2.9701 Y-4.3627
G01 X-2.9209 Y-4.2587
G01 X-2.8821 Y-4.1503
G01 X-2.8542 Y-4.0387
G01 X-2.8373 Y-3.9249
G01 X-2.8317 Y-3.8118
G01 X-2.8370 Y-3.6986
G01 X-2.8377 Y-3.6916
G01 X-2.8542 Y-3.5813
G01 X-2.8821 Y-3.4697
G01 X-2.9209 Y-3.3613
G01 X-2.9685 Y-3.2605
G01 X-2.9718 Y-3.2542
G01 X-3.0302 Y-3.1572
G01 X-3.0978 Y-3.0662
G01 X-3.1726 Y-2.9836
G01 X-3.1776 Y-2.9785
G01 X-3.2617 Y-2.9026
G01 X-3.3527 Y-2.8352
G01 X-3.4514 Y-2.7760
G01 X-3.5554 Y-2.7268
G01 X-3.6315 Y-2.6995
G01 X-3.6315 Y2.9535
G01 X-3.5554 Y2.9808
G01 X-3.4514 Y3.0300
G01 X-3.3527 Y3.0892
G01 X-3.2617 Y3.1566
G01 X-3.1776 Y3.2325
G01 X-3.1726 Y3.2376
G01 X-3.0978 Y3.3202
G01 X-3.0283 Y3.4141
G01 X-2.9701 Y3.5113
G01 X-2.9209 Y3.6153
G01 X-2.8821 Y3.7237
G01 X-2.8550 Y3.8318
G01 X-2.8536 Y3.8388
G01 X-2.8377 Y3.9456
G01 X-2.8370 Y3.9526
G01 X-2.8317 Y4.0640
G01 X-2.8373 Y4.1789
G01 X-2.8542 Y4.2927
G01 X-2.8812 Y4.4009
G01 X-2.8832 Y4.4077
G01 X-2.9209 Y4.5127
G01 X-2.9701 Y4.6167
G01 X-3.0273 Y4.7123
G01 X-3.0313 Y4.7183
G01 X-3.0978 Y4.8078
G01 X-3.1750 Y4.8930
G01 X-3.2576 Y4.9680
G01 X-3.2631 Y4.9725
G01 X-3.3527 Y5.0388
G01 X-3.4483 Y5.0962
G01 X-3.4546 Y5.0996
G01 X-3.5554 Y5.1472
G01 X-3.6620 Y5.1854
G01 X-3.7753 Y5.2139
G01 X-3.8891 Y5.2308
G01 X-4.0040 Y5.2364
G01 X-4.1190 Y5.2308
G01 X-4.2328 Y5.2139
G01 X-4.3444 Y5.1859
G01 X-4.4527 Y5.1472
G01 X-4.5567 Y5.0980
G01 X-4.6554 Y5.0388
G01 X-4.7478 Y4.9703
G01 X-4.8331 Y4.8930
G01 X-4.9103 Y4.8078
G01 X-4.9789 Y4.7154
G01 X-5.0380 Y4.6167
G01 X-5.0872 Y4.5127
G01 X-5.1254 Y4.4060
G01 X-5.1539 Y4.2927
G01 X-5.1708 Y4.1789
G01 X-5.1764 Y4.0640
G01 X-5.1708 Y3.9491
G01 X-5.1539 Y3.8353
G01 X-5.1260 Y3.7237
G01 X-5.0872 Y3.6153
G01 X-5.0388 Y3.5129
G01 X-4.9789 Y3.4126
G01 X-4.9103 Y3.3202
G01 X-4.8331 Y3.2350
G01 X-4.7492 Y3.1589
G01 X-4.6554 Y3.0892
G01 X-4.5583 Y3.0309
G01 X-4.4527 Y2.9808
G01 X-4.3766 Y2.9535
G00 Z1.0000
G00 X-5.2540 Y3.7576
G01 F25.00
G01 Z-0.0480
G01 F120.00
G01 X-5.2392 Y3.6986
G01 X-5.2359 Y3.6870
G01 X-5.1974 Y3.5793
G01 X-5.1911 Y3.5639
G01 X-5.1607 Y3.4995
G01 X-5.1717 Y3.5035
G01 X-5.1829 Y3.5069
G01 X-5.1939 Y3.5094
G01 X-5.2055 Y3.5114
G01 X-5.2222 Y3.5129
G01 X-5.2719 Y3.5146
G01 X-5.2827 Y3.5142
G01 X-5.2920 Y3.5134
G01 X-5.3104 Y3.5103
G01 X-5.3271 Y3.5059
G01 X-5.3478 Y3.4984
G01 X-5.3169 Y3.5639
G01 X-5.3105 Y3.5793
G01 X-5.2721 Y3.6870
G01 X-5.2688 Y3.6986
G01 X-5.2540 Y3.7576
G01 X-5.2738 Y4.0576
G01 X-5.2738 Y4.0704
G01 X-5.2796 Y4.1853
G01 X-5.2803 Y4.1909
G01 X-5.2961 Y4.2977
G01 X-5.2986 Y4.3103
G01 X-5.3268 Y4.4218
G01 X-5.3650 Y4.5289
G01 X-5.3698 Y4.5407
G01 X-5.4185 Y4.6433
G01 X-5.4813 Y4.7481
G01 X-5.5533 Y4.8451
G01 X-5.6345 Y4.9345
G01 X-5.7240 Y5.0155
G01 X-5.8210 Y5.0874
G01 X-5.9246 Y5.1494
G01 X-6.0338 Y5.2009
G01 X-6.1475 Y5.2415
G01 X-6.2577 Y5.2693
G01 X-6.2677 Y5.2714
G01 X-6.3840 Y5.2885
G01 X-6.5046 Y5.2943
G01 X-6.6252 Y5.2883
G01 X-6.7376 Y5.2718
G01 X-6.7502 Y5.2693
G01 X-6.8617 Y5.2411
G01 X-6.9688 Y5.2030
G01 X-6.9806 Y5.1981
G01 X-7.0833 Y5.1494
G01 X-7.1820 Y5.0904
G01 X-7.1927 Y5.0833
G01 X-7.2794 Y5.0190
G01 X-7.2893 Y5.0109
G01 X-7.3734 Y4.9345
G01 X-7.4545 Y4.8451
G01 X-7.5265 Y4.7481
G01 X-7.5886 Y4.6446
G01 X-7.6403 Y4.5355
G01 X-7.6811 Y4.4218
G01 X-7.7105 Y4.3047
G01 X-7.7282 Y4.1853
G01 X-7.7342 Y4.0633
G01 X-7.7288 Y3.9498
G01 X-7.7275 Y3.9371
G01 X-7.7117 Y3.8303
G01 X-7.7092 Y3.8177
G01 X-7.6811 Y3.7062
G01 X-7.6429 Y3.5991
G01 X-7.6380 Y3.5873
G01 X-7.5893 Y3.4847
G01 X-7.5273 Y3.3811
G01 X-7.4545 Y3.2829
G01 X-7.3783 Y3.1987
G01 X-7.3693 Y3.1896
G01 X-7.2893 Y3.1171
G01 X-7.2794 Y3.1090
G01 X-7.1869 Y3.0406
G01 X-7.0895 Y2.9821
G01 X-7.0782 Y2.9761
G01 X-6.9754 Y2.9276
G01 X-6.8604 Y2.8865
G01 X-6.7432 Y2.8572
G01 X-6.6309 Y2.8404
G01 X-6.6181 Y2.8391
G01 X-6.5046 Y2.8337
G01 X-6.3897 Y2.8391
G01 X-6.3770 Y2.8404
G01 X-6.2677 Y2.8566
G01 X-6.2577 Y2.8587
G01 X-6.1461 Y2.8869
G01 X-6.0391 Y2.9250
G01 X-6.0272 Y2.9299
G01 X-5.9246 Y2.9786
G01 X-5.8258 Y3.0376
G01 X-5.8152 Y3.0447
G01 X-5.7240 Y3.1125
G01 X-5.6386 Y3.1896
G01 X-5.6295 Y3.1987
G01 X-5.5524 Y3.2840
G01 X-5.4846 Y3.3752
G01 X-5.4775 Y3.3859
G01 X-5.4192 Y3.4834
G01 X-5.3698 Y3.5873
G01 X-5.3663 Y3.5955
G01 X-5.3264 Y3.7075
G01 X-5.2974 Y3.8233
G01 X-5.2796 Y3.9427
G01 X-5.2738 Y4.0576
G01 X-5.3316 Y4.0604
G01 X-5.3316 Y4.0676
G01 X-5.3369 Y4.1754
G01 X-5.3376 Y4.1824
G01 X-5.3540 Y4.2927
G01 X-5.3820 Y4.4043
G01 X-5.4195 Y4.5093
G01 X-5.4222 Y4.5159
G01 X-5.4700 Y4.6167
G01 X-5.5291 Y4.7154
G01 X-5.5955 Y4.8050
G01 X-5.6000 Y4.8105
G01 X-5.6749 Y4.8930
G01 X-5.7575 Y4.9680
G01 X-5.7630 Y4.9725
G01 X-5.8526 Y5.0388
G01 X-5.9513 Y5.0980
G01 X-6.0553 Y5.1472
G01 X-6.1602 Y5.1848
G01 X-6.1670 Y5.1869
G01 X-6.2752 Y5.2139
G01 X-6.3855 Y5.2303
G01 X-6.3925 Y5.2310
G01 X-6.5039 Y5.2364
G01 X-6.6188 Y5.2308
G01 X-6.7291 Y5.2145
G01 X-6.7361 Y5.2131
G01 X-6.8442 Y5.1859
G01 X-6.9493 Y5.1484
G01 X-6.9558 Y5.1457
G01 X-7.0566 Y5.0980
G01 X-7.1523 Y5.0407
G01 X-7.1582 Y5.0368
G01 X-7.2477 Y4.9703
G01 X-7.3304 Y4.8955
G01 X-7.3354 Y4.8904
G01 X-7.4102 Y4.8078
G01 X-7.4797 Y4.7139
G01 X-7.5379 Y4.6167
G01 X-7.5856 Y4.5159
G01 X-7.5884 Y4.5093
G01 X-7.6258 Y4.4043
G01 X-7.6530 Y4.2962
G01 X-7.6544 Y4.2892
G01 X-7.6707 Y4.1789
G01 X-7.6762 Y4.0676
G01 X-7.6762 Y4.0604
G01 X-7.6707 Y3.9491
G01 X-7.6544 Y3.8388
G01 X-7.6530 Y3.8318
G01 X-7.6258 Y3.7237
G01 X-7.5884 Y3.6187
G01 X-7.5856 Y3.6121
G01 X-7.5379 Y3.5113
G01 X-7.4806 Y3.4157
G01 X-7.4767 Y3.4097
G01 X-7.4102 Y3.3202
G01 X-7.3354 Y3.2376
G01 X-7.3304 Y3.2325
G01 X-7.2477 Y3.1577
G01 X-7.1582 Y3.0912
G01 X-7.1523 Y3.0873
G01 X-7.0566 Y3.0300
G01 X-6.9558 Y2.9823
G01 X-6.9493 Y2.9796
G01 X-6.8442 Y2.9421
G01 X-6.7361 Y2.9149
G01 X-6.7291 Y2.9135
G01 X-6.6188 Y2.8972
G01 X-6.5075 Y2.8917
G01 X-6.5004 Y2.8917
G01 X-6.3890 Y2.8972
G01 X-6.2752 Y2.9141
G01 X-6.1636 Y2.9421
G01 X-6.0586 Y2.9796
G01 X-6.0520 Y2.9823
G01 X-5.9513 Y3.0300
G01 X-5.8556 Y3.0873
G01 X-5.8497 Y3.0912
G01 X-5.7630 Y3.1555
G01 X-5.7575 Y3.1600
G01 X-5.6749 Y3.2350
G01 X-5.5965 Y3.3216
G01 X-5.5291 Y3.4126
G01 X-5.4700 Y3.5113
G01 X-5.4208 Y3.6153
G01 X-5.3825 Y3.7220
G01 X-5.3548 Y3.8318
G01 X-5.3534 Y3.8388
G01 X-5.3372 Y3.9491
G01 X-5.3316 Y4.0604
G01 X-5.1610 Y4.6279
G01 X-5.1911 Y4.5641
G01 X-5.1976 Y4.5484
G01 X-5.2359 Y4.4410
G01 X-5.2392 Y4.4294
G01 X-5.2540 Y4.3704
G01 X-5.2688 Y4.4294
G01 X-5.2721 Y4.4410
G01 X-5.3105 Y4.5487
G01 X-5.3169 Y4.5641
G01 X-5.3478 Y4.6296
G01 X-5.3274 Y4.6222
G01 X-5.3099 Y4.6175
G01 X-5.2914 Y4.6145
G01 X-5.2806 Y4.6136
G01 X-5.2716 Y4.6134
G01 X-5.2227 Y4.6146
G01 X-5.2064 Y4.6160
G01 X-5.1945 Y4.6179
G01 X-5.1832 Y4.6205
G01 X-5.1716 Y4.6240
G01 X-5.1610 Y4.6279
G00 Z1.0000
G00 X-2.7540 Y4.3699
G01 F25.00
G01 Z-0.0480
G01 F120.00
G01 X-2.7689 Y4.4294
G01 X-2.7722 Y4.4410
G01 X-2.8107 Y4.5487
G01 X-2.8170 Y4.5641
G01 X-2.8480 Y4.6297
G01 X-2.8263 Y4.6220
G01 X-2.8090 Y4.6174
G01 X-2.7907 Y4.6145
G01 X-2.7817 Y4.6137
G01 X-2.7711 Y4.6134
G01 X-2.7228 Y4.6146
G01 X-2.7065 Y4.6160
G01 X-2.6946 Y4.6179
G01 X-2.6833 Y4.6205
G01 X-2.6717 Y4.6240
G01 X-2.6608 Y4.6280
G01 X-2.6910 Y4.5641
G01 X-2.6974 Y4.5484
G01 X-2.7357 Y4.4410
G01 X-2.7391 Y4.4294
G01 X-2.7540 Y4.3699
G01 X-2.6605 Y3.4994
G01 X-2.6711 Y3.5033
G01 X-2.6823 Y3.5067
G01 X-2.6940 Y3.5094
G01 X-2.7055 Y3.5114
G01 X-2.7222 Y3.5129
G01 X-2.7714 Y3.5146
G01 X-2.7898 Y3.5136
G01 X-2.8004 Y3.5122
G01 X-2.8095 Y3.5105
G01 X-2.8274 Y3.5057
G01 X-2.8480 Y3.4983
G01 X-2.8170 Y3.5639
G01 X-2.8107 Y3.5793
G01 X-2.7722 Y3.6870
G01 X-2.7689 Y3.6986
G01 X-2.7540 Y3.7581
G01 X-2.7391 Y3.6986
G01 X-2.7357 Y3.6870
G01 X-2.6973 Y3.5793
G01 X-2.6910 Y3.5639
G01 X-2.6605 Y3.4994
G01 X-2.7651 Y3.4566
G01 X-2.7740 Y3.4566
G01 X-2.7835 Y3.4560
G01 X-2.7931 Y3.4547
G01 X-2.8024 Y3.4526
G01 X-2.8130 Y3.4494
G01 X-2.8531 Y3.4346
G01 X-2.8638 Y3.4300
G01 X-2.8754 Y3.4237
G01 X-2.8847 Y3.4174
G01 X-2.8938 Y3.4100
G01 X-2.9269 Y3.3788
G01 X-2.9351 Y3.3699
G01 X-2.9411 Y3.3623
G01 X-3.0175 Y3.2571
G01 X-3.1156 Y3.1503
G01 X-3.2257 Y3.0549
G01 X-3.3461 Y2.9728
G01 X-3.4064 Y2.9408
G01 X-3.4167 Y2.9346
G01 X-3.4248 Y2.9287
G01 X-3.4563 Y2.9039
G01 X-3.4620 Y2.8989
G01 X-3.4686 Y2.8924
G01 X-3.4777 Y2.8816
G01 X-3.4847 Y2.8713
G01 X-3.5058 Y2.8364
G01 X-3.5102 Y2.8280
G01 X-3.5139 Y2.8193
G01 X-3.5179 Y2.8073
G01 X-3.5206 Y2.7956
G01 X-3.5279 Y2.7555
G01 X-3.5290 Y2.7454
G01 X-3.5293 Y2.7361
G01 X-3.5293 Y-2.4821
G01 X-3.5283 Y-2.4981
G01 X-3.5192 Y-2.5485
G01 X-3.5156 Y-2.5606
G01 X-3.5109 Y-2.5724
G01 X-3.5042 Y-2.5851
G01 X-3.4813 Y-2.6225
G01 X-3.4718 Y-2.6348
G01 X-3.4620 Y-2.6449
G01 X-3.4549 Y-2.6510
G01 X-3.4254 Y-2.6743
G01 X-3.4167 Y-2.6806
G01 X-3.4064 Y-2.6868
G01 X-3.3461 Y-2.7188
G01 X-3.2257 Y-2.8009
G01 X-3.1156 Y-2.8963
G01 X-3.0175 Y-3.0031
G01 X-2.9411 Y-3.1083
G01 X-2.9340 Y-3.1172
G01 X-2.9252 Y-3.1264
G01 X-2.8962 Y-3.1538
G01 X-2.8888 Y-3.1603
G01 X-2.8766 Y-3.1690
G01 X-2.8697 Y-3.1730
G01 X-2.8622 Y-3.1768
G01 X-2.8531 Y-3.1806
G01 X-2.8147 Y-3.1948
G01 X-2.8029 Y-3.1985
G01 X-2.7921 Y-3.2008
G01 X-2.7815 Y-3.2022
G01 X-2.7705 Y-3.2027
G01 X-2.7203 Y-3.2012
G01 X-2.7073 Y-3.1995
G01 X-2.6946 Y-3.1965
G01 X-2.6866 Y-3.1939
G01 X-2.6792 Y-3.1909
G01 X-2.6390 Y-3.1726
G01 X-2.6279 Y-3.1665
G01 X-2.6162 Y-3.1586
G01 X-2.6042 Y-3.1482
G01 X-2.5745 Y-3.1179
G01 X-2.5678 Y-3.1105
G01 X-2.5598 Y-3.0998
G01 X-2.5350 Y-3.0612
G01 X-2.4427 Y-2.9482
G01 X-2.3386 Y-2.8469
G01 X-2.2235 Y-2.7580
G01 X-2.0860 Y-2.6750
G01 X-2.0747 Y-2.6667
G01 X-2.0440 Y-2.6401
G01 X-2.0372 Y-2.6334
G01 X-2.0318 Y-2.6273
G01 X-2.0224 Y-2.6144
G01 X-2.0002 Y-2.5756
G01 X-1.9940 Y-2.5624
G01 X-1.9897 Y-2.5500
G01 X-1.9866 Y-2.5372
G01 X-1.9801 Y-2.4970
G01 X-1.9792 Y-2.4880
G01 X-1.9789 Y-2.4795
G01 X-1.9789 Y2.7335
G01 X-1.9792 Y2.7420
G01 X-1.9801 Y2.7510
G01 X-1.9876 Y2.7959
G01 X-1.9906 Y2.8071
G01 X-1.9945 Y2.8177
G01 X-2.0002 Y2.8296
G01 X-2.0216 Y2.8672
G01 X-2.0298 Y2.8788
G01 X-2.0382 Y2.8884
G01 X-2.0464 Y2.8963
G01 X-2.0734 Y2.9195
G01 X-2.0860 Y2.9290
G01 X-2.2235 Y3.0120
G01 X-2.3386 Y3.1009
G01 X-2.4428 Y3.2023
G01 X-2.5348 Y3.3145
G01 X-2.5593 Y3.3530
G01 X-2.5665 Y3.3629
G01 X-2.5745 Y3.3720
G01 X-2.6077 Y3.4055
G01 X-2.6141 Y3.4109
G01 X-2.6205 Y3.4157
G01 X-2.6275 Y3.4203
G01 X-2.6345 Y3.4243
G01 X-2.6420 Y3.4280
G01 X-2.6789 Y3.4443
G01 X-2.6912 Y3.4489
G01 X-2.7039 Y3.4523
G01 X-2.7168 Y3.4544
G01 X-2.7252 Y3.4550
G01 X-2.7651 Y3.4566
G01 X-2.7673 Y3.3987
G01 X-2.7780 Y3.3984
G01 X-2.7850 Y3.3972
G01 X-2.7902 Y3.3959
G01 X-2.8323 Y3.3806
G01 X-2.8390 Y3.3777
G01 X-2.8454 Y3.3742
G01 X-2.8514 Y3.3700
G01 X-2.8570 Y3.3652
G01 X-2.8866 Y3.3372
G01 X-2.8922 Y3.3309
G01 X-2.9726 Y3.2204
G01 X-3.0752 Y3.1086
G01 X-3.1903 Y3.0089
G01 X-3.3161 Y2.9231
G01 X-3.3786 Y2.8900
G01 X-3.3850 Y2.8861
G01 X-3.4185 Y2.8600
G01 X-3.4249 Y2.8542
G01 X-3.4295 Y2.8491
G01 X-3.4346 Y2.8422
G01 X-3.4552 Y2.8082
G01 X-3.4591 Y2.8003
G01 X-3.4615 Y2.7937
G01 X-3.4633 Y2.7869
G01 X-3.4708 Y2.7454
G01 X-3.4714 Y2.7361
G01 X-3.4714 Y-2.4821
G01 X-3.4708 Y-2.4914
G01 X-3.4633 Y-2.5329
G01 X-3.4615 Y-2.5397
G01 X-3.4591 Y-2.5463
G01 X-3.4552 Y-2.5542
G01 X-3.4346 Y-2.5882
G01 X-3.4295 Y-2.5951
G01 X-3.4224 Y-2.6026
G01 X-3.3850 Y-2.6321
G01 X-3.3786 Y-2.6360
G01 X-3.3161 Y-2.6691
G01 X-3.1903 Y-2.7549
G01 X-3.0752 Y-2.8546
G01 X-2.9726 Y-2.9664
G01 X-2.8922 Y-3.0769
G01 X-2.8866 Y-3.0832
G01 X-2.8570 Y-3.1112
G01 X-2.8528 Y-3.1149
G01 X-2.8470 Y-3.1192
G01 X-2.8407 Y-3.1229
G01 X-2.8340 Y-3.1259
G01 X-2.7903 Y-3.1419
G01 X-2.7803 Y-3.1441
G01 X-2.7700 Y-3.1448
G01 X-2.7255 Y-3.1435
G01 X-2.7182 Y-3.1426
G01 X-2.7112 Y-3.1410
G01 X-2.7026 Y-3.1379
G01 X-2.6638 Y-3.1202
G01 X-2.6561 Y-3.1159
G01 X-2.6476 Y-3.1095
G01 X-2.6163 Y-3.0779
G01 X-2.6114 Y-3.0723
G01 X-2.6071 Y-3.0663
G01 X-2.5819 Y-3.0271
G01 X-2.4855 Y-2.9090
G01 X-2.3766 Y-2.8031
G01 X-2.2562 Y-2.7101
G01 X-2.1177 Y-2.6265
G01 X-2.1107 Y-2.6212
G01 X-2.0809 Y-2.5953
G01 X-2.0750 Y-2.5886
G01 X-2.0700 Y-2.5813
G01 X-2.0518 Y-2.5493
G01 X-2.0478 Y-2.5411
G01 X-2.0454 Y-2.5342
G01 X-2.0437 Y-2.5271
G01 X-2.0373 Y-2.4879
G01 X-2.0368 Y-2.4795
G01 X-2.0368 Y2.7335
G01 X-2.0373 Y2.7419
G01 X-2.0437 Y2.7811
G01 X-2.0454 Y2.7882
G01 X-2.0478 Y2.7951
G01 X-2.0518 Y2.8033
G01 X-2.0700 Y2.8353
G01 X-2.0750 Y2.8426
G01 X-2.0809 Y2.8493
G01 X-2.1107 Y2.8752
G01 X-2.1177 Y2.8805
G01 X-2.2562 Y2.9641
G01 X-2.3766 Y3.0571
G01 X-2.4856 Y3.1631
G01 X-2.5818 Y3.2805
G01 X-2.6069 Y3.3200
G01 X-2.6118 Y3.3268
G01 X-2.6163 Y3.3319
G01 X-2.6464 Y3.3624
G01 X-2.6535 Y3.3681
G01 X-2.6628 Y3.3737
G01 X-2.7017 Y3.3911
G01 X-2.7102 Y3.3942
G01 X-2.7173 Y3.3960
G01 X-2.7245 Y3.3970
G01 X-2.7673 Y3.3987
G00 Z1.0000
G00 X-0.2674 Y3.3987
G01 F25.00
G01 Z-0.0480
G01 F120.00
G01 X-0.2746 Y3.3986
G01 X-0.2818 Y3.3979
G01 X-0.2888 Y3.3964
G01 X-0.2940 Y3.3948
G01 X-0.3371 Y3.3784
G01 X-0.3449 Y3.3742
G01 X-0.3535 Y3.3680
G01 X-0.3851 Y3.3388
G01 X-0.3911 Y3.3324
G01 X-0.4727 Y3.2204
G01 X-0.5753 Y3.1086
G01 X-0.6905 Y3.0089
G01 X-0.8157 Y2.9232
G01 X-0.8785 Y2.8901
G01 X-0.8845 Y2.8865
G01 X-0.8901 Y2.8824
G01 X-0.9226 Y2.8562
G01 X-0.9286 Y2.8499
G01 X-0.9338 Y2.8429
G01 X-0.9549 Y2.8089
G01 X-0.9589 Y2.8011
G01 X-0.9614 Y2.7945
G01 X-0.9636 Y2.7860
G01 X-0.9705 Y2.7447
G01 X-0.9710 Y2.7361
G01 X-0.9710 Y-2.4821
G01 X-0.9703 Y-2.4924
G01 X-0.9639 Y-2.5302
G01 X-0.9625 Y-2.5370
G01 X-0.9597 Y-2.5452
G01 X-0.9552 Y-2.5545
G01 X-0.9340 Y-2.5890
G01 X-0.9297 Y-2.5950
G01 X-0.9248 Y-2.6005
G01 X-0.9180 Y-2.6066
G01 X-0.8850 Y-2.6322
G01 X-0.8785 Y-2.6361
G01 X-0.8157 Y-2.6692
G01 X-0.6905 Y-2.7549
G01 X-0.5753 Y-2.8546
G01 X-0.4727 Y-2.9664
G01 X-0.3922 Y-3.0771
G01 X-0.3864 Y-3.0836
G01 X-0.3548 Y-3.1129
G01 X-0.3464 Y-3.1193
G01 X-0.3419 Y-3.1220
G01 X-0.3355 Y-3.1251
G01 X-0.2940 Y-3.1408
G01 X-0.2857 Y-3.1431
G01 X-0.2788 Y-3.1443
G01 X-0.2701 Y-3.1448
G01 X-0.2293 Y-3.1437
G01 X-0.2221 Y-3.1432
G01 X-0.2133 Y-3.1415
G01 X-0.2047 Y-3.1388
G01 X-0.1638 Y-3.1204
G01 X-0.1534 Y-3.1143
G01 X-0.1442 Y-3.1066
G01 X-0.1160 Y-3.0774
G01 X-0.1114 Y-3.0721
G01 X-0.1072 Y-3.0663
G01 X-0.0820 Y-3.0271
G01 X0.0143 Y-2.9091
G01 X0.1237 Y-2.8031
G01 X0.2441 Y-2.7101
G01 X0.3823 Y-2.6270
G01 X0.3898 Y-2.6212
G01 X0.4182 Y-2.5960
G01 X0.4240 Y-2.5897
G01 X0.4290 Y-2.5827
G01 X0.4481 Y-2.5493
G01 X0.4520 Y-2.5411
G01 X0.4545 Y-2.5342
G01 X0.4562 Y-2.5271
G01 X0.4626 Y-2.4879
G01 X0.4630 Y-2.4795
G01 X0.4630 Y2.7335
G01 X0.4623 Y2.7436
G01 X0.4562 Y2.7811
G01 X0.4545 Y2.7882
G01 X0.4520 Y2.7951
G01 X0.4481 Y2.8033
G01 X0.4290 Y2.8368
G01 X0.4238 Y2.8440
G01 X0.4177 Y2.8505
G01 X0.3878 Y2.8764
G01 X0.3808 Y2.8815
G01 X0.2442 Y2.9641
G01 X0.1237 Y3.0571
G01 X0.0143 Y3.1631
G01 X-0.0819 Y3.2805
G01 X-0.1070 Y3.3200
G01 X-0.1124 Y3.3273
G01 X-0.1429 Y3.3594
G01 X-0.1495 Y3.3653
G01 X-0.1567 Y3.3705
G01 X-0.1645 Y3.3747
G01 X-0.2022 Y3.3912
G01 X-0.2106 Y3.3943
G01 X-0.2176 Y3.3960
G01 X-0.2247 Y3.3970
G01 X-0.2674 Y3.3987
G01 X-0.2652 Y3.4566
G01 X-0.2709 Y3.4567
G01 X-0.2821 Y3.4562
G01 X-0.2935 Y3.4546
G01 X-0.3044 Y3.4522
G01 X-0.3153 Y3.4486
G01 X-0.3533 Y3.4344
G01 X-0.3620 Y3.4307
G01 X-0.3760 Y3.4231
G01 X-0.3889 Y3.4139
G01 X-0.4250 Y3.3807
G01 X-0.4349 Y3.3703
G01 X-0.4412 Y3.3623
G01 X-0.5176 Y3.2571
G01 X-0.6157 Y3.1503
G01 X-0.7259 Y3.0548
G01 X-0.8457 Y2.9728
G01 X-0.9061 Y2.9410
G01 X-0.9169 Y2.9346
G01 X-0.9264 Y2.9276
G01 X-0.9554 Y2.9043
G01 X-0.9625 Y2.8981
G01 X-0.9733 Y2.8867
G01 X-0.9818 Y2.8753
G01 X-1.0052 Y2.8377
G01 X-1.0090 Y2.8306
G01 X-1.0130 Y2.8219
G01 X-1.0173 Y2.8100
G01 X-1.0206 Y2.7963
G01 X-1.0277 Y2.7540
G01 X-1.0287 Y2.7447
G01 X-1.0290 Y2.7361
G01 X-1.0290 Y-2.4821
G01 X-1.0287 Y-2.4907
G01 X-1.0280 Y-2.4983
G01 X-1.0197 Y-2.5467
G01 X-1.0164 Y-2.5587
G01 X-1.0113 Y-2.5719
G01 X-1.0049 Y-2.5842
G01 X-0.9812 Y-2.6227
G01 X-0.9723 Y-2.6344
G01 X-0.9619 Y-2.6452
G01 X-0.9543 Y-2.6517
G01 X-0.9253 Y-2.6745
G01 X-0.9165 Y-2.6808
G01 X-0.9062 Y-2.6870
G01 X-0.8457 Y-2.7188
G01 X-0.7259 Y-2.8008
G01 X-0.6157 Y-2.8963
G01 X-0.5176 Y-3.0031
G01 X-0.4412 Y-3.1083
G01 X-0.4349 Y-3.1163
G01 X-0.4250 Y-3.1267
G01 X-0.3889 Y-3.1599
G01 X-0.3760 Y-3.1691
G01 X-0.3620 Y-3.1767
G01 X-0.3533 Y-3.1804
G01 X-0.3154 Y-3.1946
G01 X-0.3048 Y-3.1980
G01 X-0.2942 Y-3.2005
G01 X-0.2818 Y-3.2022
G01 X-0.2707 Y-3.2027
G01 X-0.2206 Y-3.2012
G01 X-0.2077 Y-3.1996
G01 X-0.1951 Y-3.1966
G01 X-0.1873 Y-3.1941
G01 X-0.1799 Y-3.1912
G01 X-0.1381 Y-3.1723
G01 X-0.1258 Y-3.1655
G01 X-0.1156 Y-3.1584
G01 X-0.1084 Y-3.1525
G01 X-0.1029 Y-3.1473
G01 X-0.0738 Y-3.1171
G01 X-0.0675 Y-3.1099
G01 X-0.0599 Y-3.0997
G01 X-0.0351 Y-3.0612
G01 X0.0570 Y-2.9483
G01 X0.1616 Y-2.8470
G01 X0.2768 Y-2.7580
G01 X0.4141 Y-2.6754
G01 X0.4261 Y-2.6664
G01 X0.4558 Y-2.6402
G01 X0.4612 Y-2.6349
G01 X0.4675 Y-2.6280
G01 X0.4732 Y-2.6207
G01 X0.4776 Y-2.6142
G01 X0.4997 Y-2.5756
G01 X0.5059 Y-2.5624
G01 X0.5102 Y-2.5500
G01 X0.5132 Y-2.5372
G01 X0.5198 Y-2.4970
G01 X0.5207 Y-2.4880
G01 X0.5210 Y-2.4795
G01 X0.5210 Y2.7335
G01 X0.5200 Y2.7493
G01 X0.5126 Y2.7944
G01 X0.5098 Y2.8054
G01 X0.5053 Y2.8177
G01 X0.4997 Y2.8296
G01 X0.4783 Y2.8672
G01 X0.4710 Y2.8777
G01 X0.4617 Y2.8884
G01 X0.4534 Y2.8963
G01 X0.4265 Y2.9195
G01 X0.4140 Y2.9290
G01 X0.2770 Y3.0119
G01 X0.1616 Y3.1010
G01 X0.0569 Y3.2024
G01 X-0.0349 Y3.3145
G01 X-0.0595 Y3.3532
G01 X-0.0673 Y3.3637
G01 X-0.0743 Y3.3716
G01 X-0.1076 Y3.4057
G01 X-0.1136 Y3.4108
G01 X-0.1212 Y3.4165
G01 X-0.1349 Y3.4247
G01 X-0.1790 Y3.4443
G01 X-0.1904 Y3.4487
G01 X-0.2029 Y3.4521
G01 X-0.2171 Y3.4544
G01 X-0.2254 Y3.4550
G01 X-0.2652 Y3.4566
G01 X-0.2540 Y3.7576
G01 X-0.2392 Y3.6986
G01 X-0.2359 Y3.6870
G01 X-0.1975 Y3.5793
G01 X-0.1911 Y3.5639
G01 X-0.1606 Y3.4994
G01 X-0.1719 Y3.5035
G01 X-0.1830 Y3.5068
G01 X-0.1945 Y3.5095
G01 X-0.2059 Y3.5114
G01 X-0.2224 Y3.5129
G01 X-0.2238 Y3.5130
G01 X-0.2629 Y3.5145
G01 X-0.2633 Y3.5145
G01 X-0.2716 Y3.5146
G01 X-0.2809 Y3.5143
G01 X-0.2917 Y3.5134
G01 X-0.3101 Y3.5103
G01 X-0.3268 Y3.5059
G01 X-0.3479 Y3.4983
G01 X-0.3169 Y3.5639
G01 X-0.3105 Y3.5793
G01 X-0.2721 Y3.6870
G01 X-0.2688 Y3.6986
G01 X-0.2540 Y3.7576
G00 Z1.0000
G00 X-0.0129 Y4.8641
G01 F25.00
G01 Z-0.0480
G01 F120.00
G01 X-0.0699 Y4.7873
G01 X-0.0760 Y4.7785
G01 X-0.1358 Y4.6790
G01 X-0.1430 Y4.6659
G01 X-0.1907 Y4.5651
G01 X-0.1965 Y4.5514
G01 X-0.2359 Y4.4410
G01 X-0.2392 Y4.4294
G01 X-0.2540 Y4.3704
G01 X-0.2688 Y4.4294
G01 X-0.2721 Y4.4410
G01 X-0.3105 Y4.5487
G01 X-0.3156 Y4.5614
G01 X-0.0129 Y4.8641
G01 X0.6098 Y5.2926
G01 X0.5023 Y5.2539
G01 X0.3893 Y5.2005
G01 X0.3806 Y5.1956
G01 X0.2808 Y5.1355
G01 X0.1958 Y5.0728
G01 X0.4157 Y5.2926
G01 X0.6098 Y5.2926
G01 X1.6586 Y5.2347
G01 X1.8022 Y5.2347
G01 X1.7931 Y5.2168
G01 X1.7860 Y5.1995
G01 X1.7801 Y5.1809
G01 X1.7751 Y5.1604
G01 X1.7505 Y5.1786
G01 X1.7394 Y5.1862
G01 X1.6586 Y5.2347
G01 X1.8221 Y5.0520
G01 X1.8143 Y5.0589
G01 X1.8068 Y5.0649
G01 X1.7128 Y5.1343
G01 X1.7038 Y5.1401
G01 X1.6045 Y5.1994
G01 X1.5949 Y5.2043
G01 X1.4974 Y5.2504
G01 X1.4896 Y5.2539
G01 X1.3821 Y5.2926
G01 X1.9203 Y5.2926
G01 X1.9113 Y5.2847
G01 X1.9029 Y5.2765
G01 X1.8949 Y5.2674
G01 X1.8872 Y5.2576
G01 X1.8572 Y5.2142
G01 X1.8494 Y5.2002
G01 X1.8429 Y5.1860
G01 X1.8385 Y5.1739
G01 X1.8347 Y5.1609
G01 X1.8249 Y5.1185
G01 X1.8227 Y5.1066
G01 X1.8210 Y5.0928
G01 X1.8204 Y5.0795
G01 X1.8208 Y5.0656
G01 X1.8221 Y5.0520
G00 Z1.0000
G00 X2.1102 Y5.2484
G01 F25.00
G01 Z-0.0480
G01 F120.00
G01 X2.1031 Y5.2481
G01 X2.0978 Y5.2473
G01 X2.0579 Y5.2394
G01 X2.0495 Y5.2372
G01 X2.0415 Y5.2340
G01 X2.0339 Y5.2299
G01 X1.9969 Y5.2055
G01 X1.9885 Y5.1983
G01 X1.9813 Y5.1900
G01 X1.9569 Y5.1551
G01 X1.9534 Y5.1491
G01 X1.9511 Y5.1444
G01 X1.9491 Y5.1396
G01 X1.9471 Y5.1329
G01 X1.9381 Y5.0937
G01 X1.9371 Y5.0884
G01 X1.9363 Y5.0813
G01 X1.9366 Y5.0706
G01 X1.9442 Y5.0249
G01 X1.9469 Y5.0149
G01 X1.9510 Y5.0054
G01 X1.9768 Y4.9635
G01 X1.9823 Y4.9567
G01 X2.0276 Y4.9076
G01 X2.1054 Y4.7999
G01 X2.1110 Y4.7930
G01 X2.1450 Y4.7611
G01 X2.1491 Y4.7578
G01 X2.1549 Y4.7538
G01 X2.1611 Y4.7503
G01 X2.1660 Y4.7482
G01 X2.2042 Y4.7338
G01 X2.2108 Y4.7317
G01 X2.2193 Y4.7299
G01 X2.2280 Y4.7292
G01 X2.2724 Y4.7303
G01 X2.2778 Y4.7308
G01 X2.2849 Y4.7320
G01 X2.2951 Y4.7352
G01 X2.3361 Y4.7536
G01 X2.3465 Y4.7597
G01 X2.3557 Y4.7674
G01 X2.3838 Y4.7966
G01 X2.3883 Y4.8017
G01 X2.3923 Y4.8072
G01 X2.4182 Y4.8467
G01 X2.5162 Y4.9672
G01 X2.5213 Y4.9752
G01 X2.5420 Y5.0137
G01 X2.5452 Y5.0222
G01 X2.5473 Y5.0311
G01 X2.5524 Y5.0723
G01 X2.5530 Y5.0813
G01 X2.5526 Y5.0886
G01 X2.5515 Y5.0957
G01 X2.5405 Y5.1381
G01 X2.5367 Y5.1483
G01 X2.5314 Y5.1579
G01 X2.5059 Y5.1928
G01 X2.4999 Y5.1996
G01 X2.4932 Y5.2056
G01 X2.4874 Y5.2097
G01 X2.4538 Y5.2310
G01 X2.4490 Y5.2336
G01 X2.4423 Y5.2366
G01 X2.4371 Y5.2383
G01 X2.4300 Y5.2400
G01 X2.3907 Y5.2474
G01 X2.3823 Y5.2483
G01 X2.1102 Y5.2484
G01 X2.1102 Y5.3063
G01 X2.0999 Y5.3059
G01 X2.0885 Y5.3045
G01 X2.0398 Y5.2946
G01 X2.0308 Y5.2920
G01 X2.0220 Y5.2887
G01 X2.0120 Y5.2840
G01 X2.0038 Y5.2794
G01 X1.9633 Y5.2527
G01 X1.9555 Y5.2466
G01 X1.9471 Y5.2388
G01 X1.9404 Y5.2316
G01 X1.9343 Y5.2238
G01 X1.9100 Y5.1891
G01 X1.9041 Y5.1797
G01 X1.8979 Y5.1673
G01 X1.8929 Y5.1539
G01 X1.8904 Y5.1449
G01 X1.8815 Y5.1059
G01 X1.8797 Y5.0964
G01 X1.8785 Y5.0851
G01 X1.8784 Y5.0740
G01 X1.8790 Y5.0644
G01 X1.8802 Y5.0555
G01 X1.8875 Y5.0132
G01 X1.8901 Y5.0024
G01 X1.8935 Y4.9922
G01 X1.8972 Y4.9836
G01 X1.9023 Y4.9738
G01 X1.9249 Y4.9369
G01 X1.9302 Y4.9291
G01 X1.9393 Y4.9180
G01 X1.9827 Y4.8709
G01 X2.0584 Y4.7660
G01 X2.0648 Y4.7579
G01 X2.0753 Y4.7468
G01 X2.1061 Y4.7182
G01 X2.1146 Y4.7113
G01 X2.1278 Y4.7025
G01 X2.1420 Y4.6954
G01 X2.1861 Y4.6788
G01 X2.1995 Y4.6748
G01 X2.2118 Y4.6725
G01 X2.2260 Y4.6713
G01 X2.2746 Y4.6724
G01 X2.2857 Y4.6734
G01 X2.2971 Y4.6754
G01 X2.3078 Y4.6783
G01 X2.3199 Y4.6828
G01 X2.3589 Y4.7003
G01 X2.3673 Y4.7045
G01 X2.3804 Y4.7127
G01 X2.3925 Y4.7225
G01 X2.4256 Y4.7564
G01 X2.4332 Y4.7650
G01 X2.4404 Y4.7749
G01 X2.4650 Y4.8124
G01 X2.5613 Y4.9309
G01 X2.5664 Y4.9380
G01 X2.5708 Y4.9452
G01 X2.5923 Y4.9846
G01 X2.5982 Y4.9983
G01 X2.6025 Y5.0123
G01 X2.6053 Y5.0270
G01 X2.6100 Y5.0660
G01 X2.6108 Y5.0758
G01 X2.6108 Y5.0855
G01 X2.6101 Y5.0953
G01 X2.6087 Y5.1050
G01 X2.6067 Y5.1138
G01 X2.5954 Y5.1565
G01 X2.5922 Y5.1658
G01 X2.5882 Y5.1748
G01 X2.5836 Y5.1835
G01 X2.5783 Y5.1919
G01 X2.5502 Y5.2302
G01 X2.5438 Y5.2375
G01 X2.5369 Y5.2444
G01 X2.5295 Y5.2507
G01 X2.5258 Y5.2535
G01 X2.5244 Y5.2546
G01 X2.5232 Y5.2554
G01 X2.4830 Y5.2810
G01 X2.4743 Y5.2857
G01 X2.4636 Y5.2904
G01 X2.4529 Y5.2941
G01 X2.4415 Y5.2968
G01 X2.3995 Y5.3047
G01 X2.3844 Y5.3062
G01 X2.1102 Y5.3063
G01 X2.6877 Y5.2347
G01 X2.8334 Y5.2347
G01 X2.7523 Y5.1860
G01 X2.7414 Y5.1786
G01 X2.7147 Y5.1588
G01 X2.7078 Y5.1850
G01 X2.7030 Y5.2000
G01 X2.6962 Y5.2173
G01 X2.6877 Y5.2347
G01 X3.1099 Y5.2926
G01 X3.0024 Y5.2539
G01 X2.8970 Y5.2043
G01 X2.8875 Y5.1994
G01 X2.7881 Y5.1401
G01 X2.7792 Y5.1343
G01 X2.6849 Y5.0647
G01 X2.6763 Y5.0578
G01 X2.6663 Y5.0488
G01 X2.6681 Y5.0644
G01 X2.6688 Y5.0785
G01 X2.6683 Y5.0945
G01 X2.6668 Y5.1085
G01 X2.6635 Y5.1253
G01 X2.6530 Y5.1659
G01 X2.6500 Y5.1760
G01 X2.6459 Y5.1873
G01 X2.6413 Y5.1981
G01 X2.6359 Y5.2088
G01 X2.6299 Y5.2188
G01 X2.6229 Y5.2291
G01 X2.6227 Y5.2294
G01 X2.6004 Y5.2599
G01 X2.5997 Y5.2607
G01 X2.5926 Y5.2698
G01 X2.5817 Y5.2817
G01 X2.5697 Y5.2926
G01 X3.1099 Y5.2926
G01 X2.3393 Y4.6281
G01 X2.3090 Y4.5641
G01 X2.3025 Y4.5484
G01 X2.2642 Y4.4410
G01 X2.2609 Y4.4294
G01 X2.2460 Y4.3699
G01 X2.2311 Y4.4294
G01 X2.2277 Y4.4410
G01 X2.1893 Y4.5487
G01 X2.1830 Y4.5641
G01 X2.1520 Y4.6297
G01 X2.1727 Y4.6222
G01 X2.1902 Y4.6175
G01 X2.2088 Y4.6145
G01 X2.2178 Y4.6137
G01 X2.2286 Y4.6134
G01 X2.2769 Y4.6146
G01 X2.2937 Y4.6161
G01 X2.3054 Y4.6180
G01 X2.3166 Y4.6206
G01 X2.3280 Y4.6240
G01 X2.3393 Y4.6281
G01 X2.2460 Y3.7581
G01 X2.2609 Y3.6986
G01 X2.2642 Y3.6870
G01 X2.3027 Y3.5793
G01 X2.3090 Y3.5639
G01 X2.3396 Y3.4993
G01 X2.3279 Y3.5035
G01 X2.3169 Y3.5068
G01 X2.3053 Y3.5095
G01 X2.2940 Y3.5114
G01 X2.2775 Y3.5129
G01 X2.2760 Y3.5130
G01 X2.2369 Y3.5145
G01 X2.2366 Y3.5145
G01 X2.2283 Y3.5146
G01 X2.2096 Y3.5136
G01 X2.1989 Y3.5121
G01 X2.1897 Y3.5103
G01 X2.1730 Y3.5059
G01 X2.1520 Y3.4983
G01 X2.1830 Y3.5639
G01 X2.1893 Y3.5793
G01 X2.2277 Y3.6870
G01 X2.2311 Y3.6986
G01 X2.2460 Y3.7581
G01 X2.2347 Y3.4566
G01 X2.2224 Y3.4565
G01 X2.2096 Y3.4551
G01 X2.1986 Y3.4530
G01 X2.1862 Y3.4493
G01 X2.1466 Y3.4344
G01 X2.1362 Y3.4299
G01 X2.1293 Y3.4264
G01 X2.1212 Y3.4214
G01 X2.1146 Y3.4167
G01 X2.1072 Y3.4107
G01 X2.0735 Y3.3795
G01 X2.0648 Y3.3701
G01 X2.0584 Y3.3620
G01 X1.9827 Y3.2571
G01 X1.8843 Y3.1504
G01 X1.7740 Y3.0548
G01 X1.6542 Y2.9728
G01 X1.5937 Y2.9410
G01 X1.5830 Y2.9346
G01 X1.5740 Y2.9280
G01 X1.5407 Y2.9011
G01 X1.5307 Y2.8914
G01 X1.5217 Y2.8804
G01 X1.5164 Y2.8726
G01 X1.4954 Y2.8389
G01 X1.4902 Y2.8293
G01 X1.4857 Y2.8190
G01 X1.4826 Y2.8100
G01 X1.4799 Y2.7994
G01 X1.4721 Y2.7540
G01 X1.4712 Y2.7447
G01 X1.4709 Y2.7361
G01 X1.4709 Y-2.4821
G01 X1.4713 Y-2.4921
G01 X1.4726 Y-2.5031
G01 X1.4793 Y-2.5423
G01 X1.4831 Y-2.5577
G01 X1.4876 Y-2.5696
G01 X1.4931 Y-2.5810
G01 X1.5173 Y-2.6201
G01 X1.5227 Y-2.6278
G01 X1.5286 Y-2.6351
G01 X1.5351 Y-2.6419
G01 X1.5420 Y-2.6483
G01 X1.5740 Y-2.6740
G01 X1.5830 Y-2.6806
G01 X1.5937 Y-2.6870
G01 X1.6542 Y-2.7188
G01 X1.7740 Y-2.8008
G01 X1.8843 Y-2.8964
G01 X1.9827 Y-3.0031
G01 X2.0584 Y-3.1080
G01 X2.0648 Y-3.1161
G01 X2.0735 Y-3.1255
G01 X2.1061 Y-3.1558
G01 X2.1134 Y-3.1619
G01 X2.1212 Y-3.1674
G01 X2.1306 Y-3.1730
G01 X2.1391 Y-3.1773
G01 X2.1473 Y-3.1807
G01 X2.1861 Y-3.1952
G01 X2.1951 Y-3.1980
G01 X2.2056 Y-3.2005
G01 X2.2198 Y-3.2023
G01 X2.2330 Y-3.2027
G01 X2.2779 Y-3.2014
G01 X2.2889 Y-3.2001
G01 X2.2985 Y-3.1982
G01 X2.3095 Y-3.1951
G01 X2.3186 Y-3.1917
G01 X2.3589 Y-3.1736
G01 X2.3715 Y-3.1671
G01 X2.3829 Y-3.1594
G01 X2.3901 Y-3.1536
G01 X2.3969 Y-3.1473
G01 X2.4260 Y-3.1171
G01 X2.4321 Y-3.1103
G01 X2.4394 Y-3.1005
G01 X2.4650 Y-3.0615
G01 X2.5570 Y-2.9482
G01 X2.6615 Y-2.8470
G01 X2.7768 Y-2.7579
G01 X2.9011 Y-2.6829
G01 X3.0339 Y-2.6225
G01 X3.1721 Y-2.5774
G01 X3.3143 Y-2.5488
G01 X3.4596 Y-2.5364
G01 X3.6053 Y-2.5405
G01 X3.7490 Y-2.5613
G01 X3.8897 Y-2.5982
G01 X4.0255 Y-2.6506
G01 X4.1540 Y-2.7188
G01 X4.2743 Y-2.8008
G01 X4.3840 Y-2.8963
G01 X4.4827 Y-3.0032
G01 X4.5590 Y-3.1083
G01 X4.5661 Y-3.1172
G01 X4.5744 Y-3.1259
G01 X4.6052 Y-3.1551
G01 X4.6113 Y-3.1603
G01 X4.6192 Y-3.1661
G01 X4.6320 Y-3.1739
G01 X4.6392 Y-3.1774
G01 X4.6470 Y-3.1806
G01 X4.6900 Y-3.1964
G01 X4.7002 Y-3.1993
G01 X4.7124 Y-3.2015
G01 X4.7217 Y-3.2024
G01 X4.7310 Y-3.2027
G01 X4.7798 Y-3.2012
G01 X4.7895 Y-3.2001
G01 X4.7992 Y-3.1982
G01 X4.8073 Y-3.1960
G01 X4.8166 Y-3.1927
G01 X4.8588 Y-3.1736
G01 X4.8695 Y-3.1681
G01 X4.8776 Y-3.1631
G01 X4.8839 Y-3.1586
G01 X4.8913 Y-3.1525
G01 X4.8977 Y-3.1464
G01 X4.9256 Y-3.1179
G01 X4.9335 Y-3.1091
G01 X4.9403 Y-3.0998
G01 X4.9651 Y-3.0612
G01 X5.0574 Y-2.9482
G01 X5.1687 Y-2.8398
G01 X5.2118 Y-2.7932
G01 X5.2189 Y-2.7843
G01 X5.2250 Y-2.7752
G01 X5.2304 Y-2.7652
G01 X5.2349 Y-2.7552
G01 X5.2396 Y-2.7407
G01 X5.2509 Y-2.6973
G01 X5.2532 Y-2.6865
G01 X5.2543 Y-2.6789
G01 X5.2549 Y-2.6696
G01 X5.2546 Y-2.6540
G01 X5.2532 Y-2.6430
G01 X5.2453 Y-2.5984
G01 X5.2424 Y-2.5861
G01 X5.2388 Y-2.5753
G01 X5.2337 Y-2.5637
G01 X5.2285 Y-2.5541
G01 X5.2236 Y-2.5467
G01 X5.1978 Y-2.5101
G01 X5.1889 Y-2.4989
G01 X5.1801 Y-2.4900
G01 X5.1263 Y-2.4408
G01 X5.0354 Y-2.3358
G01 X4.9578 Y-2.2202
G01 X4.8942 Y-2.0962
G01 X4.8457 Y-1.9660
G01 X4.8133 Y-1.8307
G01 X4.7968 Y-1.6925
G01 X4.7968 Y-1.5536
G01 X4.8133 Y-1.4154
G01 X4.8457 Y-1.2801
G01 X4.8942 Y-1.1499
G01 X4.9578 Y-1.0259
G01 X5.0354 Y-0.9103
G01 X5.1263 Y-0.8052
G01 X5.2293 Y-0.7110
G01 X5.3271 Y-0.6410
G01 X5.3391 Y-0.6311
G01 X5.3474 Y-0.6228
G01 X5.3763 Y-0.5907
G01 X5.3824 Y-0.5834
G01 X5.3880 Y-0.5756
G01 X5.3930 Y-0.5674
G01 X5.3967 Y-0.5601
G01 X5.4005 Y-0.5514
G01 X5.4178 Y-0.4992
G01 X5.4206 Y-0.4868
G01 X5.4223 Y-0.4728
G01 X5.4227 Y-0.4647
G01 X5.4224 Y-0.4552
G01 X5.4177 Y-0.4067
G01 X5.4157 Y-0.3944
G01 X5.4125 Y-0.3823
G01 X5.4076 Y-0.3693
G01 X5.4020 Y-0.3581
G01 X5.3782 Y-0.3172
G01 X5.3728 Y-0.3090
G01 X5.3679 Y-0.3027
G01 X5.3592 Y-0.2930
G01 X5.3495 Y-0.2842
G01 X5.3077 Y-0.2530
G01 X5.2983 Y-0.2469
G01 X5.2887 Y-0.2419
G01 X5.2801 Y-0.2382
G01 X5.2695 Y-0.2346
G01 X5.2604 Y-0.2323
G01 X5.2160 Y-0.2230
G01 X5.2078 Y-0.2217
G01 X5.1978 Y-0.2208
G01 X4.4797 Y-0.2208
G01 X4.4716 Y-0.2213
G01 X4.4622 Y-0.2225
G01 X4.4191 Y-0.2309
G01 X4.4064 Y-0.2342
G01 X4.3955 Y-0.2381
G01 X4.3853 Y-0.2428
G01 X4.3740 Y-0.2493
G01 X4.3369 Y-0.2745
G01 X4.3261 Y-0.2830
G01 X4.3198 Y-0.2888
G01 X4.1593 Y-0.4494
G01 X4.1508 Y-0.4587
G01 X4.1254 Y-0.4931
G01 X4.1210 Y-0.4999
G01 X4.1162 Y-0.5085
G01 X4.1120 Y-0.5175
G01 X4.1090 Y-0.5254
G01 X4.0974 Y-0.5625
G01 X4.0939 Y-0.5776
G01 X4.0923 Y-0.5930
G01 X4.0922 Y-0.6030
G01 X4.0936 Y-0.6419
G01 X4.0953 Y-0.6551
G01 X4.1143 Y-0.7572
G01 X4.1224 Y-0.8890
G01 X4.1143 Y-1.0207
G01 X4.0898 Y-1.1513
G01 X4.0499 Y-1.2773
G01 X3.9947 Y-1.3971
G01 X3.9249 Y-1.5095
G01 X3.8420 Y-1.6128
G01 X3.7470 Y-1.7047
G01 X3.6414 Y-1.7845
G01 X3.5267 Y-1.8506
G01 X3.4049 Y-1.9023
G01 X3.2775 Y-1.9385
G01 X3.1471 Y-1.9589
G01 X3.0149 Y-1.9630
G01 X2.8832 Y-1.9507
G01 X2.7542 Y-1.9222
G01 X2.6294 Y-1.8782
G01 X2.5107 Y-1.8193
G01 X2.4007 Y-1.7464
G01 X2.3001 Y-1.6604
G01 X2.2109 Y-1.5625
G01 X2.1344 Y-1.4548
G01 X2.0720 Y-1.3380
G01 X2.0244 Y-1.2148
G01 X1.9922 Y-1.0865
G01 X1.9759 Y-0.9551
G01 X1.9759 Y-0.8229
G01 X1.9922 Y-0.6915
G01 X2.0244 Y-0.5632
G01 X2.0720 Y-0.4400
G01 X2.1344 Y-0.3232
G01 X2.2109 Y-0.2155
G01 X2.3001 Y-0.1176
G01 X2.4005 Y-0.0318
G01 X2.4429 Y-0.0039
G01 X2.4537 Y0.0040
G01 X2.4625 Y0.0120
G01 X2.4954 Y0.0452
G01 X2.5007 Y0.0516
G01 X2.5055 Y0.0580
G01 X2.5132 Y0.0707
G01 X2.5175 Y0.0795
G01 X2.5333 Y0.1158
G01 X2.5373 Y0.1265
G01 X2.5403 Y0.1372
G01 X2.5425 Y0.1484
G01 X2.5436 Y0.1595
G01 X2.5453 Y0.2077
G01 X2.5445 Y0.2204
G01 X2.5421 Y0.2346
G01 X2.5382 Y0.2482
G01 X2.5221 Y0.2921
G01 X2.5187 Y0.2994
G01 X2.5148 Y0.3068
G01 X2.5068 Y0.3190
G01 X2.4994 Y0.3281
G01 X2.4730 Y0.3577
G01 X2.4636 Y0.3671
G01 X2.4544 Y0.3748
G01 X2.3490 Y0.4543
G01 X2.2540 Y0.5462
G01 X2.1711 Y0.6495
G01 X2.1013 Y0.7619
G01 X2.0461 Y0.8817
G01 X2.0062 Y1.0077
G01 X1.9817 Y1.1383
G01 X1.9736 Y1.2700
G01 X1.9817 Y1.4017
G01 X2.0062 Y1.5323
G01 X2.0461 Y1.6583
G01 X2.1013 Y1.7781
G01 X2.1711 Y1.8905
G01 X2.2540 Y1.9938
G01 X2.3492 Y2.0858
G01 X2.5000 Y2.2006
G01 X2.5096 Y2.2090
G01 X2.5192 Y2.2194
G01 X2.5261 Y2.2284
G01 X2.5317 Y2.2371
G01 X2.5514 Y2.2711
G01 X2.5578 Y2.2846
G01 X2.5611 Y2.2939
G01 X2.5641 Y2.3048
G01 X2.5722 Y2.3508
G01 X2.5730 Y2.3587
G01 X2.5733 Y2.3678
G01 X2.5733 Y3.1005
G01 X2.5729 Y3.1104
G01 X2.5717 Y3.1203
G01 X2.5650 Y3.1576
G01 X2.5629 Y3.1671
G01 X2.5589 Y3.1795
G01 X2.5537 Y3.1915
G01 X2.5332 Y3.2292
G01 X2.5267 Y3.2393
G01 X2.5208 Y3.2470
G01 X2.4651 Y3.3150
G01 X2.4407 Y3.3526
G01 X2.4334 Y3.3627
G01 X2.4260 Y3.3711
G01 X2.3986 Y3.3995
G01 X2.3899 Y3.4078
G01 X2.3812 Y3.4146
G01 X2.3718 Y3.4209
G01 X2.3605 Y3.4269
G01 X2.3209 Y3.4443
G01 X2.3125 Y3.4476
G01 X2.2987 Y3.4517
G01 X2.2842 Y3.4543
G01 X2.2745 Y3.4550
G01 X2.2347 Y3.4566
G01 X2.2324 Y3.3987
G01 X2.2216 Y3.3983
G01 X2.2163 Y3.3975
G01 X2.2093 Y3.3959
G01 X2.1676 Y3.3804
G01 X2.1595 Y3.3769
G01 X2.1520 Y3.3723
G01 X2.1464 Y3.3680
G01 X2.1148 Y3.3388
G01 X2.1098 Y3.3337
G01 X2.1054 Y3.3281
G01 X2.0276 Y3.2204
G01 X1.9246 Y3.1087
G01 X1.8094 Y3.0089
G01 X1.6842 Y2.9232
G01 X1.6213 Y2.8901
G01 X1.6153 Y2.8865
G01 X1.6097 Y2.8824
G01 X1.5773 Y2.8562
G01 X1.5713 Y2.8499
G01 X1.5661 Y2.8429
G01 X1.5449 Y2.8089
G01 X1.5409 Y2.8011
G01 X1.5384 Y2.7945
G01 X1.5362 Y2.7860
G01 X1.5293 Y2.7447
G01 X1.5288 Y2.7361
G01 X1.5288 Y-2.4821
G01 X1.5296 Y-2.4924
G01 X1.5359 Y-2.5302
G01 X1.5374 Y-2.5371
G01 X1.5396 Y-2.5438
G01 X1.5424 Y-2.5503
G01 X1.5449 Y-2.5549
G01 X1.5671 Y-2.5903
G01 X1.5736 Y-2.5985
G01 X1.5813 Y-2.6056
G01 X1.6097 Y-2.6284
G01 X1.6153 Y-2.6325
G01 X1.6213 Y-2.6361
G01 X1.6842 Y-2.6692
G01 X1.8094 Y-2.7549
G01 X1.9246 Y-2.8547
G01 X2.0276 Y-2.9664
G01 X2.1075 Y-3.0769
G01 X2.1135 Y-3.0835
G01 X2.1450 Y-3.1129
G01 X2.1491 Y-3.1162
G01 X2.1549 Y-3.1202
G01 X2.1595 Y-3.1229
G01 X2.1660 Y-3.1258
G01 X2.2075 Y-3.1413
G01 X2.2159 Y-3.1435
G01 X2.2263 Y-3.1447
G01 X2.2724 Y-3.1437
G01 X2.2796 Y-3.1429
G01 X2.2883 Y-3.1411
G01 X2.2968 Y-3.1381
G01 X2.3361 Y-3.1204
G01 X2.3436 Y-3.1162
G01 X2.3519 Y-3.1101
G01 X2.3569 Y-3.1053
G01 X2.3838 Y-3.0774
G01 X2.3883 Y-3.0723
G01 X2.3923 Y-3.0668
G01 X2.4182 Y-3.0273
G01 X2.5142 Y-2.9090
G01 X2.6235 Y-2.8031
G01 X2.7440 Y-2.7101
G01 X2.8740 Y-2.6316
G01 X3.0128 Y-2.5685
G01 X3.1574 Y-2.5212
G01 X3.3061 Y-2.4914
G01 X3.4580 Y-2.4784
G01 X3.6102 Y-2.4827
G01 X3.7605 Y-2.5044
G01 X3.9076 Y-2.5430
G01 X4.0496 Y-2.5978
G01 X4.1840 Y-2.6691
G01 X4.3098 Y-2.7549
G01 X4.4245 Y-2.8546
G01 X4.5276 Y-2.9665
G01 X4.6079 Y-3.0769
G01 X4.6135 Y-3.0832
G01 X4.6431 Y-3.1112
G01 X4.6473 Y-3.1149
G01 X4.6531 Y-3.1192
G01 X4.6578 Y-3.1220
G01 X4.6644 Y-3.1252
G01 X4.7081 Y-3.1414
G01 X4.7148 Y-3.1432
G01 X4.7233 Y-3.1445
G01 X4.7319 Y-3.1448
G01 X4.7728 Y-3.1437
G01 X4.7801 Y-3.1429
G01 X4.7889 Y-3.1410
G01 X4.7975 Y-3.1379
G01 X4.8379 Y-3.1194
G01 X4.8425 Y-3.1168
G01 X4.8484 Y-3.1128
G01 X4.8563 Y-3.1058
G01 X4.8838 Y-3.0779
G01 X4.8887 Y-3.0723
G01 X4.8930 Y-3.0663
G01 X4.9182 Y-3.0271
G01 X5.0146 Y-2.9090
G01 X5.1278 Y-2.7988
G01 X5.1701 Y-2.7528
G01 X5.1733 Y-2.7485
G01 X5.1770 Y-2.7424
G01 X5.1794 Y-2.7377
G01 X5.1820 Y-2.7311
G01 X5.1947 Y-2.6833
G01 X5.1966 Y-2.6731
G01 X5.1971 Y-2.6644
G01 X5.1965 Y-2.6558
G01 X5.1881 Y-2.6075
G01 X5.1868 Y-2.6023
G01 X5.1846 Y-2.5956
G01 X5.1817 Y-2.5892
G01 X5.1782 Y-2.5830
G01 X5.1509 Y-2.5440
G01 X5.1454 Y-2.5372
G01 X5.1405 Y-2.5323
G01 X5.0847 Y-2.4813
G01 X4.9893 Y-2.3710
G01 X4.9078 Y-2.2497
G01 X4.8411 Y-2.1196
G01 X4.7902 Y-1.9829
G01 X4.7562 Y-1.8409
G01 X4.7389 Y-1.6960
G01 X4.7389 Y-1.5501
G01 X4.7562 Y-1.4052
G01 X4.7902 Y-1.2632
G01 X4.8411 Y-1.1265
G01 X4.9078 Y-0.9964
G01 X4.9893 Y-0.8751
G01 X5.0847 Y-0.7648
G01 X5.1927 Y-0.6659
G01 X5.2928 Y-0.5943
G01 X5.2982 Y-0.5900
G01 X5.3044 Y-0.5840
G01 X5.3352 Y-0.5498
G01 X5.3413 Y-0.5411
G01 X5.3461 Y-0.5316
G01 X5.3616 Y-0.4848
G01 X5.3637 Y-0.4762
G01 X5.3645 Y-0.4692
G01 X5.3646 Y-0.4586
G01 X5.3602 Y-0.4130
G01 X5.3590 Y-0.4061
G01 X5.3566 Y-0.3978
G01 X5.3547 Y-0.3929
G01 X5.3517 Y-0.3867
G01 X5.3295 Y-0.3486
G01 X5.3255 Y-0.3425
G01 X5.3209 Y-0.3368
G01 X5.3172 Y-0.3329
G01 X5.3117 Y-0.3281
G01 X5.2762 Y-0.3016
G01 X5.2689 Y-0.2968
G01 X5.2611 Y-0.2930
G01 X5.2545 Y-0.2906
G01 X5.2478 Y-0.2888
G01 X5.2048 Y-0.2798
G01 X5.1936 Y-0.2786
G01 X4.4801 Y-0.2787
G01 X4.4713 Y-0.2797
G01 X4.4310 Y-0.2876
G01 X4.4240 Y-0.2894
G01 X4.4171 Y-0.2918
G01 X4.4106 Y-0.2949
G01 X4.4044 Y-0.2987
G01 X4.3700 Y-0.3220
G01 X4.3633 Y-0.3274
G01 X4.1965 Y-0.4944
G01 X4.1737 Y-0.5252
G01 X4.1679 Y-0.5346
G01 X4.1636 Y-0.5447
G01 X4.1529 Y-0.5791
G01 X4.1508 Y-0.5892
G01 X4.1501 Y-0.5977
G01 X4.1514 Y-0.6379
G01 X4.1523 Y-0.6452
G01 X4.1718 Y-0.7501
G01 X4.1804 Y-0.8890
G01 X4.1718 Y-1.0279
G01 X4.1460 Y-1.1655
G01 X4.1040 Y-1.2982
G01 X4.0458 Y-1.4246
G01 X3.9723 Y-1.5431
G01 X3.8849 Y-1.6519
G01 X3.7847 Y-1.7488
G01 X3.6734 Y-1.8328
G01 X3.5526 Y-1.9026
G01 X3.4242 Y-1.9570
G01 X3.2900 Y-1.9952
G01 X3.1525 Y-2.0167
G01 X3.0131 Y-2.0210
G01 X2.8743 Y-2.0081
G01 X2.7382 Y-1.9780
G01 X2.6068 Y-1.9317
G01 X2.4817 Y-1.8696
G01 X2.3658 Y-1.7927
G01 X2.2598 Y-1.7020
G01 X2.1657 Y-1.5989
G01 X2.0850 Y-1.4853
G01 X2.0192 Y-1.3622
G01 X1.9691 Y-1.2323
G01 X1.9352 Y-1.0972
G01 X1.9180 Y-0.9587
G01 X1.9180 Y-0.8193
G01 X1.9352 Y-0.6808
G01 X1.9691 Y-0.5457
G01 X2.0192 Y-0.4158
G01 X2.0850 Y-0.2927
G01 X2.1657 Y-0.1791
G01 X2.2598 Y-0.0760
G01 X2.3656 Y0.0146
G01 X2.4105 Y0.0441
G01 X2.4165 Y0.0485
G01 X2.4220 Y0.0535
G01 X2.4507 Y0.0822
G01 X2.4565 Y0.0891
G01 X2.4623 Y0.0983
G01 X2.4799 Y0.1383
G01 X2.4824 Y0.1450
G01 X2.4839 Y0.1501
G01 X2.4852 Y0.1571
G01 X2.4858 Y0.1643
G01 X2.4874 Y0.2064
G01 X2.4870 Y0.2135
G01 X2.4859 Y0.2205
G01 X2.4836 Y0.2290
G01 X2.4692 Y0.2684
G01 X2.4644 Y0.2783
G01 X2.4593 Y0.2859
G01 X2.4299 Y0.3190
G01 X2.4236 Y0.3252
G01 X2.3113 Y0.4102
G01 X2.2111 Y0.5071
G01 X2.1237 Y0.6159
G01 X2.0502 Y0.7344
G01 X1.9920 Y0.8608
G01 X1.9499 Y0.9935
G01 X1.9241 Y1.1311
G01 X1.9156 Y1.2700
G01 X1.9241 Y1.4089
G01 X1.9499 Y1.5465
G01 X1.9920 Y1.6792
G01 X2.0502 Y1.8056
G01 X2.1237 Y1.9241
G01 X2.2111 Y2.0329
G01 X2.3114 Y2.1299
G01 X2.4629 Y2.2451
G01 X2.4684 Y2.2497
G01 X2.4745 Y2.2561
G01 X2.4778 Y2.2603
G01 X2.4816 Y2.2663
G01 X2.5003 Y2.2983
G01 X2.5042 Y2.3066
G01 X2.5060 Y2.3118
G01 X2.5078 Y2.3189
G01 X2.5148 Y2.3588
G01 X2.5154 Y2.3678
G01 X2.5154 Y3.0998
G01 X2.5145 Y3.1108
G01 X2.5081 Y3.1466
G01 X2.5065 Y3.1537
G01 X2.5042 Y3.1605
G01 X2.5012 Y3.1671
G01 X2.4827 Y3.2007
G01 X2.4781 Y3.2076
G01 X2.4182 Y3.2808
G01 X2.3925 Y3.3205
G01 X2.3884 Y3.3262
G01 X2.3838 Y3.3314
G01 X2.3531 Y3.3630
G01 X2.3461 Y3.3685
G01 X2.3370 Y3.3740
G01 X2.2977 Y3.3912
G01 X2.2892 Y3.3943
G01 X2.2823 Y3.3960
G01 X2.2751 Y3.3970
G01 X2.2324 Y3.3987
G00 Z1.0000
G00 X2.6175 Y3.2032
G01 F25.00
G01 Z-0.0480
G01 F120.00
G01 X2.6175 Y2.2050
G01 X2.5680 Y2.1815
G01 X2.5601 Y2.1775
G01 X2.4810 Y2.1301
G01 X2.4735 Y2.1253
G01 X2.3949 Y2.0669
G01 X2.3223 Y2.0013
G01 X2.3150 Y1.9939
G01 X2.2557 Y1.9285
G01 X2.2476 Y1.9186
G01 X2.1909 Y1.8418
G01 X2.1425 Y1.7613
G01 X2.1382 Y1.7535
G01 X2.0958 Y1.6636
G01 X2.0623 Y1.5698
G01 X2.0376 Y1.4717
G01 X2.0234 Y1.3773
G01 X2.0222 Y1.3653
G01 X2.0178 Y1.2764
G01 X2.0178 Y1.2636
G01 X2.0227 Y1.1683
G01 X2.0364 Y1.0753
G01 X2.0380 Y1.0666
G01 X2.0623 Y0.9702
G01 X2.0964 Y0.8751
G01 X2.1397 Y0.7837
G01 X2.1917 Y0.6970
G01 X2.2520 Y0.6158
G01 X2.3200 Y0.5410
G01 X2.3949 Y0.4731
G01 X2.4762 Y0.4129
G01 X2.5629 Y0.3610
G01 X2.6544 Y0.3178
G01 X2.7496 Y0.2838
G01 X2.8477 Y0.2593
G01 X2.9477 Y0.2446
G01 X3.0487 Y0.2397
G01 X3.1497 Y0.2447
G01 X3.2427 Y0.2584
G01 X3.2514 Y0.2600
G01 X3.3464 Y0.2838
G01 X3.4363 Y0.3158
G01 X3.4481 Y0.3207
G01 X3.5343 Y0.3617
G01 X3.6150 Y0.4099
G01 X3.6256 Y0.4170
G01 X3.7022 Y0.4740
G01 X3.7760 Y0.5410
G01 X3.8403 Y0.6115
G01 X3.8484 Y0.6214
G01 X3.9051 Y0.6982
G01 X3.9563 Y0.7837
G01 X3.9973 Y0.8699
G01 X4.0022 Y0.8817
G01 X4.0342 Y0.9716
G01 X4.0573 Y1.0634
G01 X4.0596 Y1.0753
G01 X4.0733 Y1.1683
G01 X4.0782 Y1.2636
G01 X4.0782 Y1.2764
G01 X4.0738 Y1.3653
G01 X4.0726 Y1.3773
G01 X4.0584 Y1.4717
G01 X4.0337 Y1.5698
G01 X4.0002 Y1.6636
G01 X3.9578 Y1.7535
G01 X3.9535 Y1.7613
G01 X3.9051 Y1.8418
G01 X3.8484 Y1.9186
G01 X3.8403 Y1.9285
G01 X3.7810 Y1.9939
G01 X3.7737 Y2.0013
G01 X3.7011 Y2.0669
G01 X3.6225 Y2.1253
G01 X3.6150 Y2.1301
G01 X3.5359 Y2.1775
G01 X3.5280 Y2.1815
G01 X3.4785 Y2.2050
G01 X3.4785 Y2.8344
G01 X3.4921 Y2.8337
G01 X3.5017 Y2.8338
G01 X3.6103 Y2.8391
G01 X3.6223 Y2.8403
G01 X3.7368 Y2.8575
G01 X3.8525 Y2.8865
G01 X3.9609 Y2.9250
G01 X3.9727 Y2.9299
G01 X4.0766 Y2.9793
G01 X4.1790 Y3.0406
G01 X4.2715 Y3.1090
G01 X4.2814 Y3.1171
G01 X4.3665 Y3.1945
G01 X4.4466 Y3.2829
G01 X4.5153 Y3.3752
G01 X4.5224 Y3.3859
G01 X4.5814 Y3.4847
G01 X4.6324 Y3.5925
G01 X4.6714 Y3.7008
G01 X4.6751 Y3.7130
G01 X4.7029 Y3.8247
G01 X4.7204 Y3.9427
G01 X4.7262 Y4.0576
G01 X4.7262 Y4.0704
G01 X4.7204 Y4.1853
G01 X4.7029 Y4.3033
G01 X4.6751 Y4.4150
G01 X4.6714 Y4.4272
G01 X4.6324 Y4.5355
G01 X4.5814 Y4.6433
G01 X4.5224 Y4.7421
G01 X4.5153 Y4.7528
G01 X4.4466 Y4.8451
G01 X4.3655 Y4.9345
G01 X4.2814 Y5.0109
G01 X4.2715 Y5.0190
G01 X4.1790 Y5.0874
G01 X4.0816 Y5.1459
G01 X4.0703 Y5.1519
G01 X3.9662 Y5.2009
G01 X3.8593 Y5.2393
G01 X3.8470 Y5.2430
G01 X3.7354 Y5.2708
G01 X3.6230 Y5.2876
G01 X3.6103 Y5.2889
G01 X3.4953 Y5.2943
G01 X3.3762 Y5.2885
G01 X3.2623 Y5.2718
G01 X3.2498 Y5.2693
G01 X3.1396 Y5.2415
G01 X3.0312 Y5.2030
G01 X3.0194 Y5.1981
G01 X2.9167 Y5.1494
G01 X2.8179 Y5.0904
G01 X2.8073 Y5.0833
G01 X2.7150 Y5.0146
G01 X2.6307 Y4.9384
G01 X2.6217 Y4.9293
G01 X2.5446 Y4.8440
G01 X2.4768 Y4.7528
G01 X2.4697 Y4.7421
G01 X2.4113 Y4.6446
G01 X2.3620 Y4.5407
G01 X2.3571 Y4.5289
G01 X2.3185 Y4.4205
G01 X2.2908 Y4.3103
G01 X2.2883 Y4.2977
G01 X2.2724 Y4.1909
G01 X2.2712 Y4.1782
G01 X2.2657 Y4.0647
G01 X2.2712 Y3.9498
G01 X2.2724 Y3.9371
G01 X2.2895 Y3.8233
G01 X2.3170 Y3.7130
G01 X2.3207 Y3.7008
G01 X2.3597 Y3.5925
G01 X2.4113 Y3.4834
G01 X2.4727 Y3.3811
G01 X2.5411 Y3.2885
G01 X2.5492 Y3.2786
G01 X2.6175 Y3.2032
G01 X2.6754 Y3.2272
G01 X2.6754 Y2.1682
G01 X2.5896 Y2.1276
G01 X2.5078 Y2.0785
G01 X2.4311 Y2.0217
G01 X2.3630 Y1.9600
G01 X2.3580 Y1.9550
G01 X2.2986 Y1.8896
G01 X2.2941 Y1.8841
G01 X2.2395 Y1.8102
G01 X2.1904 Y1.7284
G01 X2.1496 Y1.6421
G01 X2.1175 Y1.5523
G01 X2.0943 Y1.4597
G01 X2.0807 Y1.3688
G01 X2.0800 Y1.3618
G01 X2.0757 Y1.2736
G01 X2.0757 Y1.2664
G01 X2.0803 Y1.1747
G01 X2.0947 Y1.0786
G01 X2.1175 Y0.9877
G01 X2.1496 Y0.8979
G01 X2.1904 Y0.8116
G01 X2.2395 Y0.7298
G01 X2.2963 Y0.6531
G01 X2.3604 Y0.5824
G01 X2.4311 Y0.5183
G01 X2.5078 Y0.4615
G01 X2.5896 Y0.4124
G01 X2.6759 Y0.3716
G01 X2.7657 Y0.3395
G01 X2.8583 Y0.3163
G01 X2.9527 Y0.3023
G01 X3.0480 Y0.2976
G01 X3.1433 Y0.3023
G01 X3.2377 Y0.3163
G01 X3.3303 Y0.3395
G01 X3.4168 Y0.3703
G01 X3.4234 Y0.3731
G01 X3.5064 Y0.4124
G01 X3.5852 Y0.4596
G01 X3.5911 Y0.4635
G01 X3.6649 Y0.5183
G01 X3.7356 Y0.5824
G01 X3.7974 Y0.6504
G01 X3.8019 Y0.6559
G01 X3.8565 Y0.7298
G01 X3.9056 Y0.8116
G01 X3.9449 Y0.8946
G01 X3.9477 Y0.9012
G01 X3.9785 Y0.9877
G01 X4.0009 Y1.0768
G01 X4.0023 Y1.0838
G01 X4.0157 Y1.1747
G01 X4.0203 Y1.2664
G01 X4.0203 Y1.2736
G01 X4.0160 Y1.3618
G01 X4.0153 Y1.3688
G01 X4.0017 Y1.4597
G01 X3.9785 Y1.5523
G01 X3.9464 Y1.6421
G01 X3.9056 Y1.7284
G01 X3.8565 Y1.8102
G01 X3.8019 Y1.8841
G01 X3.7974 Y1.8896
G01 X3.7380 Y1.9550
G01 X3.7330 Y1.9600
G01 X3.6649 Y2.0217
G01 X3.5882 Y2.0785
G01 X3.5064 Y2.1276
G01 X3.4206 Y2.1682
G01 X3.4206 Y2.8952
G01 X3.4960 Y2.8916
G01 X3.6127 Y2.8974
G01 X3.7248 Y2.9141
G01 X3.8347 Y2.9416
G01 X3.9414 Y2.9796
G01 X3.9480 Y2.9823
G01 X4.0487 Y3.0300
G01 X4.1459 Y3.0882
G01 X4.2370 Y3.1555
G01 X4.2425 Y3.1600
G01 X4.3251 Y3.2350
G01 X4.4023 Y3.3202
G01 X4.4688 Y3.4097
G01 X4.4728 Y3.4157
G01 X4.5300 Y3.5113
G01 X4.5785 Y3.6137
G01 X4.6169 Y3.7203
G01 X4.6189 Y3.7271
G01 X4.6459 Y3.8353
G01 X4.6628 Y3.9491
G01 X4.6684 Y4.0604
G01 X4.6684 Y4.0676
G01 X4.6628 Y4.1789
G01 X4.6459 Y4.2927
G01 X4.6180 Y4.4043
G01 X4.5805 Y4.5093
G01 X4.5778 Y4.5159
G01 X4.5300 Y4.6167
G01 X4.4728 Y4.7123
G01 X4.4688 Y4.7183
G01 X4.4023 Y4.8078
G01 X4.3251 Y4.8930
G01 X4.2398 Y4.9703
G01 X4.1474 Y5.0388
G01 X4.0487 Y5.0980
G01 X3.9447 Y5.1472
G01 X3.8364 Y5.1859
G01 X3.7248 Y5.2139
G01 X3.6110 Y5.2308
G01 X3.4961 Y5.2364
G01 X3.3811 Y5.2308
G01 X3.2673 Y5.2139
G01 X3.1557 Y5.1859
G01 X3.0474 Y5.1472
G01 X2.9434 Y5.0980
G01 X2.8447 Y5.0388
G01 X2.7523 Y4.9703
G01 X2.6670 Y4.8930
G01 X2.5898 Y4.8078
G01 X2.5212 Y4.7154
G01 X2.4621 Y4.6167
G01 X2.4129 Y4.5127
G01 X2.3741 Y4.4043
G01 X2.3462 Y4.2927
G01 X2.3293 Y4.1789
G01 X2.3237 Y4.0640
G01 X2.3293 Y3.9491
G01 X2.3462 Y3.8353
G01 X2.3741 Y3.7237
G01 X2.4129 Y3.6153
G01 X2.4621 Y3.5113
G01 X2.5212 Y3.4126
G01 X2.5898 Y3.3202
G01 X2.6646 Y3.2376
G01 X2.6754 Y3.2272
G00 Z1.0000
G00 X3.5414 Y2.7778
G01 F25.00
G01 Z-0.0480
G01 F120.00
G01 X3.5394 Y2.7756
G01 X3.5364 Y2.7723
G01 X3.5364 Y2.7775
G01 X3.5414 Y2.7778
G00 Z1.0000
G00 X4.7319 Y3.3988
G01 F25.00
G01 Z-0.0480
G01 F120.00
G01 X4.7250 Y3.3986
G01 X4.7181 Y3.3978
G01 X4.7114 Y3.3964
G01 X4.7049 Y3.3943
G01 X4.6627 Y3.3785
G01 X4.6531 Y3.3732
G01 X4.6459 Y3.3677
G01 X4.6147 Y3.3383
G01 X4.6079 Y3.3309
G01 X4.5276 Y3.2205
G01 X4.4245 Y3.1086
G01 X4.3098 Y3.0089
G01 X4.1840 Y2.9231
G01 X4.0496 Y2.8518
G01 X3.9076 Y2.7970
G01 X3.7604 Y2.7584
G01 X3.7299 Y2.7539
G01 X3.7226 Y2.7524
G01 X3.6810 Y2.7385
G01 X3.6711 Y2.7341
G01 X3.6635 Y2.7293
G01 X3.6300 Y2.7025
G01 X3.6238 Y2.6963
G01 X3.6174 Y2.6880
G01 X3.5973 Y2.6540
G01 X3.5932 Y2.6460
G01 X3.5906 Y2.6392
G01 X3.5888 Y2.6322
G01 X3.5812 Y2.5911
G01 X3.5806 Y2.5816
G01 X3.5806 Y2.3663
G01 X3.5810 Y2.3593
G01 X3.5876 Y2.3193
G01 X3.5893 Y2.3122
G01 X3.5911 Y2.3070
G01 X3.5941 Y2.3003
G01 X3.6116 Y2.2681
G01 X3.6155 Y2.2622
G01 X3.6211 Y2.2553
G01 X3.6492 Y2.2286
G01 X3.6559 Y2.2230
G01 X3.7302 Y2.1737
G01 X3.8362 Y2.0830
G01 X3.9303 Y1.9799
G01 X4.0109 Y1.8663
G01 X4.0768 Y1.7432
G01 X4.1269 Y1.6133
G01 X4.1608 Y1.4782
G01 X4.1780 Y1.3397
G01 X4.1780 Y1.2003
G01 X4.1608 Y1.0618
G01 X4.1462 Y1.0031
G01 X4.1448 Y0.9960
G01 X4.1416 Y0.9540
G01 X4.1416 Y0.9448
G01 X4.1423 Y0.9376
G01 X4.1443 Y0.9287
G01 X4.1566 Y0.8902
G01 X4.1601 Y0.8819
G01 X4.1636 Y0.8756
G01 X4.1666 Y0.8711
G01 X4.1934 Y0.8366
G01 X4.2010 Y0.8293
G01 X4.2081 Y0.8241
G01 X4.2426 Y0.8030
G01 X4.2505 Y0.7990
G01 X4.2572 Y0.7966
G01 X4.2641 Y0.7948
G01 X4.3019 Y0.7878
G01 X4.3112 Y0.7867
G01 X4.9069 Y0.7866
G01 X4.9170 Y0.7876
G01 X4.9597 Y0.7957
G01 X4.9712 Y0.7995
G01 X4.9819 Y0.8052
G01 X5.0159 Y0.8270
G01 X5.0216 Y0.8313
G01 X5.0269 Y0.8361
G01 X5.0338 Y0.8443
G01 X5.0567 Y0.8772
G01 X5.0604 Y0.8832
G01 X5.0635 Y0.8895
G01 X5.0670 Y0.8994
G01 X5.0766 Y0.9382
G01 X5.0777 Y0.9435
G01 X5.0786 Y0.9507
G01 X5.0787 Y0.9561
G01 X5.0783 Y0.9633
G01 X5.0721 Y1.0084
G01 X5.0698 Y1.0169
G01 X5.0657 Y1.0267
G01 X5.0419 Y1.0677
G01 X5.0366 Y1.0746
