(G-CODE GENERATED BY FLATCAM v8.994 - www.flatcam.org - Version Date: 2020/11/7)

(Name: Gerber_BottomLayer.GBL_1_ncc_1_cnc)
(Type: G-code from Geometry)
(Units: MM)

(Created on Friday, 15 July 2022 at 22:27)

(This preprocessor is the default preprocessor used by FlatCAM.)
(It is made to work with MACH3 compatible motion controllers.)

(TOOL DIAMETER: 0.156 mm)
(Feedrate_XY: 120.0 mm/min)
(Feedrate_Z: 25.0 mm/min)
(Feedrate rapids 1500.0 mm/min)

(Z_Cut: -0.06 mm)
(Z_Move: 1.0 mm)
(Z Start: None mm)
(Z End: 15.0 mm)
(X,Y End: None mm)
(Steps per circle: 64)
(Preprocessor Geometry: default)

(X range:   -8.4206 ...    7.9146  mm)
(Y range:   -5.7584 ...    6.1365  mm)

(Spindle Speed: 1000.0 RPM)
G21
G90
G94

G01 F120.00

M5
G00 Z15.0000
G00 X0.0000 Y0.0000
T1
M6    
(MSG, Change to Tool Dia = 0.1560)
M0
G00 Z15.0000

M03 S1000.0
G01 F120.00
G00 X2.6115 Y0.1233
G01 F25.00
G01 Z-0.0600
G01 F120.00
G01 X2.6141 Y0.1376
G01 X2.6158 Y0.1526
G01 X2.6178 Y0.2069
G01 X2.6174 Y0.2190
G01 X2.6160 Y0.2331
G01 X2.6139 Y0.2455
G01 X2.6110 Y0.2580
G01 X2.6221 Y0.2528
G01 X2.6320 Y0.2488
G01 X2.7246 Y0.2157
G01 X2.7371 Y0.2121
G01 X2.8234 Y0.1905
G01 X2.7371 Y0.1689
G01 X2.7246 Y0.1653
G01 X2.6338 Y0.1329
G01 X2.6228 Y0.1285
G01 X2.6115 Y0.1233
G01 X3.2726 Y0.1905
G01 X3.3589 Y0.2121
G01 X3.3696 Y0.2151
G01 X3.4622 Y0.2481
G01 X3.4714 Y0.2517
G01 X3.4825 Y0.2568
G01 X3.3859 Y0.1602
G01 X3.3721 Y0.1650
G01 X3.3619 Y0.1681
G01 X3.2726 Y0.1905
G01 X4.0031 Y0.7205
G01 X4.0165 Y0.7428
G01 X4.0222 Y0.7532
G01 X4.0499 Y0.8116
G01 X4.0565 Y0.8010
G01 X4.0635 Y0.7912
G01 X4.0889 Y0.7584
G01 X4.0976 Y0.7482
G01 X4.0843 Y0.7454
G01 X4.0465 Y0.7357
G01 X4.0359 Y0.7323
G01 X4.0031 Y0.7205
G01 X5.1310 Y0.7570
G01 X5.1411 Y0.7701
G01 X5.1685 Y0.8099
G01 X5.1773 Y0.8253
G01 X5.1847 Y0.8411
G01 X5.1889 Y0.8524
G01 X5.1924 Y0.8636
G01 X5.2040 Y0.9104
G01 X5.2072 Y0.9276
G01 X5.2089 Y0.9449
G01 X5.3001 Y0.8774
G01 X5.3092 Y0.8716
G01 X5.3963 Y0.8194
G01 X5.4105 Y0.8120
G01 X5.5010 Y0.7692
G01 X5.5126 Y0.7642
G01 X5.5327 Y0.7570
G01 X5.1310 Y0.7570
G01 X5.2432 Y0.8194
G01 X5.2495 Y0.8369
G01 X5.2626 Y0.8274
G01 X5.2751 Y0.8194
G01 X5.2432 Y0.8194
G00 Z1.0000
G00 X5.5296 Y-0.3117
G01 F25.00
G01 Z-0.0600
G01 F120.00
G01 X6.3172 Y-0.3114
G01 X6.3138 Y-0.3268
G01 X6.3113 Y-0.3431
G01 X6.3057 Y-0.4043
G01 X6.2280 Y-0.3849
G01 X6.2147 Y-0.3819
G01 X6.1018 Y-0.3650
G01 X6.0800 Y-0.3630
G01 X5.9805 Y-0.3581
G01 X5.9606 Y-0.3580
G01 X5.8578 Y-0.3630
G01 X5.8442 Y-0.3640
G01 X5.8323 Y-0.3655
G01 X5.8321 Y-0.3655
G01 X5.7350 Y-0.3799
G01 X5.7278 Y-0.3811
G01 X5.7102 Y-0.3848
G01 X5.6087 Y-0.4103
G01 X5.5934 Y-0.4150
G01 X5.5554 Y-0.4286
G01 X5.5513 Y-0.3880
G01 X5.5496 Y-0.3762
G01 X5.5472 Y-0.3641
G01 X5.5440 Y-0.3513
G01 X5.5400 Y-0.3381
G01 X5.5350 Y-0.3244
G01 X5.5296 Y-0.3117
G01 X6.3822 Y-0.4947
G01 X6.3265 Y-0.4748
G01 X6.3148 Y-0.4711
G01 X6.2130 Y-0.4455
G01 X6.1995 Y-0.4426
G01 X6.0968 Y-0.4273
G01 X6.0861 Y-0.4260
G01 X6.0770 Y-0.4253
G01 X5.9790 Y-0.4205
G01 X5.9786 Y-0.4205
G01 X5.9633 Y-0.4203
G01 X5.8610 Y-0.4253
G01 X5.8503 Y-0.4261
G01 X5.7442 Y-0.4417
G01 X5.7310 Y-0.4441
G01 X5.6294 Y-0.4694
G01 X5.6166 Y-0.4731
G01 X5.5148 Y-0.5094
G01 X5.5034 Y-0.5141
G01 X5.4866 Y-0.5220
G01 X5.4904 Y-0.5074
G01 X5.4932 Y-0.4921
G01 X5.4947 Y-0.4774
G01 X5.4951 Y-0.4607
G01 X5.4943 Y-0.4459
G01 X5.4897 Y-0.3981
G01 X5.4876 Y-0.3844
G01 X5.4849 Y-0.3720
G01 X5.4815 Y-0.3601
G01 X5.4769 Y-0.3470
G01 X5.4718 Y-0.3354
G01 X5.4662 Y-0.3243
G01 X5.4372 Y-0.2749
G01 X5.4275 Y-0.2611
G01 X5.4173 Y-0.2490
G01 X6.4133 Y-0.2490
G01 X6.3954 Y-0.2804
G01 X6.3908 Y-0.2895
G01 X6.3860 Y-0.3007
G01 X6.3817 Y-0.3125
G01 X6.3781 Y-0.3249
G01 X6.3754 Y-0.3372
G01 X6.3733 Y-0.3500
G01 X6.3681 Y-0.4061
G01 X6.3677 Y-0.4188
G01 X6.3680 Y-0.4310
G01 X6.3696 Y-0.4467
G01 X6.3726 Y-0.4634
G01 X6.3766 Y-0.4786
G01 X6.3822 Y-0.4947
G00 Z1.0000
G00 X6.6396 Y-2.6785
G01 F25.00
G01 Z-0.0600
G01 F120.00
G01 X6.6114 Y-2.6618
G01 X6.5904 Y-2.6515
G01 X6.6374 Y-2.6231
G01 X6.6365 Y-2.6369
G01 X6.6366 Y-2.6513
G01 X6.6376 Y-2.6649
G01 X6.6396 Y-2.6785
G00 Z1.0000
G00 X5.6178 Y-2.6410
G01 F25.00
G01 Z-0.0600
G01 F120.00
G01 X5.6178 Y-2.6956
G01 X5.5451 Y-2.7217
G01 X5.4440 Y-2.7694
G01 X5.4373 Y-2.7730
G01 X5.3431 Y-2.8295
G01 X5.2486 Y-2.8994
G01 X5.1643 Y-2.9757
G01 X5.0853 Y-3.0627
G01 X5.0187 Y-3.1524
G01 X5.0144 Y-3.1588
G01 X4.9561 Y-3.2564
G01 X4.9076 Y-3.3592
G01 X4.8686 Y-3.4680
G01 X4.8406 Y-3.5802
G01 X4.8236 Y-3.6945
G01 X4.8179 Y-3.8100
G01 X4.8236 Y-3.9255
G01 X4.8406 Y-4.0398
G01 X4.8686 Y-4.1520
G01 X4.9076 Y-4.2608
G01 X4.9570 Y-4.3653
G01 X5.0164 Y-4.4645
G01 X5.0853 Y-4.5573
G01 X5.1629 Y-4.6430
G01 X5.2486 Y-4.7206
G01 X5.3415 Y-4.7895
G01 X5.4406 Y-4.8489
G01 X5.5451 Y-4.8983
G01 X5.6540 Y-4.9373
G01 X5.7661 Y-4.9654
G01 X5.8805 Y-4.9823
G01 X5.9959 Y-4.9880
G01 X6.1114 Y-4.9823
G01 X6.2257 Y-4.9654
G01 X6.3379 Y-4.9373
G01 X6.4467 Y-4.8983
G01 X6.5478 Y-4.8506
G01 X6.5546 Y-4.8470
G01 X6.6471 Y-4.7915
G01 X6.6535 Y-4.7873
G01 X6.7432 Y-4.7206
G01 X6.8289 Y-4.6430
G01 X6.9065 Y-4.5573
G01 X6.9732 Y-4.4676
G01 X6.9774 Y-4.4612
G01 X7.0329 Y-4.3686
G01 X7.0365 Y-4.3619
G01 X7.0843 Y-4.2608
G01 X7.1232 Y-4.1520
G01 X7.1513 Y-4.0398
G01 X7.1678 Y-3.9293
G01 X7.1685 Y-3.9216
G01 X7.1739 Y-3.8081
G01 X7.1682 Y-3.6945
G01 X7.1519 Y-3.5840
G01 X7.1504 Y-3.5764
G01 X7.1232 Y-3.4680
G01 X7.0843 Y-3.3592
G01 X7.0365 Y-3.2581
G01 X7.0329 Y-3.2514
G01 X6.9743 Y-3.1540
G01 X6.9065 Y-3.0627
G01 X6.8315 Y-2.9798
G01 X6.8261 Y-2.9744
G01 X6.7417 Y-2.8982
G01 X6.6504 Y-2.8305
G01 X6.5529 Y-2.7720
G01 X6.4467 Y-2.7217
G01 X6.3741 Y-2.6956
G01 X6.3741 Y-2.6218
G01 X6.3850 Y-2.6174
G01 X6.4772 Y-2.5738
G01 X6.5647 Y-2.5214
G01 X6.5710 Y-2.5172
G01 X6.6499 Y-2.4587
G01 X6.6558 Y-2.4539
G01 X6.7313 Y-2.3853
G01 X6.7998 Y-2.3098
G01 X6.8047 Y-2.3039
G01 X6.8631 Y-2.2251
G01 X6.8674 Y-2.2187
G01 X6.9197 Y-2.1312
G01 X6.9642 Y-2.0373
G01 X7.0006 Y-1.9360
G01 X7.0254 Y-1.8371
G01 X7.0269 Y-1.8296
G01 X7.0413 Y-1.7325
G01 X7.0421 Y-1.7249
G01 X7.0470 Y-1.6231
G01 X7.0418 Y-1.5174
G01 X7.0263 Y-1.4127
G01 X7.0011 Y-1.3120
G01 X6.9649 Y-1.2105
G01 X6.9214 Y-1.1183
G01 X6.9178 Y-1.1116
G01 X6.8653 Y-1.0241
G01 X6.8047 Y-0.9422
G01 X6.7998 Y-0.9363
G01 X6.7313 Y-0.8608
G01 X6.6529 Y-0.7897
G01 X6.5710 Y-0.7289
G01 X6.5647 Y-0.7247
G01 X6.4772 Y-0.6723
G01 X6.3850 Y-0.6287
G01 X6.3780 Y-0.6257
G01 X6.2838 Y-0.5920
G01 X6.1793 Y-0.5658
G01 X6.0785 Y-0.5507
G01 X6.0708 Y-0.5500
G01 X5.9728 Y-0.5451
G01 X5.9652 Y-0.5451
G01 X5.8633 Y-0.5502
G01 X5.7587 Y-0.5658
G01 X5.6561 Y-0.5915
G01 X5.5565 Y-0.6271
G01 X5.4608 Y-0.6723
G01 X5.3701 Y-0.7267
G01 X5.2851 Y-0.7897
G01 X5.2095 Y-0.8581
G01 X5.2041 Y-0.8636
G01 X5.1382 Y-0.9363
G01 X5.1333 Y-0.9422
G01 X5.0727 Y-1.0241
G01 X5.0202 Y-1.1116
G01 X5.0166 Y-1.1183
G01 X4.9731 Y-1.2105
G01 X4.9386 Y-1.3065
G01 X4.9364 Y-1.3138
G01 X4.9126 Y-1.4090
G01 X4.9111 Y-1.4165
G01 X4.8962 Y-1.5174
G01 X4.8911 Y-1.6192
G01 X4.8911 Y-1.6269
G01 X4.8962 Y-1.7287
G01 X4.9117 Y-1.8334
G01 X4.9374 Y-1.9360
G01 X4.9723 Y-2.0338
G01 X5.0183 Y-2.1312
G01 X5.0727 Y-2.2220
G01 X5.1357 Y-2.3069
G01 X5.2081 Y-2.3866
G01 X5.2851 Y-2.4564
G01 X5.3717 Y-2.5204
G01 X5.4625 Y-2.5746
G01 X5.5565 Y-2.6190
G01 X5.6178 Y-2.6410
G01 X5.5132 Y-2.6676
G01 X5.4105 Y-2.7164
G01 X5.3126 Y-2.7750
G01 X5.3018 Y-2.7822
G01 X5.2084 Y-2.8516
G01 X5.1194 Y-2.9324
G01 X5.0376 Y-3.0225
G01 X4.9685 Y-3.1152
G01 X4.9609 Y-3.1267
G01 X4.9054 Y-3.2193
G01 X4.8989 Y-3.2314
G01 X4.8497 Y-3.3360
G01 X4.8092 Y-3.4492
G01 X4.7795 Y-3.5673
G01 X4.7623 Y-3.6816
G01 X4.7610 Y-3.6953
G01 X4.7557 Y-3.8031
G01 X4.7555 Y-3.8127
G01 X4.7610 Y-3.9247
G01 X4.7623 Y-3.9384
G01 X4.7792 Y-4.0512
G01 X4.8071 Y-4.1634
G01 X4.8111 Y-4.1766
G01 X4.8497 Y-4.2840
G01 X4.9016 Y-4.3940
G01 X4.9650 Y-4.4998
G01 X5.0328 Y-4.5915
G01 X5.0416 Y-4.6021
G01 X5.1183 Y-4.6866
G01 X5.2038 Y-4.7643
G01 X5.2145 Y-4.7731
G01 X5.3012 Y-4.8374
G01 X5.3126 Y-4.8450
G01 X5.4105 Y-4.9036
G01 X5.5219 Y-4.9563
G01 X5.6366 Y-4.9972
G01 X5.7472 Y-5.0251
G01 X5.7607 Y-5.0277
G01 X5.8675 Y-5.0436
G01 X5.8812 Y-5.0449
G01 X5.9952 Y-5.0504
G01 X6.1106 Y-5.0449
G01 X6.1243 Y-5.0436
G01 X6.2372 Y-5.0267
G01 X6.3567 Y-4.9968
G01 X6.4699 Y-4.9563
G01 X6.5745 Y-4.9070
G01 X6.5866 Y-4.9005
G01 X6.6857 Y-4.8409
G01 X6.7822 Y-4.7693
G01 X6.8680 Y-4.6918
G01 X6.8778 Y-4.6821
G01 X6.9552 Y-4.5963
G01 X7.0268 Y-4.4998
G01 X7.0865 Y-4.4007
G01 X7.0930 Y-4.3886
G01 X7.1422 Y-4.2840
G01 X7.1827 Y-4.1708
G01 X7.2110 Y-4.0587
G01 X7.2137 Y-4.0452
G01 X7.2295 Y-3.9384
G01 X7.2308 Y-3.9255
G01 X7.2363 Y-3.8108
G01 X7.2309 Y-3.6953
G01 X7.2295 Y-3.6816
G01 X7.2137 Y-3.5748
G01 X7.2110 Y-3.5613
G01 X7.1827 Y-3.4492
G01 X7.1416 Y-3.3346
G01 X7.0902 Y-3.2260
G01 X7.0306 Y-3.1260
G01 X7.0233 Y-3.1152
G01 X6.9590 Y-3.0285
G01 X6.9503 Y-3.0179
G01 X6.8725 Y-2.9324
G01 X6.7822 Y-2.8507
G01 X6.6857 Y-2.7791
G01 X6.5860 Y-2.7191
G01 X6.5745 Y-2.7130
G01 X6.4762 Y-2.6665
G01 X6.4667 Y-2.6625
G01 X6.4491 Y-2.6562
G01 X6.5004 Y-2.6319
G01 X6.5089 Y-2.6275
G01 X6.5990 Y-2.5735
G01 X6.6082 Y-2.5673
G01 X6.6870 Y-2.5088
G01 X6.6945 Y-2.5029
G01 X6.7704 Y-2.4342
G01 X6.7801 Y-2.4244
G01 X6.8510 Y-2.3459
G01 X6.9148 Y-2.2601
G01 X6.9209 Y-2.2508
G01 X6.9751 Y-2.1600
G01 X7.0198 Y-2.0658
G01 X7.0251 Y-2.0530
G01 X7.0601 Y-1.9548
G01 X7.0860 Y-1.8523
G01 X7.0887 Y-1.8387
G01 X7.1031 Y-1.7417
G01 X7.1041 Y-1.7322
G01 X7.1094 Y-1.6238
G01 X7.1044 Y-1.5181
G01 X7.1031 Y-1.5044
G01 X7.0876 Y-1.4013
G01 X7.0621 Y-1.2987
G01 X7.0581 Y-1.2855
G01 X7.0229 Y-1.1873
G01 X6.9778 Y-1.0916
G01 X6.9713 Y-1.0795
G01 X6.9168 Y-0.9888
G01 X6.8548 Y-0.9050
G01 X6.8460 Y-0.8944
G01 X6.7759 Y-0.8172
G01 X6.6977 Y-0.7460
G01 X6.6870 Y-0.7373
G01 X6.6082 Y-0.6788
G01 X6.6003 Y-0.6734
G01 X6.5059 Y-0.6170
G01 X6.4047 Y-0.5692
G01 X6.2993 Y-0.5315
G01 X6.1907 Y-0.5044
G01 X6.0800 Y-0.4881
G01 X5.9682 Y-0.4827
G01 X5.8565 Y-0.4882
G01 X5.7458 Y-0.5047
G01 X5.6372 Y-0.5320
G01 X5.5319 Y-0.5698
G01 X5.4307 Y-0.6177
G01 X5.3348 Y-0.6753
G01 X5.2449 Y-0.7420
G01 X5.1621 Y-0.8172
G01 X5.0870 Y-0.9002
G01 X5.0248 Y-0.9838
G01 X5.0193 Y-0.9917
G01 X4.9629 Y-1.0861
G01 X4.9151 Y-1.1873
G01 X4.8775 Y-1.2927
G01 X4.8504 Y-1.4013
G01 X4.8342 Y-1.5105
G01 X4.8286 Y-1.6223
G01 X4.8340 Y-1.7341
G01 X4.8500 Y-1.8429
G01 X4.8520 Y-1.8523
G01 X4.8779 Y-1.9548
G01 X4.9129 Y-2.0530
G01 X4.9182 Y-2.0658
G01 X4.9629 Y-2.1600
G01 X5.0171 Y-2.2508
G01 X5.0248 Y-2.2623
G01 X5.0870 Y-2.3459
G01 X5.1632 Y-2.4300
G01 X5.2403 Y-2.5001
G01 X5.2504 Y-2.5084
G01 X5.3298 Y-2.5673
G01 X5.3412 Y-2.5749
G01 X5.4307 Y-2.6284
G01 X5.5132 Y-2.6676
G01 X5.3258 Y-2.6384
G01 X5.3724 Y-2.6664
G01 X5.3253 Y-2.6946
G01 X5.3268 Y-2.6814
G01 X5.3275 Y-2.6669
G01 X5.3271 Y-2.6531
G01 X5.3258 Y-2.6384
G00 Z1.0000
G00 X4.6798 Y-3.2689
G01 F25.00
G01 Z-0.0600
G01 F120.00
G01 X4.6928 Y-3.2717
G01 X4.7049 Y-3.2736
G01 X4.7167 Y-3.2747
G01 X4.7290 Y-3.2752
G01 X4.7830 Y-3.2737
G01 X4.7982 Y-3.2721
G01 X4.8118 Y-3.2696
G01 X4.7949 Y-3.3055
G01 X4.7899 Y-3.3175
G01 X4.7520 Y-3.4234
G01 X4.7488 Y-3.4333
G01 X4.7460 Y-3.4437
G01 X4.7432 Y-3.4333
G01 X4.7400 Y-3.4234
G01 X4.7021 Y-3.3175
G01 X4.6971 Y-3.3055
G01 X4.6798 Y-3.2689
G01 X4.7460 Y-4.1763
G01 X4.7488 Y-4.1867
G01 X4.7520 Y-4.1966
G01 X4.7899 Y-4.3025
G01 X4.7949 Y-4.3145
G01 X4.8118 Y-4.3504
G01 X4.7982 Y-4.3479
G01 X4.7830 Y-4.3463
G01 X4.7290 Y-4.3448
G01 X4.7167 Y-4.3452
G01 X4.7049 Y-4.3464
G01 X4.6928 Y-4.3482
G01 X4.6798 Y-4.3511
G01 X4.6971 Y-4.3145
G01 X4.7021 Y-4.3025
G01 X4.7400 Y-4.1966
G01 X4.7432 Y-4.1867
G01 X4.7460 Y-4.1763
G00 Z1.0000
G00 X2.2460 Y-3.4442
G01 F25.00
G01 Z-0.0600
G01 F120.00
G01 X2.2431 Y-3.4333
G01 X2.2399 Y-3.4234
G01 X2.2020 Y-3.3175
G01 X2.1970 Y-3.3055
G01 X2.1797 Y-3.2689
G01 X2.1920 Y-3.2717
G01 X2.2042 Y-3.2736
G01 X2.2161 Y-3.2747
G01 X2.2285 Y-3.2752
G01 X2.2825 Y-3.2737
G01 X2.2975 Y-3.2721
G01 X2.3120 Y-3.2695
G01 X2.2950 Y-3.3055
G01 X2.2900 Y-3.3175
G01 X2.2521 Y-3.4234
G01 X2.2489 Y-3.4333
G01 X2.2460 Y-3.4442
G01 X2.1086 Y-4.4851
G01 X2.1402 Y-4.4325
G01 X2.1465 Y-4.4211
G01 X2.1973 Y-4.3138
G01 X2.2030 Y-4.2996
G01 X2.2396 Y-4.1973
G01 X2.2431 Y-4.1867
G01 X2.2460 Y-4.1758
G01 X2.2489 Y-4.1867
G01 X2.2521 Y-4.1966
G01 X2.2904 Y-4.3034
G01 X2.1086 Y-4.4851
G01 X1.5159 Y-5.0038
G01 X1.6087 Y-4.9597
G01 X1.6184 Y-4.9543
G01 X1.6710 Y-4.9227
G01 X1.5900 Y-5.0038
G01 X1.5159 Y-5.0038
G00 Z1.0000
G00 X0.2009 Y-4.9414
G01 F25.00
G01 Z-0.0600
G01 F120.00
G01 X0.2073 Y-4.9232
G01 X0.2320 Y-4.9414
G01 X0.2009 Y-4.9414
G01 X0.0880 Y-5.0038
G01 X0.0955 Y-4.9942
G01 X0.1241 Y-4.9547
G01 X0.1333 Y-4.9391
G01 X0.1412 Y-4.9224
G01 X0.1456 Y-4.9111
G01 X0.1490 Y-4.9006
G01 X0.1612 Y-4.8536
G01 X0.1648 Y-4.8344
G01 X0.1666 Y-4.8147
G01 X0.1770 Y-4.8230
G01 X0.2640 Y-4.8875
G01 X0.2796 Y-4.8980
G01 X0.3811 Y-4.9586
G01 X0.3907 Y-4.9634
G01 X0.4759 Y-5.0038
G01 X0.0880 Y-5.0038
G00 Z1.0000
G00 X-0.2672 Y-4.4697
G01 F25.00
G01 Z-0.0600
G01 F120.00
G01 X-0.2750 Y-4.4698
G01 X-0.2827 Y-4.4706
G01 X-0.2903 Y-4.4722
G01 X-0.2976 Y-4.4746
G01 X-0.3395 Y-4.4905
G01 X-0.3495 Y-4.4960
G01 X-0.3585 Y-4.5029
G01 X-0.3903 Y-4.5324
G01 X-0.3966 Y-4.5394
G01 X-0.4770 Y-4.6500
G01 X-0.5047 Y-4.6801
G01 X-0.5082 Y-4.6844
G01 X-0.5124 Y-4.6906
G01 X-0.5338 Y-4.7253
G01 X-0.5373 Y-4.7321
G01 X-0.5395 Y-4.7375
G01 X-0.5413 Y-4.7430
G01 X-0.5431 Y-4.7505
G01 X-0.5502 Y-4.7965
G01 X-0.5504 Y-4.8058
G01 X-0.5492 Y-4.8170
G01 X-0.5394 Y-4.8601
G01 X-0.5377 Y-4.8657
G01 X-0.5349 Y-4.8729
G01 X-0.5313 Y-4.8798
G01 X-0.5282 Y-4.8847
G01 X-0.5053 Y-4.9183
G01 X-0.5004 Y-4.9244
G01 X-0.4964 Y-4.9286
G01 X-0.4921 Y-4.9325
G01 X-0.4859 Y-4.9372
G01 X-0.4496 Y-4.9606
G01 X-0.4392 Y-4.9660
G01 X-0.4281 Y-4.9697
G01 X-0.3842 Y-4.9785
G01 X-0.3785 Y-4.9793
G01 X-0.3708 Y-4.9797
G01 X-0.1358 Y-4.9797
G01 X-0.1250 Y-4.9786
G01 X-0.0817 Y-4.9704
G01 X-0.0705 Y-4.9668
G01 X-0.0616 Y-4.9625
G01 X-0.0263 Y-4.9401
G01 X-0.0184 Y-4.9344
G01 X-0.0127 Y-4.9292
G01 X-0.0075 Y-4.9234
G01 X0.0172 Y-4.8899
G01 X0.0205 Y-4.8850
G01 X0.0243 Y-4.8782
G01 X0.0267 Y-4.8728
G01 X0.0292 Y-4.8653
G01 X0.0403 Y-4.8225
G01 X0.0417 Y-4.8129
G01 X0.0419 Y-4.8031
G01 X0.0365 Y-4.7577
G01 X0.0339 Y-4.7462
G01 X0.0313 Y-4.7388
G01 X0.0288 Y-4.7335
G01 X0.0077 Y-4.6950
G01 X0.0014 Y-4.6861
G01 X-0.0774 Y-4.5902
G01 X-0.1023 Y-4.5510
G01 X-0.1068 Y-4.5446
G01 X-0.1120 Y-4.5387
G01 X-0.1389 Y-4.5108
G01 X-0.1460 Y-4.5043
G01 X-0.1537 Y-4.4987
G01 X-0.1621 Y-4.4942
G01 X-0.1999 Y-4.4777
G01 X-0.2090 Y-4.4743
G01 X-0.2166 Y-4.4725
G01 X-0.2242 Y-4.4714
G01 X-0.2672 Y-4.4697
G01 X-0.2648 Y-4.4073
G01 X-0.2745 Y-4.4073
G01 X-0.2830 Y-4.4078
G01 X-0.2918 Y-4.4089
G01 X-0.3070 Y-4.4121
G01 X-0.3188 Y-4.4159
G01 X-0.3568 Y-4.4301
G01 X-0.3680 Y-4.4350
G01 X-0.3784 Y-4.4405
G01 X-0.3886 Y-4.4472
G01 X-0.3979 Y-4.4545
G01 X-0.4333 Y-4.4873
G01 X-0.4436 Y-4.4983
G01 X-0.4494 Y-4.5058
G01 X-0.5254 Y-4.6104
G01 X-0.5493 Y-4.6364
G01 X-0.5533 Y-4.6409
G01 X-0.5595 Y-4.6489
G01 X-0.5656 Y-4.6579
G01 X-0.5890 Y-4.6963
G01 X-0.5944 Y-4.7069
G01 X-0.5989 Y-4.7184
G01 X-0.5994 Y-4.7198
G01 X-0.6000 Y-4.7217
G01 X-0.6005 Y-4.7231
G01 X-0.6020 Y-4.7283
G01 X-0.6046 Y-4.7400
G01 X-0.6112 Y-4.7820
G01 X-0.6124 Y-4.7920
G01 X-0.6128 Y-4.8039
G01 X-0.6124 Y-4.8140
G01 X-0.6113 Y-4.8240
G01 X-0.6094 Y-4.8339
G01 X-0.6005 Y-4.8729
G01 X-0.5981 Y-4.8815
G01 X-0.5928 Y-4.8961
G01 X-0.5867 Y-4.9086
G01 X-0.5802 Y-4.9192
G01 X-0.5579 Y-4.9519
G01 X-0.5500 Y-4.9624
G01 X-0.5443 Y-4.9688
G01 X-0.5369 Y-4.9762
G01 X-0.5289 Y-4.9830
G01 X-0.5204 Y-4.9891
G01 X-0.4798 Y-5.0153
G01 X-0.4705 Y-5.0203
G01 X-0.4608 Y-5.0245
G01 X-0.4509 Y-5.0281
G01 X-0.4407 Y-5.0308
G01 X-0.3984 Y-5.0394
G01 X-0.3889 Y-5.0409
G01 X-0.3805 Y-5.0418
G01 X-0.3708 Y-5.0421
G01 X-0.1377 Y-5.0421
G01 X-0.1286 Y-5.0418
G01 X-0.1188 Y-5.0408
G01 X-0.0697 Y-5.0317
G01 X-0.0594 Y-5.0290
G01 X-0.0476 Y-5.0248
G01 X-0.0364 Y-5.0197
G01 X-0.0272 Y-5.0146
G01 X0.0078 Y-4.9924
G01 X0.0164 Y-4.9864
G01 X0.0285 Y-4.9761
G01 X0.0392 Y-4.9649
G01 X0.0452 Y-4.9573
G01 X0.0691 Y-4.9246
G01 X0.0749 Y-4.9157
G01 X0.0807 Y-4.9049
G01 X0.0849 Y-4.8952
G01 X0.0890 Y-4.8833
G01 X0.1012 Y-4.8360
G01 X0.1035 Y-4.8221
G01 X0.1043 Y-4.8100
G01 X0.1042 Y-4.8010
G01 X0.1036 Y-4.7924
G01 X0.0984 Y-4.7494
G01 X0.0961 Y-4.7374
G01 X0.0928 Y-4.7253
G01 X0.0885 Y-4.7139
G01 X0.0830 Y-4.7026
G01 X0.0631 Y-4.6661
G01 X0.0541 Y-4.6523
G01 X-0.0268 Y-4.5535
G01 X-0.0511 Y-4.5152
G01 X-0.0595 Y-4.5039
G01 X-0.0671 Y-4.4954
G01 X-0.0945 Y-4.4669
G01 X-0.1020 Y-4.4598
G01 X-0.1088 Y-4.4542
G01 X-0.1155 Y-4.4492
G01 X-0.1229 Y-4.4444
G01 X-0.1303 Y-4.4403
G01 X-0.1382 Y-4.4365
G01 X-0.1757 Y-4.4202
G01 X-0.1888 Y-4.4153
G01 X-0.2022 Y-4.4118
G01 X-0.2160 Y-4.4096
G01 X-0.2249 Y-4.4089
G01 X-0.2648 Y-4.4073
G01 X-0.2540 Y-4.1763
G01 X-0.2512 Y-4.1867
G01 X-0.2480 Y-4.1966
G01 X-0.2101 Y-4.3025
G01 X-0.2051 Y-4.3145
G01 X-0.1879 Y-4.3510
G01 X-0.2024 Y-4.3484
G01 X-0.2166 Y-4.3469
G01 X-0.2232 Y-4.3465
G01 X-0.2623 Y-4.3450
G01 X-0.2709 Y-4.3448
G01 X-0.2833 Y-4.3452
G01 X-0.2960 Y-4.3465
G01 X-0.3083 Y-4.3484
G01 X-0.3201 Y-4.3510
G01 X-0.3029 Y-4.3145
G01 X-0.2979 Y-4.3025
G01 X-0.2600 Y-4.1966
G01 X-0.2568 Y-4.1867
G01 X-0.2540 Y-4.1763
G01 X-0.7400 Y-4.9413
G01 X-0.7158 Y-4.9235
G01 X-0.7092 Y-4.9413
G01 X-0.7400 Y-4.9413
G01 X-0.9839 Y-5.0038
G01 X-0.8987 Y-4.9634
G01 X-0.8891 Y-4.9586
G01 X-0.7876 Y-4.8980
G01 X-0.7723 Y-4.8877
G01 X-0.6850 Y-4.8230
G01 X-0.6749 Y-4.8149
G01 X-0.6733 Y-4.8310
G01 X-0.6727 Y-4.8350
G01 X-0.6726 Y-4.8358
G01 X-0.6723 Y-4.8376
G01 X-0.6719 Y-4.8398
G01 X-0.6701 Y-4.8486
G01 X-0.6594 Y-4.8944
G01 X-0.6557 Y-4.9063
G01 X-0.6512 Y-4.9183
G01 X-0.6438 Y-4.9341
G01 X-0.6349 Y-4.9495
G01 X-0.6075 Y-4.9899
G01 X-0.5967 Y-5.0038
G01 X-0.9839 Y-5.0038
G00 Z1.0000
G00 X-2.2990 Y-4.9414
G01 F25.00
G01 Z-0.0600
G01 F120.00
G01 X-2.2925 Y-4.9232
G01 X-2.2679 Y-4.9414
G01 X-2.2990 Y-4.9414
G01 X-2.4119 Y-5.0038
G01 X-2.4044 Y-4.9942
G01 X-2.3758 Y-4.9547
G01 X-2.3666 Y-4.9391
G01 X-2.3586 Y-4.9224
G01 X-2.3543 Y-4.9110
G01 X-2.3509 Y-4.9005
G01 X-2.3386 Y-4.8536
G01 X-2.3350 Y-4.8344
G01 X-2.3333 Y-4.8147
G01 X-2.3229 Y-4.8230
G01 X-2.2359 Y-4.8875
G01 X-2.2203 Y-4.8980
G01 X-2.1187 Y-4.9586
G01 X-2.1092 Y-4.9634
G01 X-2.0239 Y-5.0038
G01 X-2.4119 Y-5.0038
G00 Z1.0000
G00 X-2.7671 Y-4.4697
G01 F25.00
G01 Z-0.0600
G01 F120.00
G01 X-2.7747 Y-4.4697
G01 X-2.7824 Y-4.4706
G01 X-2.7899 Y-4.4722
G01 X-2.7972 Y-4.4745
G01 X-2.8397 Y-4.4904
G01 X-2.8500 Y-4.4961
G01 X-2.8594 Y-4.5033
G01 X-2.8906 Y-4.5328
G01 X-2.8966 Y-4.5396
G01 X-2.9769 Y-4.6500
G01 X-3.0045 Y-4.6801
G01 X-3.0113 Y-4.6890
G01 X-3.0336 Y-4.7253
G01 X-3.0363 Y-4.7304
G01 X-3.0394 Y-4.7375
G01 X-3.0412 Y-4.7430
G01 X-3.0429 Y-4.7505
G01 X-3.0499 Y-4.7948
G01 X-3.0503 Y-4.8044
G01 X-3.0495 Y-4.8139
G01 X-3.0404 Y-4.8572
G01 X-3.0390 Y-4.8628
G01 X-3.0364 Y-4.8701
G01 X-3.0313 Y-4.8805
G01 X-3.0046 Y-4.9190
G01 X-2.9969 Y-4.9280
G01 X-2.9925 Y-4.9320
G01 X-2.9863 Y-4.9368
G01 X-2.9505 Y-4.9603
G01 X-2.9440 Y-4.9640
G01 X-2.9388 Y-4.9663
G01 X-2.9281 Y-4.9698
G01 X-2.8858 Y-4.9782
G01 X-2.8764 Y-4.9795
G01 X-2.6375 Y-4.9797
G01 X-2.6303 Y-4.9793
G01 X-2.6248 Y-4.9786
G01 X-2.5816 Y-4.9704
G01 X-2.5740 Y-4.9682
G01 X-2.5668 Y-4.9652
G01 X-2.5581 Y-4.9604
G01 X-2.5229 Y-4.9380
G01 X-2.5140 Y-4.9306
G01 X-2.5062 Y-4.9219
G01 X-2.4815 Y-4.8883
G01 X-2.4784 Y-4.8833
G01 X-2.4747 Y-4.8764
G01 X-2.4706 Y-4.8653
G01 X-2.4592 Y-4.8206
G01 X-2.4580 Y-4.8109
G01 X-2.4581 Y-4.8012
G01 X-2.4633 Y-4.7577
G01 X-2.4659 Y-4.7462
G01 X-2.4686 Y-4.7388
G01 X-2.4711 Y-4.7335
G01 X-2.4912 Y-4.6966
G01 X-2.4963 Y-4.6890
G01 X-2.5773 Y-4.5902
G01 X-2.6022 Y-4.5510
G01 X-2.6075 Y-4.5436
G01 X-2.6124 Y-4.5382
G01 X-2.6441 Y-4.5062
G01 X-2.6518 Y-4.5002
G01 X-2.6603 Y-4.4952
G01 X-2.6994 Y-4.4778
G01 X-2.7086 Y-4.4744
G01 X-2.7163 Y-4.4725
G01 X-2.7240 Y-4.4715
G01 X-2.7671 Y-4.4697
G01 X-2.7646 Y-4.4073
G01 X-2.7777 Y-4.4074
G01 X-2.7914 Y-4.4088
G01 X-2.8031 Y-4.4111
G01 X-2.8163 Y-4.4150
G01 X-2.8567 Y-4.4299
G01 X-2.8664 Y-4.4340
G01 X-2.8745 Y-4.4381
G01 X-2.8820 Y-4.4425
G01 X-2.8895 Y-4.4476
G01 X-2.8963 Y-4.4528
G01 X-2.9031 Y-4.4588
G01 X-2.9327 Y-4.4868
G01 X-2.9437 Y-4.4986
G01 X-2.9493 Y-4.5058
G01 X-3.0252 Y-4.6104
G01 X-3.0519 Y-4.6395
G01 X-3.0574 Y-4.6462
G01 X-3.0622 Y-4.6529
G01 X-3.0879 Y-4.6946
G01 X-3.0928 Y-4.7038
G01 X-3.0976 Y-4.7151
G01 X-3.1009 Y-4.7250
G01 X-3.1038 Y-4.7366
G01 X-3.1114 Y-4.7839
G01 X-3.1124 Y-4.7942
G01 X-3.1127 Y-4.8027
G01 X-3.1123 Y-4.8130
G01 X-3.1112 Y-4.8233
G01 X-3.1095 Y-4.8328
G01 X-3.1008 Y-4.8730
G01 X-3.0986 Y-4.8812
G01 X-3.0952 Y-4.8911
G01 X-3.0918 Y-4.8993
G01 X-3.0880 Y-4.9070
G01 X-3.0797 Y-4.9205
G01 X-3.0532 Y-4.9582
G01 X-3.0453 Y-4.9676
G01 X-3.0363 Y-4.9765
G01 X-3.0282 Y-4.9834
G01 X-3.0212 Y-4.9886
G01 X-2.9800 Y-5.0154
G01 X-2.9710 Y-5.0202
G01 X-2.9617 Y-5.0243
G01 X-2.9522 Y-5.0278
G01 X-2.9424 Y-5.0305
G01 X-2.8953 Y-5.0399
G01 X-2.8870 Y-5.0411
G01 X-2.8768 Y-5.0420
G01 X-2.6350 Y-5.0421
G01 X-2.6252 Y-5.0415
G01 X-2.6154 Y-5.0403
G01 X-2.5738 Y-5.0325
G01 X-2.5608 Y-5.0294
G01 X-2.5493 Y-5.0255
G01 X-2.5363 Y-5.0197
G01 X-2.5247 Y-5.0131
G01 X-2.4891 Y-4.9904
G01 X-2.4807 Y-4.9843
G01 X-2.4728 Y-4.9775
G01 X-2.4640 Y-4.9687
G01 X-2.4552 Y-4.9579
G01 X-2.4299 Y-4.9233
G01 X-2.4250 Y-4.9157
G01 X-2.4208 Y-4.9081
G01 X-2.4149 Y-4.8952
G01 X-2.4104 Y-4.8818
G01 X-2.3994 Y-4.8394
G01 X-2.3976 Y-4.8310
G01 X-2.3964 Y-4.8221
G01 X-2.3956 Y-4.8100
G01 X-2.3959 Y-4.7960
G01 X-2.4011 Y-4.7522
G01 X-2.4030 Y-4.7409
G01 X-2.4051 Y-4.7321
G01 X-2.4076 Y-4.7238
G01 X-2.4137 Y-4.7089
G01 X-2.4359 Y-4.6677
G01 X-2.4439 Y-4.6549
G01 X-2.4503 Y-4.6465
G01 X-2.5267 Y-4.5535
G01 X-2.5509 Y-4.5154
G01 X-2.5586 Y-4.5048
G01 X-2.5673 Y-4.4950
G01 X-2.5998 Y-4.4621
G01 X-2.6063 Y-4.4564
G01 X-2.6134 Y-4.4509
G01 X-2.6206 Y-4.4461
G01 X-2.6298 Y-4.4408
G01 X-2.6379 Y-4.4368
G01 X-2.6742 Y-4.4208
G01 X-2.6866 Y-4.4159
G01 X-2.7018 Y-4.4118
G01 X-2.7157 Y-4.4096
G01 X-2.7247 Y-4.4089
G01 X-2.7646 Y-4.4073
G01 X-2.6878 Y-4.3510
G01 X-2.7020 Y-4.3484
G01 X-2.7164 Y-4.3469
G01 X-2.7706 Y-4.3448
G01 X-2.7829 Y-4.3452
G01 X-2.7955 Y-4.3464
G01 X-2.8076 Y-4.3483
G01 X-2.8203 Y-4.3511
G01 X-2.8030 Y-4.3145
G01 X-2.7980 Y-4.3025
G01 X-2.7601 Y-4.1966
G01 X-2.7569 Y-4.1867
G01 X-2.7540 Y-4.1758
G01 X-2.7511 Y-4.1867
G01 X-2.7479 Y-4.1966
G01 X-2.7100 Y-4.3025
G01 X-2.7050 Y-4.3145
G01 X-2.6878 Y-4.3510
G00 Z1.0000
G00 X-3.2401 Y-4.9414
G01 F25.00
G01 Z-0.0600
G01 F120.00
G01 X-3.2161 Y-4.9236
G01 X-3.2095 Y-4.9414
G01 X-3.2401 Y-4.9414
G01 X-3.4840 Y-5.0038
G01 X-3.3988 Y-4.9634
G01 X-3.3892 Y-4.9586
G01 X-3.2877 Y-4.8980
G01 X-3.2721 Y-4.8875
G01 X-3.1851 Y-4.8230
G01 X-3.1748 Y-4.8147
G01 X-3.1737 Y-4.8270
G01 X-3.1718 Y-4.8396
G01 X-3.1622 Y-4.8847
G01 X-3.1577 Y-4.9015
G01 X-3.1517 Y-4.9179
G01 X-3.1442 Y-4.9340
G01 X-3.1351 Y-4.9498
G01 X-3.1071 Y-4.9902
G01 X-3.0966 Y-5.0038
G01 X-3.4840 Y-5.0038
G00 Z1.0000
G00 X-4.7989 Y-4.9414
G01 F25.00
G01 Z-0.0600
G01 F120.00
G01 X-4.7925 Y-4.9233
G01 X-4.7680 Y-4.9414
G01 X-4.7989 Y-4.9414
G01 X-4.8337 Y-4.8145
G01 X-4.8230 Y-4.8230
G01 X-4.7360 Y-4.8875
G01 X-4.7204 Y-4.8980
G01 X-4.6189 Y-4.9586
G01 X-4.6093 Y-4.9634
G01 X-4.5241 Y-5.0038
G01 X-4.9122 Y-5.0038
G01 X-4.8832 Y-4.9655
G01 X-4.8764 Y-4.9559
G01 X-4.8664 Y-4.9390
G01 X-4.8584 Y-4.9220
G01 X-4.8539 Y-4.9103
G01 X-4.8502 Y-4.8987
G01 X-4.8386 Y-4.8519
G01 X-4.8352 Y-4.8326
G01 X-4.8337 Y-4.8145
G00 Z1.0000
G00 X-5.2675 Y-4.4697
G01 F25.00
G01 Z-0.0600
G01 F120.00
G01 X-5.2752 Y-4.4698
G01 X-5.2829 Y-4.4706
G01 X-5.2905 Y-4.4722
G01 X-5.2979 Y-4.4746
G01 X-5.3398 Y-4.4906
G01 X-5.3500 Y-4.4962
G01 X-5.3593 Y-4.5034
G01 X-5.3904 Y-4.5328
G01 X-5.3965 Y-4.5396
G01 X-5.4767 Y-4.6500
G01 X-5.5044 Y-4.6801
G01 X-5.5112 Y-4.6890
G01 X-5.5335 Y-4.7252
G01 X-5.5369 Y-4.7319
G01 X-5.5391 Y-4.7370
G01 X-5.5408 Y-4.7423
G01 X-5.5426 Y-4.7496
G01 X-5.5501 Y-4.7938
G01 X-5.5506 Y-4.7996
G01 X-5.5506 Y-4.8073
G01 X-5.5491 Y-4.8187
G01 X-5.5391 Y-4.8618
G01 X-5.5361 Y-4.8707
G01 X-5.5320 Y-4.8791
G01 X-5.5280 Y-4.8854
G01 X-5.5045 Y-4.9190
G01 X-5.4967 Y-4.9280
G01 X-5.4924 Y-4.9320
G01 X-5.4861 Y-4.9368
G01 X-5.4520 Y-4.9593
G01 X-5.4455 Y-4.9631
G01 X-5.4405 Y-4.9655
G01 X-5.4299 Y-4.9693
G01 X-5.3864 Y-4.9782
G01 X-5.3768 Y-4.9795
G01 X-5.1374 Y-4.9797
G01 X-5.1264 Y-4.9789
G01 X-5.0818 Y-4.9704
G01 X-5.0743 Y-4.9681
G01 X-5.0671 Y-4.9651
G01 X-5.0585 Y-4.9604
G01 X-5.0234 Y-4.9380
G01 X-5.0147 Y-4.9309
G01 X-5.0071 Y-4.9226
G01 X-4.9819 Y-4.8890
G01 X-4.9777 Y-4.8824
G01 X-4.9750 Y-4.8772
G01 X-4.9720 Y-4.8699
G01 X-4.9702 Y-4.8643
G01 X-4.9598 Y-4.8217
G01 X-4.9585 Y-4.8123
G01 X-4.9584 Y-4.8029
G01 X-4.9635 Y-4.7597
G01 X-4.9647 Y-4.7522
G01 X-4.9662 Y-4.7466
G01 X-4.9687 Y-4.7395
G01 X-4.9711 Y-4.7343
G01 X-4.9907 Y-4.6973
G01 X-4.9960 Y-4.6891
G01 X-5.0772 Y-4.5902
G01 X-5.1020 Y-4.5510
G01 X-5.1074 Y-4.5436
G01 X-5.1122 Y-4.5382
G01 X-5.1439 Y-4.5062
G01 X-5.1517 Y-4.5002
G01 X-5.1602 Y-4.4952
G01 X-5.1993 Y-4.4778
G01 X-5.2085 Y-4.4744
G01 X-5.2162 Y-4.4725
G01 X-5.2239 Y-4.4714
G01 X-5.2675 Y-4.4697
G01 X-5.2651 Y-4.4073
G01 X-5.2783 Y-4.4074
G01 X-5.2921 Y-4.4089
G01 X-5.3039 Y-4.4112
G01 X-5.3173 Y-4.4152
G01 X-5.3571 Y-4.4302
G01 X-5.3668 Y-4.4343
G01 X-5.3747 Y-4.4383
G01 X-5.3821 Y-4.4427
G01 X-5.3895 Y-4.4477
G01 X-5.3963 Y-4.4529
G01 X-5.4030 Y-4.4588
G01 X-5.4325 Y-4.4868
G01 X-5.4436 Y-4.4986
G01 X-5.4491 Y-4.5058
G01 X-5.5251 Y-4.6104
G01 X-5.5518 Y-4.6395
G01 X-5.5573 Y-4.6462
G01 X-5.5621 Y-4.6529
G01 X-5.5877 Y-4.6945
G01 X-5.5933 Y-4.7050
G01 X-5.5972 Y-4.7143
G01 X-5.6004 Y-4.7238
G01 X-5.6033 Y-4.7350
G01 X-5.6117 Y-4.7837
G01 X-5.6128 Y-4.7940
G01 X-5.6131 Y-4.8044
G01 X-5.6126 Y-4.8148
G01 X-5.6113 Y-4.8251
G01 X-5.6095 Y-4.8346
G01 X-5.6003 Y-4.8747
G01 X-5.5980 Y-4.8827
G01 X-5.5947 Y-4.8922
G01 X-5.5913 Y-4.9001
G01 X-5.5876 Y-4.9074
G01 X-5.5791 Y-4.9211
G01 X-5.5531 Y-4.9582
G01 X-5.5452 Y-4.9676
G01 X-5.5362 Y-4.9765
G01 X-5.5281 Y-4.9834
G01 X-5.5210 Y-4.9886
G01 X-5.4799 Y-5.0154
G01 X-5.4710 Y-5.0201
G01 X-5.4618 Y-5.0243
G01 X-5.4523 Y-5.0277
G01 X-5.4426 Y-5.0304
G01 X-5.3960 Y-5.0399
G01 X-5.3857 Y-5.0413
G01 X-5.3772 Y-5.0420
G01 X-5.1348 Y-5.0421
G01 X-5.1249 Y-5.0415
G01 X-5.1150 Y-5.0403
G01 X-5.0739 Y-5.0325
G01 X-5.0610 Y-5.0293
G01 X-5.0495 Y-5.0254
G01 X-5.0366 Y-5.0197
G01 X-5.0251 Y-5.0131
G01 X-4.9896 Y-4.9905
G01 X-4.9814 Y-4.9845
G01 X-4.9737 Y-4.9780
G01 X-4.9641 Y-4.9684
G01 X-4.9560 Y-4.9585
G01 X-4.9306 Y-4.9245
G01 X-4.9257 Y-4.9170
G01 X-4.9205 Y-4.9078
G01 X-4.9147 Y-4.8949
G01 X-4.9102 Y-4.8815
G01 X-4.8994 Y-4.8377
G01 X-4.8978 Y-4.8296
G01 X-4.8966 Y-4.8210
G01 X-4.8959 Y-4.8074
G01 X-4.8965 Y-4.7939
G01 X-4.9016 Y-4.7514
G01 X-4.9040 Y-4.7379
G01 X-4.9083 Y-4.7229
G01 X-4.9141 Y-4.7088
G01 X-4.9359 Y-4.6674
G01 X-4.9442 Y-4.6542
G01 X-4.9502 Y-4.6465
G01 X-5.0265 Y-4.5535
G01 X-5.0508 Y-4.5154
G01 X-5.0585 Y-4.5048
G01 X-5.0672 Y-4.4950
G01 X-5.1008 Y-4.4611
G01 X-5.1077 Y-4.4552
G01 X-5.1146 Y-4.4500
G01 X-5.1221 Y-4.4451
G01 X-5.1296 Y-4.4408
G01 X-5.1378 Y-4.4368
G01 X-5.1740 Y-4.4208
G01 X-5.1865 Y-4.4159
G01 X-5.2017 Y-4.4118
G01 X-5.2157 Y-4.4096
G01 X-5.2247 Y-4.4089
G01 X-5.2651 Y-4.4073
G01 X-5.2540 Y-4.1763
G01 X-5.2512 Y-4.1867
G01 X-5.2480 Y-4.1966
G01 X-5.2101 Y-4.3025
G01 X-5.2051 Y-4.3145
G01 X-5.1879 Y-4.3509
G01 X-5.2019 Y-4.3484
G01 X-5.2164 Y-4.3469
G01 X-5.2230 Y-4.3465
G01 X-5.2627 Y-4.3450
G01 X-5.2712 Y-4.3448
G01 X-5.2836 Y-4.3452
G01 X-5.2963 Y-4.3465
G01 X-5.3086 Y-4.3484
G01 X-5.3201 Y-4.3510
G01 X-5.3029 Y-4.3145
G01 X-5.2979 Y-4.3025
G01 X-5.2600 Y-4.1966
G01 X-5.2568 Y-4.1867
G01 X-5.2540 Y-4.1763
G01 X-5.3260 Y-3.8138
G01 X-5.3260 Y-3.8062
G01 X-5.3316 Y-3.6945
G01 X-5.3490 Y-3.5783
G01 X-5.3756 Y-3.4717
G01 X-5.3778 Y-3.4644
G01 X-5.4156 Y-3.3592
G01 X-5.4633 Y-3.2581
G01 X-5.4669 Y-3.2514
G01 X-5.5244 Y-3.1555
G01 X-5.5933 Y-3.0627
G01 X-5.6709 Y-2.9770
G01 X-5.7566 Y-2.8994
G01 X-5.8495 Y-2.8305
G01 X-5.9486 Y-2.7711
G01 X-6.0531 Y-2.7217
G01 X-6.1601 Y-2.6833
G01 X-6.2741 Y-2.6546
G01 X-6.3885 Y-2.6377
G01 X-6.5039 Y-2.6320
G01 X-6.6156 Y-2.6374
G01 X-6.6232 Y-2.6381
G01 X-6.7300 Y-2.6540
G01 X-6.7375 Y-2.6555
G01 X-6.8459 Y-2.6827
G01 X-6.9511 Y-2.7203
G01 X-6.9582 Y-2.7232
G01 X-7.0592 Y-2.7711
G01 X-7.1584 Y-2.8305
G01 X-7.2512 Y-2.8994
G01 X-7.3341 Y-2.9744
G01 X-7.3395 Y-2.9798
G01 X-7.4145 Y-3.0627
G01 X-7.4812 Y-3.1524
G01 X-7.4854 Y-3.1588
G01 X-7.5409 Y-3.2514
G01 X-7.5445 Y-3.2581
G01 X-7.5923 Y-3.3592
G01 X-7.6312 Y-3.4680
G01 X-7.6593 Y-3.5802
G01 X-7.6764 Y-3.6964
G01 X-7.6819 Y-3.8100
G01 X-7.6765 Y-3.9216
G01 X-7.6758 Y-3.9293
G01 X-7.6599 Y-4.0360
G01 X-7.6584 Y-4.0436
G01 X-7.6312 Y-4.1520
G01 X-7.5936 Y-4.2572
G01 X-7.5907 Y-4.2643
G01 X-7.5428 Y-4.3653
G01 X-7.4834 Y-4.4645
G01 X-7.4145 Y-4.5573
G01 X-7.3395 Y-4.6402
G01 X-7.3341 Y-4.6456
G01 X-7.2541 Y-4.7181
G01 X-7.2482 Y-4.7230
G01 X-7.1584 Y-4.7895
G01 X-7.0626 Y-4.8470
G01 X-7.0558 Y-4.8506
G01 X-6.9547 Y-4.8983
G01 X-6.8459 Y-4.9373
G01 X-6.7337 Y-4.9654
G01 X-6.6232 Y-4.9819
G01 X-6.6156 Y-4.9826
G01 X-6.5039 Y-4.9880
G01 X-6.3923 Y-4.9826
G01 X-6.3847 Y-4.9819
G01 X-6.2760 Y-4.9657
G01 X-6.1620 Y-4.9373
G01 X-6.0531 Y-4.8983
G01 X-5.9486 Y-4.8489
G01 X-5.8495 Y-4.7895
G01 X-5.7566 Y-4.7206
G01 X-5.6709 Y-4.6430
G01 X-5.5933 Y-4.5573
G01 X-5.5234 Y-4.4629
G01 X-5.4650 Y-4.3653
G01 X-5.4171 Y-4.2643
G01 X-5.4142 Y-4.2572
G01 X-5.3761 Y-4.1501
G01 X-5.3494 Y-4.0436
G01 X-5.3479 Y-4.0360
G01 X-5.3316 Y-3.9255
G01 X-5.3260 Y-3.8138
G01 X-5.1882 Y-3.2696
G01 X-5.2051 Y-3.3055
G01 X-5.2101 Y-3.3175
G01 X-5.2480 Y-3.4234
G01 X-5.2512 Y-3.4333
G01 X-5.2540 Y-3.4437
G01 X-5.2568 Y-3.4333
G01 X-5.2600 Y-3.4234
G01 X-5.2979 Y-3.3175
G01 X-5.3029 Y-3.3055
G01 X-5.3201 Y-3.2690
G01 X-5.3082 Y-3.2716
G01 X-5.2960 Y-3.2736
G01 X-5.2840 Y-3.2747
G01 X-5.2717 Y-3.2752
G01 X-5.2170 Y-3.2737
G01 X-5.2018 Y-3.2721
G01 X-5.1882 Y-3.2696
G00 Z1.0000
G00 X-4.6936 Y-1.6768
G01 F25.00
G01 Z-0.0600
G01 F120.00
G01 X-4.7013 Y-1.6755
G01 X-4.7092 Y-1.6751
G01 X-4.7170 Y-1.6754
G01 X-4.7228 Y-1.6762
G01 X-4.7672 Y-1.6851
G01 X-4.7766 Y-1.6880
G01 X-4.7855 Y-1.6922
G01 X-4.8282 Y-1.7197
G01 X-4.8338 Y-1.7244
G01 X-4.8548 Y-1.7444
G01 X-4.9657 Y-1.8282
G01 X-5.0859 Y-1.8975
G01 X-5.2137 Y-1.9517
G01 X-5.3472 Y-1.9897
G01 X-5.4840 Y-2.0111
G01 X-5.6227 Y-2.0153
G01 X-5.7608 Y-2.0025
G01 X-5.8962 Y-1.9726
G01 X-6.0268 Y-1.9265
G01 X-6.1627 Y-1.8584
G01 X-6.1964 Y-1.8434
G01 X-6.2036 Y-1.8406
G01 X-6.2110 Y-1.8385
G01 X-6.2185 Y-1.8372
G01 X-6.2588 Y-1.8342
G01 X-6.2643 Y-1.8341
G01 X-6.2718 Y-1.8346
G01 X-6.2827 Y-1.8367
G01 X-6.3194 Y-1.8475
G01 X-6.3302 Y-1.8518
G01 X-6.3386 Y-1.8567
G01 X-6.3687 Y-1.8776
G01 X-6.3778 Y-1.8850
G01 X-6.6716 Y-2.1783
G01 X-6.6788 Y-2.1871
G01 X-6.7028 Y-2.2227
G01 X-6.7073 Y-2.2309
G01 X-6.7109 Y-2.2396
G01 X-6.7134 Y-2.2486
G01 X-6.7218 Y-2.2891
G01 X-6.7227 Y-2.2948
G01 X-6.7231 Y-2.3024
G01 X-6.7228 Y-2.3100
G01 X-6.7218 Y-2.3176
G01 X-6.7143 Y-2.3575
G01 X-6.7112 Y-2.3685
G01 X-6.7082 Y-2.3754
G01 X-6.7046 Y-2.3821
G01 X-6.6811 Y-2.4183
G01 X-6.6751 Y-2.4261
G01 X-6.6696 Y-2.4317
G01 X-6.6636 Y-2.4367
G01 X-6.6251 Y-2.4639
G01 X-6.6147 Y-2.4692
G01 X-6.6055 Y-2.4724
G01 X-6.5631 Y-2.4820
G01 X-6.5557 Y-2.4833
G01 X-6.5483 Y-2.4838
G01 X-6.3902 Y-2.4883
G01 X-6.2405 Y-2.5099
G01 X-6.0941 Y-2.5483
G01 X-5.9527 Y-2.6030
G01 X-5.8189 Y-2.6739
G01 X-5.6936 Y-2.7593
G01 X-5.5794 Y-2.8587
G01 X-5.4767 Y-2.9700
G01 X-5.3986 Y-3.0776
G01 X-5.3941 Y-3.0832
G01 X-5.3891 Y-3.0884
G01 X-5.3607 Y-3.1153
G01 X-5.3532 Y-3.1215
G01 X-5.3450 Y-3.1268
G01 X-5.3363 Y-3.1310
G01 X-5.2961 Y-3.1460
G01 X-5.2908 Y-3.1477
G01 X-5.2834 Y-3.1493
G01 X-5.2779 Y-3.1500
G01 X-5.2704 Y-3.1504
G01 X-5.2269 Y-3.1493
G01 X-5.2152 Y-3.1478
G01 X-5.2057 Y-3.1452
G01 X-5.1985 Y-3.1423
G01 X-5.1578 Y-3.1235
G01 X-5.1482 Y-3.1173
G01 X-5.1397 Y-3.1098
G01 X-5.1122 Y-3.0818
G01 X-5.1069 Y-3.0758
G01 X-5.1023 Y-3.0693
G01 X-5.0772 Y-3.0304
G01 X-4.9812 Y-2.9128
G01 X-4.8728 Y-2.8073
G01 X-4.7530 Y-2.7148
G01 X-4.6182 Y-2.6338
G01 X-4.6088 Y-2.6271
G01 X-4.5794 Y-2.6017
G01 X-4.5752 Y-2.5976
G01 X-4.5701 Y-2.5916
G01 X-4.5646 Y-2.5834
G01 X-4.5468 Y-2.5512
G01 X-4.5442 Y-2.5459
G01 X-4.5413 Y-2.5387
G01 X-4.5388 Y-2.5293
G01 X-4.5323 Y-2.4933
G01 X-4.5311 Y-2.4815
G01 X-4.5311 Y-1.8547
G01 X-4.5319 Y-1.8433
G01 X-4.5406 Y-1.7991
G01 X-4.5426 Y-1.7917
G01 X-4.5454 Y-1.7844
G01 X-4.5509 Y-1.7742
G01 X-4.5738 Y-1.7401
G01 X-4.5785 Y-1.7338
G01 X-4.5824 Y-1.7294
G01 X-4.5881 Y-1.7241
G01 X-4.5944 Y-1.7193
G01 X-4.6285 Y-1.6959
G01 X-4.6368 Y-1.6911
G01 X-4.6439 Y-1.6881
G01 X-4.6512 Y-1.6858
G01 X-4.6936 Y-1.6768
G01 X-4.6807 Y-1.6157
G01 X-4.6939 Y-1.6136
G01 X-4.7060 Y-1.6128
G01 X-4.7186 Y-1.6130
G01 X-4.7307 Y-1.6143
G01 X-4.7831 Y-1.6247
G01 X-4.7967 Y-1.6289
G01 X-4.8115 Y-1.6354
G01 X-4.8238 Y-1.6424
G01 X-4.8651 Y-1.6694
G01 X-4.8753 Y-1.6778
G01 X-4.8953 Y-1.6968
G01 X-5.0002 Y-1.7760
G01 X-5.1138 Y-1.8416
G01 X-5.2345 Y-1.8927
G01 X-5.3606 Y-1.9286
G01 X-5.4898 Y-1.9488
G01 X-5.6207 Y-1.9529
G01 X-5.7512 Y-1.9408
G01 X-5.8790 Y-1.9125
G01 X-6.0023 Y-1.8690
G01 X-6.1354 Y-1.8023
G01 X-6.1750 Y-1.7847
G01 X-6.1847 Y-1.7811
G01 X-6.1932 Y-1.7787
G01 X-6.2048 Y-1.7762
G01 X-6.2170 Y-1.7747
G01 X-6.2564 Y-1.7719
G01 X-6.2731 Y-1.7721
G01 X-6.2850 Y-1.7735
G01 X-6.2963 Y-1.7758
G01 X-6.3350 Y-1.7870
G01 X-6.3442 Y-1.7900
G01 X-6.3585 Y-1.7962
G01 X-6.3723 Y-1.8042
G01 X-6.4066 Y-1.8279
G01 X-6.4134 Y-1.8332
G01 X-6.4202 Y-1.8392
G01 X-6.7144 Y-2.1328
G01 X-6.7218 Y-2.1409
G01 X-6.7293 Y-2.1504
G01 X-6.7568 Y-2.1914
G01 X-6.7624 Y-2.2015
G01 X-6.7667 Y-2.2107
G01 X-6.7702 Y-2.2202
G01 X-6.7735 Y-2.2317
G01 X-6.7833 Y-2.2785
G01 X-6.7848 Y-2.2887
G01 X-6.7855 Y-2.2990
G01 X-6.7854 Y-2.3093
G01 X-6.7846 Y-2.3196
G01 X-6.7832 Y-2.3290
G01 X-6.7755 Y-2.3697
G01 X-6.7736 Y-2.3778
G01 X-6.7711 Y-2.3862
G01 X-6.7655 Y-2.4003
G01 X-6.7616 Y-2.4081
G01 X-6.7574 Y-2.4153
G01 X-6.7311 Y-2.4558
G01 X-6.7247 Y-2.4642
G01 X-6.7176 Y-2.4720
G01 X-6.7099 Y-2.4794
G01 X-6.7018 Y-2.4861
G01 X-6.6628 Y-2.5139
G01 X-6.6490 Y-2.5221
G01 X-6.6412 Y-2.5258
G01 X-6.6329 Y-2.5291
G01 X-6.6248 Y-2.5318
G01 X-6.6153 Y-2.5343
G01 X-6.5741 Y-2.5434
G01 X-6.5608 Y-2.5455
G01 X-6.5500 Y-2.5462
G01 X-6.3956 Y-2.5506
G01 X-6.2530 Y-2.5711
G01 X-6.1133 Y-2.6078
G01 X-5.9786 Y-2.6598
G01 X-5.8512 Y-2.7274
G01 X-5.7318 Y-2.8088
G01 X-5.6230 Y-2.9035
G01 X-5.5251 Y-3.0096
G01 X-5.4491 Y-3.1142
G01 X-5.4427 Y-3.1225
G01 X-5.4338 Y-3.1320
G01 X-5.3990 Y-3.1648
G01 X-5.3895 Y-3.1723
G01 X-5.3808 Y-3.1781
G01 X-5.3717 Y-3.1833
G01 X-5.3604 Y-3.1885
G01 X-5.3127 Y-3.2063
G01 X-5.2997 Y-3.2097
G01 X-5.2864 Y-3.2119
G01 X-5.2778 Y-3.2126
G01 X-5.2695 Y-3.2128
G01 X-5.2245 Y-3.2116
G01 X-5.2104 Y-3.2103
G01 X-5.1966 Y-3.2075
G01 X-5.1864 Y-3.2045
G01 X-5.1765 Y-3.2008
G01 X-5.1363 Y-3.1825
G01 X-5.1225 Y-3.1752
G01 X-5.1112 Y-3.1675
G01 X-5.1046 Y-3.1623
G01 X-5.0970 Y-3.1554
G01 X-5.0671 Y-3.1250
G01 X-5.0599 Y-3.1169
G01 X-5.0513 Y-3.1054
G01 X-5.0267 Y-3.0671
G01 X-4.9352 Y-2.9550
G01 X-4.8319 Y-2.8545
G01 X-4.7177 Y-2.7664
G01 X-4.5809 Y-2.6840
G01 X-4.5685 Y-2.6748
G01 X-4.5395 Y-2.6497
G01 X-4.5328 Y-2.6435
G01 X-4.5223 Y-2.6317
G01 X-4.5129 Y-2.6185
G01 X-4.4918 Y-2.5805
G01 X-4.4857 Y-2.5679
G01 X-4.4814 Y-2.5561
G01 X-4.4778 Y-2.5426
G01 X-4.4707 Y-2.5035
G01 X-4.4692 Y-2.4910
G01 X-4.4687 Y-2.4795
G01 X-4.4687 Y-1.8547
G01 X-4.4690 Y-1.8452
G01 X-4.4701 Y-1.8350
G01 X-4.4803 Y-1.7829
G01 X-4.4836 Y-1.7714
G01 X-4.4887 Y-1.7584
G01 X-4.4933 Y-1.7491
G01 X-4.4978 Y-1.7414
G01 X-4.5220 Y-1.7053
G01 X-4.5287 Y-1.6961
G01 X-4.5370 Y-1.6867
G01 X-4.5457 Y-1.6782
G01 X-4.5568 Y-1.6695
G01 X-4.5938 Y-1.6440
G01 X-4.6010 Y-1.6396
G01 X-4.6088 Y-1.6354
G01 X-4.6215 Y-1.6299
G01 X-4.6346 Y-1.6256
G01 X-4.6807 Y-1.6157
G01 X-4.6004 Y-1.5056
G01 X-4.5694 Y-1.4539
G01 X-4.5694 Y-1.5163
G01 X-4.5842 Y-1.5107
G01 X-4.6004 Y-1.5056
G01 X-4.5070 Y-1.1071
G01 X-4.5070 Y-1.6292
G01 X-4.5208 Y-1.6185
G01 X-4.5633 Y-1.5895
G01 X-4.5790 Y-1.5805
G01 X-4.5965 Y-1.5726
G01 X-4.6085 Y-1.5683
G01 X-4.6210 Y-1.5647
G01 X-4.6289 Y-1.5629
G01 X-4.6293 Y-1.5628
G01 X-4.6679 Y-1.5547
G01 X-4.6690 Y-1.5544
G01 X-4.6872 Y-1.5515
G01 X-4.7068 Y-1.5503
G01 X-4.6761 Y-1.5089
G01 X-4.6692 Y-1.4988
G01 X-4.6186 Y-1.4145
G01 X-4.6111 Y-1.4003
G01 X-4.5717 Y-1.3170
G01 X-4.5657 Y-1.3021
G01 X-4.5329 Y-1.2099
G01 X-4.5300 Y-1.1995
G01 X-4.5070 Y-1.1071
G01 X-4.6004 Y-0.2724
G01 X-4.5842 Y-0.2673
G01 X-4.5694 Y-0.2617
G01 X-4.5694 Y-0.3241
G01 X-4.6004 Y-0.2724
G01 X-4.5070 Y-0.1488
G01 X-4.5070 Y-0.6709
G01 X-4.5300 Y-0.5785
G01 X-4.5329 Y-0.5681
G01 X-4.5657 Y-0.4759
G01 X-4.5717 Y-0.4610
G01 X-4.5732 Y-0.4579
G01 X-4.6109 Y-0.3780
G01 X-4.6111 Y-0.3777
G01 X-4.6186 Y-0.3635
G01 X-4.6692 Y-0.2792
G01 X-4.6761 Y-0.2691
G01 X-4.7068 Y-0.2277
G01 X-4.6872 Y-0.2264
G01 X-4.6690 Y-0.2236
G01 X-4.6210 Y-0.2133
G01 X-4.6085 Y-0.2097
G01 X-4.5965 Y-0.2054
G01 X-4.5790 Y-0.1975
G01 X-4.5633 Y-0.1886
G01 X-4.5208 Y-0.1595
G01 X-4.5070 Y-0.1488
G00 Z1.0000
G00 X-4.6872 Y0.4817
G01 F25.00
G01 Z-0.0600
G01 F120.00
G01 X-4.6945 Y0.4831
G01 X-4.7020 Y0.4838
G01 X-4.7095 Y0.4838
G01 X-4.7169 Y0.4831
G01 X-4.7607 Y0.4764
G01 X-4.7700 Y0.4737
G01 X-4.7806 Y0.4690
G01 X-4.8153 Y0.4493
G01 X-4.8231 Y0.4442
G01 X-4.9090 Y0.3708
G01 X-4.9553 Y0.3404
G01 X-4.9631 Y0.3343
G01 X-4.9948 Y0.3027
G01 X-5.0022 Y0.2936
G01 X-5.0054 Y0.2887
G01 X-5.0090 Y0.2818
G01 X-5.0258 Y0.2432
G01 X-5.0293 Y0.2322
G01 X-5.0312 Y0.2208
G01 X-5.0330 Y0.1764
G01 X-5.0326 Y0.1669
G01 X-5.0314 Y0.1594
G01 X-5.0289 Y0.1502
G01 X-5.0144 Y0.1105
G01 X-5.0102 Y0.1016
G01 X-5.0060 Y0.0949
G01 X-5.0012 Y0.0887
G01 X-4.9714 Y0.0555
G01 X-4.9629 Y0.0480
G01 X-4.8548 Y-0.0336
G01 X-4.8338 Y-0.0536
G01 X-4.8281 Y-0.0583
G01 X-4.7889 Y-0.0838
G01 X-4.7784 Y-0.0892
G01 X-4.7672 Y-0.0929
G01 X-4.7228 Y-0.1018
G01 X-4.7150 Y-0.1027
G01 X-4.7092 Y-0.1029
G01 X-4.7033 Y-0.1026
G01 X-4.6955 Y-0.1016
G01 X-4.6512 Y-0.0922
G01 X-4.6439 Y-0.0899
G01 X-4.6386 Y-0.0877
G01 X-4.6285 Y-0.0821
G01 X-4.5912 Y-0.0564
G01 X-4.5852 Y-0.0513
G01 X-4.5798 Y-0.0457
G01 X-4.5738 Y-0.0379
G01 X-4.5499 Y-0.0021
G01 X-4.5447 Y0.0082
G01 X-4.5410 Y0.0192
G01 X-4.5322 Y0.0635
G01 X-4.5311 Y0.0748
G01 X-4.5313 Y0.3098
G01 X-4.5324 Y0.3188
G01 X-4.5399 Y0.3582
G01 X-4.5418 Y0.3654
G01 X-4.5444 Y0.3724
G01 X-4.5495 Y0.3824
G01 X-4.5713 Y0.4165
G01 X-4.5759 Y0.4228
G01 X-4.5797 Y0.4273
G01 X-4.5853 Y0.4328
G01 X-4.5914 Y0.4377
G01 X-4.6239 Y0.4611
G01 X-4.6320 Y0.4659
G01 X-4.6388 Y0.4691
G01 X-4.6459 Y0.4715
G01 X-4.6872 Y0.4817
G01 X-4.6724 Y0.5423
G01 X-4.6830 Y0.5445
G01 X-4.6931 Y0.5457
G01 X-4.7032 Y0.5463
G01 X-4.7133 Y0.5461
G01 X-4.7252 Y0.5449
G01 X-4.7641 Y0.5392
G01 X-4.7785 Y0.5363
G01 X-4.7936 Y0.5315
G01 X-4.8077 Y0.5253
G01 X-4.8484 Y0.5022
G01 X-4.8554 Y0.4978
G01 X-4.8623 Y0.4928
G01 X-4.9466 Y0.4208
G01 X-4.9902 Y0.3922
G01 X-5.0016 Y0.3835
G01 X-5.0101 Y0.3756
G01 X-5.0381 Y0.3476
G01 X-5.0452 Y0.3399
G01 X-5.0549 Y0.3271
G01 X-5.0628 Y0.3137
G01 X-5.0670 Y0.3049
G01 X-5.0839 Y0.2659
G01 X-5.0880 Y0.2543
G01 X-5.0909 Y0.2427
G01 X-5.0929 Y0.2306
G01 X-5.0938 Y0.2194
G01 X-5.0954 Y0.1747
G01 X-5.0950 Y0.1645
G01 X-5.0936 Y0.1527
G01 X-5.0916 Y0.1427
G01 X-5.0888 Y0.1327
G01 X-5.0734 Y0.0902
G01 X-5.0699 Y0.0818
G01 X-5.0652 Y0.0723
G01 X-5.0609 Y0.0648
G01 X-5.0549 Y0.0560
G01 X-5.0470 Y0.0462
G01 X-5.0164 Y0.0122
G01 X-5.0090 Y0.0051
G01 X-5.0011 Y-0.0014
G01 X-4.8952 Y-0.0813
G01 X-4.8764 Y-0.0992
G01 X-4.8662 Y-0.1077
G01 X-4.8575 Y-0.1139
G01 X-4.8191 Y-0.1385
G01 X-4.8115 Y-0.1426
G01 X-4.8018 Y-0.1471
G01 X-4.7933 Y-0.1502
G01 X-4.7831 Y-0.1533
G01 X-4.7341 Y-0.1631
G01 X-4.7256 Y-0.1644
G01 X-4.7166 Y-0.1651
G01 X-4.7009 Y-0.1650
G01 X-4.6850 Y-0.1631
G01 X-4.6380 Y-0.1532
G01 X-4.6280 Y-0.1504
G01 X-4.6197 Y-0.1474
G01 X-4.6057 Y-0.1410
G01 X-4.5938 Y-0.1340
G01 X-4.5555 Y-0.1076
G01 X-4.5472 Y-0.1011
G01 X-4.5406 Y-0.0950
G01 X-4.5309 Y-0.0846
G01 X-4.5220 Y-0.0727
G01 X-4.4968 Y-0.0350
G01 X-4.4917 Y-0.0259
G01 X-4.4873 Y-0.0164
G01 X-4.4826 Y-0.0033
G01 X-4.4790 Y0.0109
G01 X-4.4703 Y0.0555
G01 X-4.4691 Y0.0657
G01 X-4.4687 Y0.0767
G01 X-4.4689 Y0.3116
G01 X-4.4707 Y0.3279
G01 X-4.4791 Y0.3720
G01 X-4.4826 Y0.3850
G01 X-4.4873 Y0.3975
G01 X-4.4916 Y0.4066
G01 X-4.4966 Y0.4154
G01 X-4.5232 Y0.4566
G01 X-4.5287 Y0.4637
G01 X-4.5357 Y0.4716
G01 X-4.5433 Y0.4789
G01 X-4.5499 Y0.4845
G01 X-4.5893 Y0.5130
G01 X-4.5979 Y0.5184
G01 X-4.6086 Y0.5239
G01 X-4.6179 Y0.5279
G01 X-4.6290 Y0.5316
G01 X-4.6724 Y0.5423
G01 X-4.6005 Y0.6532
G01 X-4.5694 Y0.7051
G01 X-4.5694 Y0.6429
G01 X-4.5850 Y0.6486
G01 X-4.6005 Y0.6532
G01 X-4.5070 Y1.0519
G01 X-4.5070 Y0.5300
G01 X-4.5184 Y0.5389
G01 X-4.5587 Y0.5676
G01 X-4.5757 Y0.5773
G01 X-4.5935 Y0.5854
G01 X-4.6045 Y0.5893
G01 X-4.6146 Y0.5924
G01 X-4.6200 Y0.5938
G01 X-4.6576 Y0.6029
G01 X-4.6639 Y0.6043
G01 X-4.6734 Y0.6061
G01 X-4.6850 Y0.6076
G01 X-4.6954 Y0.6084
G01 X-4.7068 Y0.6087
G01 X-4.6761 Y0.6501
G01 X-4.6692 Y0.6602
G01 X-4.6186 Y0.7445
G01 X-4.6111 Y0.7587
G01 X-4.5717 Y0.8420
G01 X-4.5657 Y0.8569
G01 X-4.5329 Y0.9491
G01 X-4.5300 Y0.9595
G01 X-4.5070 Y1.0519
G01 X-4.6005 Y1.8868
G01 X-4.5850 Y1.8914
G01 X-4.5694 Y1.8971
G01 X-4.5694 Y1.8349
G01 X-4.6005 Y1.8868
G01 X-4.7068 Y1.9313
G01 X-4.6954 Y1.9316
G01 X-4.6850 Y1.9324
G01 X-4.6753 Y1.9336
G01 X-4.6639 Y1.9356
G01 X-4.6146 Y1.9476
G01 X-4.6045 Y1.9507
G01 X-4.5935 Y1.9546
G01 X-4.5757 Y1.9627
G01 X-4.5587 Y1.9724
G01 X-4.5184 Y2.0011
G01 X-4.5070 Y2.0100
G01 X-4.5070 Y1.4881
G01 X-4.5300 Y1.5805
G01 X-4.5329 Y1.5909
G01 X-4.5657 Y1.6831
G01 X-4.5717 Y1.6980
G01 X-4.5732 Y1.7011
G01 X-4.6109 Y1.7810
G01 X-4.6111 Y1.7813
G01 X-4.6186 Y1.7955
G01 X-4.6692 Y1.8798
G01 X-4.6761 Y1.8899
G01 X-4.7068 Y1.9313
G00 Z1.0000
G00 X-4.4446 Y2.9056
G01 F25.00
G01 Z-0.0600
G01 F120.00
G01 X-4.4446 Y-2.6516
G01 X-4.4730 Y-2.6618
G01 X-4.4826 Y-2.6657
G01 X-4.5826 Y-2.7130
G01 X-4.5925 Y-2.7181
G01 X-4.6938 Y-2.7791
G01 X-4.7889 Y-2.8495
G01 X-4.7962 Y-2.8557
G01 X-4.8806 Y-2.9324
G01 X-4.9584 Y-3.0179
G01 X-4.9671 Y-3.0285
G01 X-5.0314 Y-3.1152
G01 X-5.0377 Y-3.1244
G01 X-5.0976 Y-3.2246
G01 X-5.1472 Y-3.3290
G01 X-5.1525 Y-3.3417
G01 X-5.1889 Y-3.4434
G01 X-5.1929 Y-3.4566
G01 X-5.2208 Y-3.5688
G01 X-5.2385 Y-3.6892
G01 X-5.2444 Y-3.8092
G01 X-5.2388 Y-3.9274
G01 X-5.2376 Y-3.9384
G01 X-5.2208 Y-4.0512
G01 X-5.1913 Y-4.1693
G01 X-5.1503 Y-4.2840
G01 X-5.0983 Y-4.3940
G01 X-5.0358 Y-4.4985
G01 X-4.9634 Y-4.5963
G01 X-4.8817 Y-4.6866
G01 X-4.7915 Y-4.7684
G01 X-4.6938 Y-4.8409
G01 X-4.5894 Y-4.9036
G01 X-4.4794 Y-4.9557
G01 X-4.3649 Y-4.9968
G01 X-4.2468 Y-5.0264
G01 X-4.1264 Y-5.0443
G01 X-4.0048 Y-5.0504
G01 X-3.8867 Y-5.0448
G01 X-3.8756 Y-5.0436
G01 X-3.7628 Y-5.0267
G01 X-3.6447 Y-4.9972
G01 X-3.5301 Y-4.9563
G01 X-3.4255 Y-4.9070
G01 X-3.4133 Y-4.9005
G01 X-3.3207 Y-4.8450
G01 X-3.3093 Y-4.8374
G01 X-3.2166 Y-4.7684
G01 X-3.1319 Y-4.6918
G01 X-3.1222 Y-4.6821
G01 X-3.0447 Y-4.5963
G01 X-2.9723 Y-4.4985
G01 X-2.9098 Y-4.3940
G01 X-2.8578 Y-4.2840
G01 X-2.8173 Y-4.1708
G01 X-2.7876 Y-4.0527
G01 X-2.7697 Y-3.9323
G01 X-2.7637 Y-3.8127
G01 X-2.7638 Y-3.8031
G01 X-2.7691 Y-3.6953
G01 X-2.7705 Y-3.6816
G01 X-2.7876 Y-3.5673
G01 X-2.8173 Y-3.4492
G01 X-2.8578 Y-3.3360
G01 X-2.9070 Y-3.2314
G01 X-2.9135 Y-3.2193
G01 X-2.9690 Y-3.1267
G01 X-2.9742 Y-3.1187
G01 X-3.0447 Y-3.0237
G01 X-3.1222 Y-2.9379
G01 X-3.1319 Y-2.9282
G01 X-3.2119 Y-2.8557
G01 X-3.2192 Y-2.8495
G01 X-3.3143 Y-2.7791
G01 X-3.4156 Y-2.7181
G01 X-3.4255 Y-2.7130
G01 X-3.5255 Y-2.6657
G01 X-3.5351 Y-2.6618
G01 X-3.5635 Y-2.6516
G01 X-3.5635 Y2.9056
G01 X-3.5351 Y2.9158
G01 X-3.5255 Y2.9197
G01 X-3.4255 Y2.9670
G01 X-3.4156 Y2.9721
G01 X-3.3143 Y3.0331
G01 X-3.2192 Y3.1035
G01 X-3.2119 Y3.1097
G01 X-3.1275 Y3.1864
G01 X-3.0497 Y3.2719
G01 X-3.0410 Y3.2825
G01 X-2.9767 Y3.3692
G01 X-2.9704 Y3.3784
G01 X-2.9098 Y3.4800
G01 X-2.8584 Y3.5886
G01 X-2.8173 Y3.7032
G01 X-2.7890 Y3.8153
G01 X-2.7863 Y3.8288
G01 X-2.7705 Y3.9356
G01 X-2.7691 Y3.9493
G01 X-2.7637 Y4.0648
G01 X-2.7696 Y4.1848
G01 X-2.7863 Y4.2992
G01 X-2.7890 Y4.3127
G01 X-2.8173 Y4.4248
G01 X-2.8578 Y4.5380
G01 X-2.9070 Y4.6426
G01 X-2.9135 Y4.6547
G01 X-2.9731 Y4.7538
G01 X-3.0447 Y4.8503
G01 X-3.1222 Y4.9361
G01 X-3.1319 Y4.9458
G01 X-3.2177 Y5.0233
G01 X-3.3143 Y5.0949
G01 X-3.4133 Y5.1545
G01 X-3.4255 Y5.1610
G01 X-3.5301 Y5.2103
G01 X-3.6414 Y5.2502
G01 X-3.6506 Y5.2528
G01 X-3.7628 Y5.2807
G01 X-3.8756 Y5.2976
G01 X-3.8893 Y5.2989
G01 X-4.0033 Y5.3044
G01 X-4.1188 Y5.2989
G01 X-4.1325 Y5.2976
G01 X-4.2393 Y5.2817
G01 X-4.2528 Y5.2791
G01 X-4.3634 Y5.2512
G01 X-4.4794 Y5.2097
G01 X-4.5894 Y5.1576
G01 X-4.6874 Y5.0990
G01 X-4.6988 Y5.0914
G01 X-4.7855 Y5.0271
G01 X-4.7962 Y5.0183
G01 X-4.8806 Y4.9416
G01 X-4.9584 Y4.8561
G01 X-4.9671 Y4.8455
G01 X-5.0350 Y4.7538
G01 X-5.0983 Y4.6480
G01 X-5.1503 Y4.5380
G01 X-5.1889 Y4.4306
G01 X-5.1929 Y4.4174
G01 X-5.2205 Y4.3067
G01 X-5.2376 Y4.1924
G01 X-5.2390 Y4.1787
G01 X-5.2444 Y4.0667
G01 X-5.2443 Y4.0571
G01 X-5.2385 Y3.9432
G01 X-5.2218 Y3.8288
G01 X-5.2191 Y3.8153
G01 X-5.1929 Y3.7106
G01 X-5.1889 Y3.6974
G01 X-5.1497 Y3.5886
G01 X-5.0976 Y3.4786
G01 X-5.0358 Y3.3755
G01 X-4.9655 Y3.2804
G01 X-4.9584 Y3.2719
G01 X-4.8817 Y3.1874
G01 X-4.7915 Y3.1056
G01 X-4.6938 Y3.0331
G01 X-4.5925 Y2.9721
G01 X-4.5826 Y2.9670
G01 X-4.4826 Y2.9197
G01 X-4.4730 Y2.9158
G01 X-4.4446 Y2.9056
G01 X-4.3822 Y2.9496
G01 X-4.3822 Y-2.6956
G01 X-4.4549 Y-2.7217
G01 X-4.5610 Y-2.7720
G01 X-4.6585 Y-2.8305
G01 X-4.7528 Y-2.9006
G01 X-4.8370 Y-2.9770
G01 X-4.9147 Y-3.0627
G01 X-4.9835 Y-3.1555
G01 X-5.0420 Y-3.2530
G01 X-5.0924 Y-3.3592
G01 X-5.1301 Y-3.4644
G01 X-5.1323 Y-3.4717
G01 X-5.1586 Y-3.5764
G01 X-5.1601 Y-3.5840
G01 X-5.1764 Y-3.6945
G01 X-5.1820 Y-3.8100
G01 X-5.1764 Y-3.9255
G01 X-5.1601 Y-4.0360
G01 X-5.1586 Y-4.0436
G01 X-5.1313 Y-4.1520
G01 X-5.0924 Y-4.2608
G01 X-5.0430 Y-4.3653
G01 X-4.9856 Y-4.4612
G01 X-4.9813 Y-4.4676
G01 X-4.9170 Y-4.5543
G01 X-4.9122 Y-4.5602
G01 X-4.8370 Y-4.6430
G01 X-4.7543 Y-4.7181
G01 X-4.7483 Y-4.7230
G01 X-4.6585 Y-4.7895
G01 X-4.5594 Y-4.8489
G01 X-4.4549 Y-4.8983
G01 X-4.3460 Y-4.9373
G01 X-4.2339 Y-4.9654
G01 X-4.1195 Y-4.9823
G01 X-4.0041 Y-4.9880
G01 X-3.8905 Y-4.9825
G01 X-3.7742 Y-4.9654
G01 X-3.6621 Y-4.9373
G01 X-3.5532 Y-4.8983
G01 X-3.4522 Y-4.8506
G01 X-3.4454 Y-4.8470
G01 X-3.3528 Y-4.7915
G01 X-3.3465 Y-4.7873
G01 X-3.2567 Y-4.7206
G01 X-3.1739 Y-4.6456
G01 X-3.1684 Y-4.6402
G01 X-3.0934 Y-4.5573
G01 X-3.0246 Y-4.4645
G01 X-2.9651 Y-4.3653
G01 X-2.9157 Y-4.2608
G01 X-2.8768 Y-4.1520
G01 X-2.8487 Y-4.0398
G01 X-2.8317 Y-3.9255
G01 X-2.8261 Y-3.8119
G01 X-2.8314 Y-3.6984
G01 X-2.8322 Y-3.6907
G01 X-2.8487 Y-3.5802
G01 X-2.8768 Y-3.4680
G01 X-2.9157 Y-3.3592
G01 X-2.9634 Y-3.2581
G01 X-2.9670 Y-3.2514
G01 X-3.0257 Y-3.1540
G01 X-3.0934 Y-3.0627
G01 X-3.1684 Y-2.9798
G01 X-3.1739 Y-2.9744
G01 X-3.2582 Y-2.8982
G01 X-3.3496 Y-2.8305
G01 X-3.4471 Y-2.7720
G01 X-3.5532 Y-2.7217
G01 X-3.6259 Y-2.6956
G01 X-3.6259 Y2.9496
G01 X-3.5532 Y2.9757
G01 X-3.4471 Y3.0260
G01 X-3.3496 Y3.0845
G01 X-3.2582 Y3.1522
G01 X-3.1711 Y3.2310
G01 X-3.0959 Y3.3138
G01 X-3.0911 Y3.3197
G01 X-3.0235 Y3.4111
G01 X-2.9651 Y3.5087
G01 X-2.9157 Y3.6132
G01 X-2.8768 Y3.7220
G01 X-2.8495 Y3.8304
G01 X-2.8480 Y3.8380
G01 X-2.8322 Y3.9447
G01 X-2.8314 Y3.9524
G01 X-2.8261 Y4.0640
G01 X-2.8317 Y4.1795
G01 X-2.8487 Y4.2938
G01 X-2.8758 Y4.4023
G01 X-2.8780 Y4.4096
G01 X-2.9157 Y4.5148
G01 X-2.9651 Y4.6193
G01 X-3.0225 Y4.7152
G01 X-3.0268 Y4.7216
G01 X-3.0934 Y4.8113
G01 X-3.1711 Y4.8970
G01 X-3.2538 Y4.9721
G01 X-3.2598 Y4.9770
G01 X-3.3496 Y5.0435
G01 X-3.4454 Y5.1010
G01 X-3.4522 Y5.1046
G01 X-3.5532 Y5.1523
G01 X-3.6603 Y5.1907
G01 X-3.7742 Y5.2194
G01 X-3.8886 Y5.2363
G01 X-4.0040 Y5.2420
G01 X-4.1195 Y5.2363
G01 X-4.2339 Y5.2194
G01 X-4.3460 Y5.1913
G01 X-4.4549 Y5.1523
G01 X-4.5594 Y5.1029
G01 X-4.6585 Y5.0435
G01 X-4.7514 Y4.9746
G01 X-4.8370 Y4.8970
G01 X-4.9147 Y4.8113
G01 X-4.9835 Y4.7185
G01 X-5.0430 Y4.6193
G01 X-5.0924 Y4.5148
G01 X-5.1307 Y4.4078
G01 X-5.1594 Y4.2938
G01 X-5.1764 Y4.1795
G01 X-5.1820 Y4.0640
G01 X-5.1764 Y3.9485
G01 X-5.1594 Y3.8342
G01 X-5.1313 Y3.7220
G01 X-5.0924 Y3.6132
G01 X-5.0438 Y3.5104
G01 X-4.9835 Y3.4095
G01 X-4.9147 Y3.3167
G01 X-4.8370 Y3.2310
G01 X-4.7528 Y3.1546
G01 X-4.6585 Y3.0845
G01 X-4.5610 Y3.0260
G01 X-4.4549 Y2.9757
G01 X-4.3822 Y2.9496
G00 Z1.0000
G00 X-5.2540 Y3.6977
G01 F25.00
G01 Z-0.0600
G01 F120.00
G01 X-5.2512 Y3.6873
G01 X-5.2480 Y3.6774
G01 X-5.2101 Y3.5715
G01 X-5.2051 Y3.5595
G01 X-5.1879 Y3.5231
G01 X-5.2019 Y3.5256
G01 X-5.2164 Y3.5271
G01 X-5.2712 Y3.5292
G01 X-5.2836 Y3.5288
G01 X-5.2964 Y3.5275
G01 X-5.3086 Y3.5256
G01 X-5.3201 Y3.5230
G01 X-5.3029 Y3.5595
G01 X-5.2979 Y3.5715
G01 X-5.2600 Y3.6774
G01 X-5.2568 Y3.6873
G01 X-5.2540 Y3.6977
G01 X-5.2637 Y4.0571
G01 X-5.2636 Y4.0682
G01 X-5.2690 Y4.1787
G01 X-5.2698 Y4.1882
G01 X-5.2703 Y4.1924
G01 X-5.2862 Y4.2992
G01 X-5.2889 Y4.3127
G01 X-5.3167 Y4.4233
G01 X-5.3555 Y4.5323
G01 X-5.3607 Y4.5450
G01 X-5.4096 Y4.6480
G01 X-5.4711 Y4.7509
G01 X-5.4765 Y4.7588
G01 X-5.5446 Y4.8503
G01 X-5.6263 Y4.9406
G01 X-5.7164 Y5.0224
G01 X-5.8142 Y5.0949
G01 X-5.9185 Y5.1576
G01 X-6.0299 Y5.2103
G01 X-6.1446 Y5.2512
G01 X-6.2627 Y5.2807
G01 X-6.3831 Y5.2985
G01 X-6.5047 Y5.3044
G01 X-6.6263 Y5.2983
G01 X-6.7391 Y5.2817
G01 X-6.7526 Y5.2791
G01 X-6.8647 Y5.2508
G01 X-6.9722 Y5.2125
G01 X-6.9849 Y5.2072
G01 X-7.0893 Y5.1576
G01 X-7.1872 Y5.0990
G01 X-7.1987 Y5.0914
G01 X-7.2854 Y5.0271
G01 X-7.2960 Y5.0183
G01 X-7.3805 Y4.9416
G01 X-7.4623 Y4.8515
G01 X-7.5348 Y4.7538
G01 X-7.5975 Y4.6494
G01 X-7.6502 Y4.5380
G01 X-7.6911 Y4.4233
G01 X-7.7206 Y4.3052
G01 X-7.7375 Y4.1924
G01 X-7.7387 Y4.1814
G01 X-7.7443 Y4.0632
G01 X-7.7389 Y3.9493
G01 X-7.7375 Y3.9356
G01 X-7.7217 Y3.8288
G01 X-7.7190 Y3.8153
G01 X-7.6907 Y3.7032
G01 X-7.6524 Y3.5957
G01 X-7.6471 Y3.5830
G01 X-7.5982 Y3.4800
G01 X-7.5348 Y3.3742
G01 X-7.4623 Y3.2765
G01 X-7.3858 Y3.1919
G01 X-7.3760 Y3.1822
G01 X-7.2960 Y3.1097
G01 X-7.2854 Y3.1009
G01 X-7.1924 Y3.0322
G01 X-7.0946 Y2.9735
G01 X-7.0825 Y2.9670
G01 X-6.9793 Y2.9183
G01 X-6.8633 Y2.8768
G01 X-6.7452 Y2.8473
G01 X-6.6323 Y2.8304
G01 X-6.6186 Y2.8291
G01 X-6.5032 Y2.8236
G01 X-6.3892 Y2.8291
G01 X-6.3755 Y2.8304
G01 X-6.2661 Y2.8467
G01 X-6.2552 Y2.8489
G01 X-6.1431 Y2.8772
G01 X-6.0357 Y2.9155
G01 X-6.0229 Y2.9208
G01 X-5.9199 Y2.9697
G01 X-5.8206 Y3.0290
G01 X-5.8092 Y3.0366
G01 X-5.7176 Y3.1047
G01 X-5.6318 Y3.1822
G01 X-5.6221 Y3.1919
G01 X-5.5446 Y3.2777
G01 X-5.4765 Y3.3692
G01 X-5.4689 Y3.3807
G01 X-5.4104 Y3.4786
G01 X-5.3607 Y3.5830
G01 X-5.3569 Y3.5918
G01 X-5.3167 Y3.7047
G01 X-5.2875 Y3.8213
G01 X-5.2696 Y3.9417
G01 X-5.2637 Y4.0571
G01 X-5.3260 Y4.0602
G01 X-5.3260 Y4.0678
G01 X-5.3313 Y4.1756
G01 X-5.3321 Y4.1833
G01 X-5.3486 Y4.2938
G01 X-5.3766 Y4.4060
G01 X-5.4142 Y4.5112
G01 X-5.4171 Y4.5183
G01 X-5.4650 Y4.6193
G01 X-5.5244 Y4.7185
G01 X-5.5910 Y4.8083
G01 X-5.5958 Y4.8142
G01 X-5.6709 Y4.8970
G01 X-5.7537 Y4.9721
G01 X-5.7596 Y4.9770
G01 X-5.8495 Y5.0435
G01 X-5.9486 Y5.1029
G01 X-6.0531 Y5.1523
G01 X-6.1583 Y5.1901
G01 X-6.1657 Y5.1923
G01 X-6.2741 Y5.2194
G01 X-6.3847 Y5.2359
G01 X-6.3923 Y5.2366
G01 X-6.5039 Y5.2420
G01 X-6.6194 Y5.2363
G01 X-6.7300 Y5.2200
G01 X-6.7375 Y5.2185
G01 X-6.8459 Y5.1913
G01 X-6.9511 Y5.1537
G01 X-6.9582 Y5.1508
G01 X-7.0592 Y5.1029
G01 X-7.1551 Y5.0455
G01 X-7.1615 Y5.0413
G01 X-7.2512 Y4.9746
G01 X-7.3341 Y4.8996
G01 X-7.3395 Y4.8942
G01 X-7.4145 Y4.8113
G01 X-7.4812 Y4.7216
G01 X-7.4854 Y4.7152
G01 X-7.5428 Y4.6193
G01 X-7.5907 Y4.5183
G01 X-7.5936 Y4.5112
G01 X-7.6312 Y4.4060
G01 X-7.6584 Y4.2976
G01 X-7.6599 Y4.2900
G01 X-7.6762 Y4.1795
G01 X-7.6818 Y4.0678
G01 X-7.6818 Y4.0602
G01 X-7.6762 Y3.9485
G01 X-7.6599 Y3.8380
G01 X-7.6584 Y3.8304
G01 X-7.6312 Y3.7220
G01 X-7.5936 Y3.6168
G01 X-7.5907 Y3.6097
G01 X-7.5428 Y3.5087
G01 X-7.4854 Y3.4128
G01 X-7.4812 Y3.4064
G01 X-7.4145 Y3.3167
G01 X-7.3395 Y3.2338
G01 X-7.3341 Y3.2284
G01 X-7.2512 Y3.1534
G01 X-7.1615 Y3.0867
G01 X-7.1551 Y3.0825
G01 X-7.0592 Y3.0251
G01 X-6.9582 Y2.9772
G01 X-6.9511 Y2.9743
G01 X-6.8459 Y2.9367
G01 X-6.7375 Y2.9095
G01 X-6.7300 Y2.9080
G01 X-6.6194 Y2.8917
G01 X-6.5077 Y2.8861
G01 X-6.5001 Y2.8861
G01 X-6.3885 Y2.8917
G01 X-6.2741 Y2.9086
G01 X-6.1620 Y2.9367
G01 X-6.0567 Y2.9743
G01 X-6.0496 Y2.9772
G01 X-5.9486 Y3.0251
G01 X-5.8527 Y3.0825
G01 X-5.8463 Y3.0867
G01 X-5.7596 Y3.1510
G01 X-5.7537 Y3.1559
G01 X-5.6709 Y3.2310
G01 X-5.5921 Y3.3182
G01 X-5.5244 Y3.4095
G01 X-5.4650 Y3.5087
G01 X-5.4156 Y3.6132
G01 X-5.3766 Y3.7220
G01 X-5.3494 Y3.8304
G01 X-5.3479 Y3.8380
G01 X-5.3316 Y3.9485
G01 X-5.3260 Y4.0602
G01 X-5.1882 Y4.6044
G01 X-5.2051 Y4.5685
G01 X-5.2101 Y4.5565
G01 X-5.2480 Y4.4506
G01 X-5.2512 Y4.4407
G01 X-5.2540 Y4.4303
G01 X-5.2568 Y4.4407
G01 X-5.2600 Y4.4506
G01 X-5.2979 Y4.5565
G01 X-5.3029 Y4.5685
G01 X-5.3201 Y4.6050
G01 X-5.3082 Y4.6023
G01 X-5.2960 Y4.6004
G01 X-5.2840 Y4.5993
G01 X-5.2717 Y4.5988
G01 X-5.2170 Y4.6003
G01 X-5.2018 Y4.6019
G01 X-5.1882 Y4.6044
G00 Z1.0000
G00 X-2.7540 Y4.4298
G01 F25.00
G01 Z-0.0600
G01 F120.00
G01 X-2.7569 Y4.4407
G01 X-2.7601 Y4.4506
G01 X-2.7980 Y4.5565
G01 X-2.8030 Y4.5685
G01 X-2.8203 Y4.6051
G01 X-2.8073 Y4.6022
G01 X-2.7952 Y4.6004
G01 X-2.7834 Y4.5992
G01 X-2.7711 Y4.5988
G01 X-2.7171 Y4.6003
G01 X-2.7019 Y4.6019
G01 X-2.6880 Y4.6044
G01 X-2.7050 Y4.5685
G01 X-2.7100 Y4.5565
G01 X-2.7479 Y4.4506
G01 X-2.7511 Y4.4407
G01 X-2.7540 Y4.4298
G01 X-2.6878 Y3.5230
G01 X-2.7020 Y3.5256
G01 X-2.7165 Y3.5271
G01 X-2.7707 Y3.5292
G01 X-2.7829 Y3.5288
G01 X-2.7955 Y3.5276
G01 X-2.8076 Y3.5257
G01 X-2.8203 Y3.5229
G01 X-2.8030 Y3.5595
G01 X-2.7980 Y3.5715
G01 X-2.7601 Y3.6774
G01 X-2.7569 Y3.6873
G01 X-2.7540 Y3.6982
G01 X-2.7511 Y3.6873
G01 X-2.7479 Y3.6774
G01 X-2.7100 Y3.5715
G01 X-2.7050 Y3.5595
G01 X-2.6878 Y3.5230
G01 X-2.7647 Y3.4667
G01 X-2.7777 Y3.4666
G01 X-2.7895 Y3.4654
G01 X-2.8031 Y3.4629
G01 X-2.8149 Y3.4595
G01 X-2.8567 Y3.4441
G01 X-2.8664 Y3.4399
G01 X-2.8806 Y3.4323
G01 X-2.8936 Y3.4234
G01 X-2.9031 Y3.4152
G01 X-2.9321 Y3.3877
G01 X-2.9416 Y3.3778
G01 X-2.9493 Y3.3682
G01 X-3.0253 Y3.2635
G01 X-3.1226 Y3.1575
G01 X-3.2318 Y3.0629
G01 X-3.3513 Y2.9814
G01 X-3.4112 Y2.9496
G01 X-3.4222 Y2.9430
G01 X-3.4317 Y2.9362
G01 X-3.4612 Y2.9129
G01 X-3.4688 Y2.9063
G01 X-3.4804 Y2.8943
G01 X-3.4905 Y2.8810
G01 X-3.5138 Y2.8427
G01 X-3.5186 Y2.8337
G01 X-3.5221 Y2.8261
G01 X-3.5267 Y2.8132
G01 X-3.5304 Y2.7982
G01 X-3.5379 Y2.7570
G01 X-3.5391 Y2.7462
G01 X-3.5394 Y2.7361
G01 X-3.5394 Y-2.4821
G01 X-3.5392 Y-2.4901
G01 X-3.5383 Y-2.4994
G01 X-3.5290 Y-2.5508
G01 X-3.5251 Y-2.5639
G01 X-3.5201 Y-2.5766
G01 X-3.5138 Y-2.5887
G01 X-3.4896 Y-2.6282
G01 X-3.4804 Y-2.6403
G01 X-3.4688 Y-2.6523
G01 X-3.4612 Y-2.6589
G01 X-3.4317 Y-2.6822
G01 X-3.4222 Y-2.6890
G01 X-3.4112 Y-2.6956
G01 X-3.3513 Y-2.7274
G01 X-3.2318 Y-2.8089
G01 X-3.1226 Y-2.9035
G01 X-3.0253 Y-3.0095
G01 X-2.9493 Y-3.1142
G01 X-2.9416 Y-3.1238
G01 X-2.9321 Y-3.1337
G01 X-2.9031 Y-3.1612
G01 X-2.8951 Y-3.1681
G01 X-2.8820 Y-3.1775
G01 X-2.8745 Y-3.1819
G01 X-2.8664 Y-3.1859
G01 X-2.8567 Y-3.1901
G01 X-2.8181 Y-3.2043
G01 X-2.8068 Y-3.2079
G01 X-2.7956 Y-3.2104
G01 X-2.7839 Y-3.2121
G01 X-2.7705 Y-3.2128
G01 X-2.7195 Y-3.2113
G01 X-2.7055 Y-3.2094
G01 X-2.6918 Y-3.2062
G01 X-2.6832 Y-3.2034
G01 X-2.6752 Y-3.2002
G01 X-2.6347 Y-3.1817
G01 X-2.6213 Y-3.1744
G01 X-2.6101 Y-3.1666
G01 X-2.6033 Y-3.1610
G01 X-2.5971 Y-3.1554
G01 X-2.5673 Y-3.1250
G01 X-2.5601 Y-3.1169
G01 X-2.5514 Y-3.1054
G01 X-2.5268 Y-3.0671
G01 X-2.4353 Y-2.9550
G01 X-2.3320 Y-2.8545
G01 X-2.2178 Y-2.7663
G01 X-2.0804 Y-2.6835
G01 X-2.0683 Y-2.6744
G01 X-2.0372 Y-2.6476
G01 X-2.0309 Y-2.6414
G01 X-2.0253 Y-2.6352
G01 X-2.0198 Y-2.6283
G01 X-2.0139 Y-2.6198
G01 X-1.9913 Y-2.5804
G01 X-1.9846 Y-2.5662
G01 X-1.9800 Y-2.5528
G01 X-1.9767 Y-2.5390
G01 X-1.9701 Y-2.4983
G01 X-1.9691 Y-2.4886
G01 X-1.9688 Y-2.4795
G01 X-1.9688 Y2.7335
G01 X-1.9691 Y2.7426
G01 X-1.9701 Y2.7523
G01 X-1.9777 Y2.7980
G01 X-1.9810 Y2.8102
G01 X-1.9852 Y2.8216
G01 X-1.9913 Y2.8344
G01 X-2.0131 Y2.8725
G01 X-2.0209 Y2.8838
G01 X-2.0309 Y2.8954
G01 X-2.0384 Y2.9026
G01 X-2.0669 Y2.9272
G01 X-2.0736 Y2.9327
G01 X-2.0804 Y2.9375
G01 X-2.2178 Y3.0203
G01 X-2.3320 Y3.1085
G01 X-2.4354 Y3.2091
G01 X-2.5266 Y3.3204
G01 X-2.5509 Y3.3586
G01 X-2.5586 Y3.3692
G01 X-2.5673 Y3.3790
G01 X-2.6009 Y3.4129
G01 X-2.6078 Y3.4188
G01 X-2.6147 Y3.4240
G01 X-2.6222 Y3.4289
G01 X-2.6298 Y3.4332
G01 X-2.6379 Y3.4372
G01 X-2.6741 Y3.4532
G01 X-2.6866 Y3.4581
G01 X-2.7018 Y3.4622
G01 X-2.7157 Y3.4644
G01 X-2.7248 Y3.4651
G01 X-2.7647 Y3.4667
G01 X-2.7671 Y3.4043
G01 X-2.7786 Y3.4039
G01 X-2.7843 Y3.4031
G01 X-2.7917 Y3.4013
G01 X-2.8343 Y3.3858
G01 X-2.8415 Y3.3827
G01 X-2.8484 Y3.3789
G01 X-2.8548 Y3.3744
G01 X-2.8608 Y3.3693
G01 X-2.8906 Y3.3411
G01 X-2.8966 Y3.3344
G01 X-2.9769 Y3.2239
G01 X-3.0791 Y3.1127
G01 X-3.1937 Y3.0134
G01 X-3.3190 Y2.9279
G01 X-3.3812 Y2.8949
G01 X-3.3881 Y2.8908
G01 X-3.4220 Y2.8644
G01 X-3.4289 Y2.8582
G01 X-3.4339 Y2.8527
G01 X-3.4393 Y2.8452
G01 X-3.4601 Y2.8110
G01 X-3.4643 Y2.8025
G01 X-3.4669 Y2.7954
G01 X-3.4688 Y2.7880
G01 X-3.4764 Y2.7461
G01 X-3.4770 Y2.7361
G01 X-3.4770 Y-2.4821
G01 X-3.4764 Y-2.4921
G01 X-3.4684 Y-2.5359
G01 X-3.4663 Y-2.5432
G01 X-3.4635 Y-2.5502
G01 X-3.4591 Y-2.5586
G01 X-3.4383 Y-2.5927
G01 X-3.4327 Y-2.6001
G01 X-3.4262 Y-2.6068
G01 X-3.3881 Y-2.6368
G01 X-3.3812 Y-2.6409
G01 X-3.3190 Y-2.6739
G01 X-3.1937 Y-2.7594
G01 X-3.0791 Y-2.8587
G01 X-2.9769 Y-2.9699
G01 X-2.8954 Y-3.0818
G01 X-2.8893 Y-3.0884
G01 X-2.8564 Y-3.1192
G01 X-2.8484 Y-3.1249
G01 X-2.8397 Y-3.1296
G01 X-2.7972 Y-3.1455
G01 X-2.7919 Y-3.1473
G01 X-2.7847 Y-3.1490
G01 X-2.7773 Y-3.1500
G01 X-2.7699 Y-3.1504
G01 X-2.7250 Y-3.1491
G01 X-2.7173 Y-3.1481
G01 X-2.7096 Y-3.1464
G01 X-2.7004 Y-3.1431
G01 X-2.6613 Y-3.1252
G01 X-2.6530 Y-3.1206
G01 X-2.6439 Y-3.1137
G01 X-2.6124 Y-3.0818
G01 X-2.6071 Y-3.0758
G01 X-2.6024 Y-3.0693
G01 X-2.5774 Y-3.0304
G01 X-2.4814 Y-2.9128
G01 X-2.3730 Y-2.8073
G01 X-2.2531 Y-2.7147
G01 X-2.1145 Y-2.6312
G01 X-2.1070 Y-2.6255
G01 X-2.0769 Y-2.5992
G01 X-2.0706 Y-2.5921
G01 X-2.0652 Y-2.5842
G01 X-2.0460 Y-2.5503
G01 X-2.0426 Y-2.5432
G01 X-2.0400 Y-2.5358
G01 X-2.0382 Y-2.5282
G01 X-2.0317 Y-2.4886
G01 X-2.0312 Y-2.4795
G01 X-2.0312 Y2.7335
G01 X-2.0317 Y2.7426
G01 X-2.0382 Y2.7822
G01 X-2.0400 Y2.7898
G01 X-2.0426 Y2.7972
G01 X-2.0460 Y2.8043
G01 X-2.0652 Y2.8382
G01 X-2.0706 Y2.8461
G01 X-2.0769 Y2.8532
G01 X-2.1070 Y2.8795
G01 X-2.1145 Y2.8852
G01 X-2.2531 Y2.9687
G01 X-2.3730 Y3.0613
G01 X-2.4814 Y3.1669
G01 X-2.5773 Y3.2838
G01 X-2.6022 Y3.3230
G01 X-2.6075 Y3.3304
G01 X-2.6124 Y3.3358
G01 X-2.6426 Y3.3665
G01 X-2.6518 Y3.3738
G01 X-2.6603 Y3.3787
G01 X-2.6994 Y3.3962
G01 X-2.7086 Y3.3996
G01 X-2.7163 Y3.4015
G01 X-2.7240 Y3.4025
G01 X-2.7671 Y3.4043
G00 Z1.0000
G00 X-0.2672 Y3.4043
G01 F25.00
G01 Z-0.0600
G01 F120.00
G01 X-0.2730 Y3.4043
G01 X-0.2808 Y3.4037
G01 X-0.2884 Y3.4022
G01 X-0.2958 Y3.4001
G01 X-0.3395 Y3.3835
G01 X-0.3495 Y3.3780
G01 X-0.3571 Y3.3723
G01 X-0.3889 Y3.3429
G01 X-0.3954 Y3.3360
G01 X-0.4770 Y3.2239
G01 X-0.5792 Y3.1127
G01 X-0.6939 Y3.0133
G01 X-0.8186 Y2.9280
G01 X-0.8811 Y2.8950
G01 X-0.8876 Y2.8912
G01 X-0.8937 Y2.8868
G01 X-0.9264 Y2.8603
G01 X-0.9328 Y2.8535
G01 X-0.9384 Y2.8460
G01 X-0.9597 Y2.8118
G01 X-0.9641 Y2.8033
G01 X-0.9667 Y2.7962
G01 X-0.9687 Y2.7889
G01 X-0.9761 Y2.7454
G01 X-0.9766 Y2.7361
G01 X-0.9766 Y-2.4821
G01 X-0.9758 Y-2.4932
G01 X-0.9695 Y-2.5312
G01 X-0.9679 Y-2.5384
G01 X-0.9649 Y-2.5473
G01 X-0.9600 Y-2.5573
G01 X-0.9387 Y-2.5921
G01 X-0.9341 Y-2.5985
G01 X-0.9288 Y-2.6044
G01 X-0.9214 Y-2.6110
G01 X-0.8881 Y-2.6369
G01 X-0.8811 Y-2.6410
G01 X-0.8186 Y-2.6740
G01 X-0.6939 Y-2.7593
G01 X-0.5792 Y-2.8587
G01 X-0.4770 Y-2.9699
G01 X-0.3966 Y-3.0806
G01 X-0.3903 Y-3.0876
G01 X-0.3585 Y-3.1171
G01 X-0.3541 Y-3.1207
G01 X-0.3479 Y-3.1250
G01 X-0.3378 Y-3.1303
G01 X-0.2959 Y-3.1460
G01 X-0.2869 Y-3.1486
G01 X-0.2795 Y-3.1498
G01 X-0.2701 Y-3.1504
G01 X-0.2291 Y-3.1493
G01 X-0.2195 Y-3.1485
G01 X-0.2119 Y-3.1469
G01 X-0.2027 Y-3.1440
G01 X-0.1613 Y-3.1254
G01 X-0.1564 Y-3.1229
G01 X-0.1502 Y-3.1189
G01 X-0.1443 Y-3.1143
G01 X-0.1402 Y-3.1106
G01 X-0.1120 Y-3.0813
G01 X-0.1070 Y-3.0756
G01 X-0.1025 Y-3.0693
G01 X-0.0775 Y-3.0304
G01 X0.0184 Y-2.9129
G01 X0.1273 Y-2.8073
G01 X0.2473 Y-2.7148
G01 X0.3855 Y-2.6316
G01 X0.3935 Y-2.6254
G01 X0.4221 Y-2.6000
G01 X0.4284 Y-2.5932
G01 X0.4338 Y-2.5857
G01 X0.4529 Y-2.5520
G01 X0.4572 Y-2.5432
G01 X0.4598 Y-2.5358
G01 X0.4617 Y-2.5282
G01 X0.4681 Y-2.4886
G01 X0.4686 Y-2.4795
G01 X0.4686 Y2.7335
G01 X0.4679 Y2.7444
G01 X0.4617 Y2.7822
G01 X0.4598 Y2.7898
G01 X0.4572 Y2.7972
G01 X0.4539 Y2.8043
G01 X0.4347 Y2.8382
G01 X0.4293 Y2.8461
G01 X0.4229 Y2.8532
G01 X0.3928 Y2.8795
G01 X0.3854 Y2.8851
G01 X0.2473 Y2.9687
G01 X0.1273 Y3.0613
G01 X0.0184 Y3.1669
G01 X-0.0774 Y3.2838
G01 X-0.1023 Y3.3230
G01 X-0.1081 Y3.3309
G01 X-0.1389 Y3.3632
G01 X-0.1459 Y3.3697
G01 X-0.1537 Y3.3752
G01 X-0.1621 Y3.3798
G01 X-0.1999 Y3.3963
G01 X-0.2090 Y3.3997
G01 X-0.2166 Y3.4015
G01 X-0.2242 Y3.4026
G01 X-0.2672 Y3.4043
G01 X-0.2648 Y3.4667
G01 X-0.2710 Y3.4668
G01 X-0.2830 Y3.4662
G01 X-0.2953 Y3.4645
G01 X-0.3070 Y3.4619
G01 X-0.3188 Y3.4581
G01 X-0.3568 Y3.4438
G01 X-0.3680 Y3.4390
G01 X-0.3754 Y3.4352
G01 X-0.3829 Y3.4306
G01 X-0.3953 Y3.4217
G01 X-0.4019 Y3.4160
G01 X-0.4319 Y3.3880
G01 X-0.4426 Y3.3768
G01 X-0.4494 Y3.3682
G01 X-0.5254 Y3.2635
G01 X-0.6228 Y3.1575
G01 X-0.7321 Y3.0628
G01 X-0.8509 Y2.9815
G01 X-0.9109 Y2.9499
G01 X-0.9225 Y2.9430
G01 X-0.9327 Y2.9354
G01 X-0.9618 Y2.9121
G01 X-0.9694 Y2.9054
G01 X-0.9755 Y2.8993
G01 X-0.9810 Y2.8932
G01 X-0.9902 Y2.8808
G01 X-1.0139 Y2.8428
G01 X-1.0187 Y2.8338
G01 X-1.0223 Y2.8258
G01 X-1.0269 Y2.8129
G01 X-1.0305 Y2.7982
G01 X-1.0377 Y2.7554
G01 X-1.0387 Y2.7454
G01 X-1.0390 Y2.7361
G01 X-1.0390 Y-2.4821
G01 X-1.0387 Y-2.4914
G01 X-1.0380 Y-2.4996
G01 X-1.0295 Y-2.5489
G01 X-1.0260 Y-2.5618
G01 X-1.0205 Y-2.5760
G01 X-1.0136 Y-2.5893
G01 X-0.9895 Y-2.6283
G01 X-0.9799 Y-2.6409
G01 X-0.9687 Y-2.6526
G01 X-0.9606 Y-2.6596
G01 X-0.9315 Y-2.6824
G01 X-0.9220 Y-2.6892
G01 X-0.9109 Y-2.6958
G01 X-0.8509 Y-2.7275
G01 X-0.7321 Y-2.8088
G01 X-0.6228 Y-2.9035
G01 X-0.5254 Y-3.0095
G01 X-0.4494 Y-3.1142
G01 X-0.4426 Y-3.1228
G01 X-0.4319 Y-3.1340
G01 X-0.4019 Y-3.1620
G01 X-0.3953 Y-3.1677
G01 X-0.3886 Y-3.1728
G01 X-0.3813 Y-3.1777
G01 X-0.3680 Y-3.1850
G01 X-0.3568 Y-3.1898
G01 X-0.3189 Y-3.2041
G01 X-0.3074 Y-3.2078
G01 X-0.2961 Y-3.2104
G01 X-0.2827 Y-3.2122
G01 X-0.2707 Y-3.2128
G01 X-0.2275 Y-3.2117
G01 X-0.2178 Y-3.2111
G01 X-0.2025 Y-3.2088
G01 X-0.1890 Y-3.2053
G01 X-0.1760 Y-3.2005
G01 X-0.1307 Y-3.1799
G01 X-0.1233 Y-3.1758
G01 X-0.1148 Y-3.1703
G01 X-0.1017 Y-3.1600
G01 X-0.0945 Y-3.1531
G01 X-0.0671 Y-3.1246
G01 X-0.0597 Y-3.1163
G01 X-0.0515 Y-3.1053
G01 X-0.0269 Y-3.0671
G01 X0.0645 Y-2.9552
G01 X0.1682 Y-2.8546
G01 X0.2825 Y-2.7664
G01 X0.4142 Y-2.6873
G01 X0.4227 Y-2.6817
G01 X0.4348 Y-2.6722
G01 X0.4626 Y-2.6476
G01 X0.4697 Y-2.6406
G01 X0.4784 Y-2.6305
G01 X0.4869 Y-2.6184
G01 X0.5085 Y-2.5804
G01 X0.5146 Y-2.5676
G01 X0.5188 Y-2.5562
G01 X0.5221 Y-2.5440
G01 X0.5298 Y-2.4983
G01 X0.5308 Y-2.4886
G01 X0.5310 Y-2.4795
G01 X0.5310 Y2.7335
G01 X0.5308 Y2.7426
G01 X0.5298 Y2.7523
G01 X0.5231 Y2.7930
G01 X0.5199 Y2.8068
G01 X0.5152 Y2.8202
G01 X0.5085 Y2.8344
G01 X0.4860 Y2.8738
G01 X0.4810 Y2.8811
G01 X0.4758 Y2.8877
G01 X0.4689 Y2.8954
G01 X0.4626 Y2.9016
G01 X0.4316 Y2.9284
G01 X0.4196 Y2.9374
G01 X0.2827 Y3.0203
G01 X0.1682 Y3.1086
G01 X0.0644 Y3.2093
G01 X-0.0267 Y3.3204
G01 X-0.0511 Y3.3588
G01 X-0.0595 Y3.3701
G01 X-0.0665 Y3.3780
G01 X-0.0959 Y3.4085
G01 X-0.1020 Y3.4142
G01 X-0.1087 Y3.4198
G01 X-0.1200 Y3.4277
G01 X-0.1333 Y3.4352
G01 X-0.1775 Y3.4546
G01 X-0.1906 Y3.4593
G01 X-0.2041 Y3.4626
G01 X-0.2180 Y3.4646
G01 X-0.2648 Y3.4667
G01 X-0.2540 Y3.6977
G01 X-0.2512 Y3.6873
G01 X-0.2480 Y3.6774
G01 X-0.2101 Y3.5715
G01 X-0.2051 Y3.5595
G01 X-0.1879 Y3.5230
G01 X-0.2024 Y3.5256
G01 X-0.2167 Y3.5271
G01 X-0.2233 Y3.5275
G01 X-0.2624 Y3.5290
G01 X-0.2709 Y3.5292
G01 X-0.2833 Y3.5288
G01 X-0.2960 Y3.5275
G01 X-0.3083 Y3.5256
G01 X-0.3201 Y3.5229
G01 X-0.3029 Y3.5595
G01 X-0.2979 Y3.5715
G01 X-0.2600 Y3.6774
G01 X-0.2568 Y3.6873
G01 X-0.2540 Y3.6977
G01 X-0.1160 Y4.7404
G01 X-0.1483 Y4.6865
G01 X-0.1546 Y4.6751
G01 X-0.2054 Y4.5678
G01 X-0.2112 Y4.5536
G01 X-0.2478 Y4.4513
G01 X-0.2510 Y4.4414
G01 X-0.2540 Y4.4303
G01 X-0.2568 Y4.4407
G01 X-0.2600 Y4.4506
G01 X-0.2985 Y4.5579
G01 X-0.1160 Y4.7404
G01 X0.5259 Y5.2781
G01 X0.5034 Y5.2700
G01 X0.4921 Y5.2654
G01 X0.3876 Y5.2159
G01 X0.3741 Y5.2086
G01 X0.3195 Y5.1759
G01 X0.4217 Y5.2781
G01 X0.5259 Y5.2781
G01 X1.7274 Y5.2157
G01 X1.7719 Y5.2157
G01 X1.7675 Y5.2042
G01 X1.7637 Y5.1926
G01 X1.7496 Y5.2023
G01 X1.7274 Y5.2157
G01 X1.8059 Y5.0836
G01 X1.7279 Y5.1415
G01 X1.7191 Y5.1477
G01 X1.6151 Y5.2102
G01 X1.6015 Y5.2173
G01 X1.6012 Y5.2174
G01 X1.5036 Y5.2636
G01 X1.5005 Y5.2650
G01 X1.4884 Y5.2700
G01 X1.4660 Y5.2781
G01 X1.8848 Y5.2781
G01 X1.8743 Y5.2645
G01 X1.8464 Y5.2244
G01 X1.8376 Y5.2091
G01 X1.8294 Y5.1915
G01 X1.8246 Y5.1785
G01 X1.8211 Y5.1666
G01 X1.8106 Y5.1213
G01 X1.8074 Y5.1024
G01 X1.8059 Y5.0836
G00 Z1.0000
G00 X2.1102 Y5.2540
G01 F25.00
G01 Z-0.0600
G01 F120.00
G01 X2.1025 Y5.2536
G01 X2.0968 Y5.2528
G01 X2.0568 Y5.2449
G01 X2.0478 Y5.2425
G01 X2.0391 Y5.2391
G01 X2.0309 Y5.2346
G01 X1.9936 Y5.2100
G01 X1.9846 Y5.2023
G01 X1.9768 Y5.1933
G01 X1.9523 Y5.1582
G01 X1.9484 Y5.1517
G01 X1.9460 Y5.1467
G01 X1.9439 Y5.1415
G01 X1.9417 Y5.1343
G01 X1.9326 Y5.0949
G01 X1.9315 Y5.0892
G01 X1.9307 Y5.0816
G01 X1.9310 Y5.0700
G01 X1.9387 Y5.0239
G01 X1.9416 Y5.0131
G01 X1.9460 Y5.0028
G01 X1.9723 Y4.9602
G01 X1.9782 Y4.9530
G01 X2.0233 Y4.9041
G01 X2.1008 Y4.7966
G01 X2.1069 Y4.7892
G01 X2.1413 Y4.7569
G01 X2.1457 Y4.7533
G01 X2.1520 Y4.7490
G01 X2.1570 Y4.7462
G01 X2.1639 Y4.7430
G01 X2.2022 Y4.7286
G01 X2.2094 Y4.7263
G01 X2.2185 Y4.7244
G01 X2.2279 Y4.7236
G01 X2.2727 Y4.7247
G01 X2.2842 Y4.7262
G01 X2.2899 Y4.7275
G01 X2.2972 Y4.7300
G01 X2.3385 Y4.7485
G01 X2.3450 Y4.7521
G01 X2.3497 Y4.7551
G01 X2.3541 Y4.7585
G01 X2.3597 Y4.7634
G01 X2.3879 Y4.7927
G01 X2.3927 Y4.7982
G01 X2.3970 Y4.8041
G01 X2.4227 Y4.8434
G01 X2.5207 Y4.9639
G01 X2.5262 Y4.9725
G01 X2.5471 Y5.0114
G01 X2.5506 Y5.0206
G01 X2.5528 Y5.0301
G01 X2.5580 Y5.0716
G01 X2.5586 Y5.0813
G01 X2.5581 Y5.0891
G01 X2.5569 Y5.0969
G01 X2.5459 Y5.1396
G01 X2.5418 Y5.1507
G01 X2.5361 Y5.1610
G01 X2.5103 Y5.1962
G01 X2.5025 Y5.2049
G01 X2.4967 Y5.2100
G01 X2.4920 Y5.2134
G01 X2.4567 Y5.2358
G01 X2.4461 Y5.2411
G01 X2.4368 Y5.2442
G01 X2.3917 Y5.2530
G01 X2.3808 Y5.2540
G01 X2.1102 Y5.2540
G01 X2.1102 Y5.3164
G01 X2.0991 Y5.3160
G01 X2.0869 Y5.3144
G01 X2.0373 Y5.3044
G01 X2.0276 Y5.3015
G01 X2.0165 Y5.2973
G01 X2.0073 Y5.2929
G01 X1.9986 Y5.2880
G01 X1.9574 Y5.2608
G01 X1.9478 Y5.2532
G01 X1.9400 Y5.2459
G01 X1.9327 Y5.2381
G01 X1.9261 Y5.2297
G01 X1.9017 Y5.1949
G01 X1.8954 Y5.1847
G01 X1.8886 Y5.1713
G01 X1.8833 Y5.1569
G01 X1.8806 Y5.1472
G01 X1.8716 Y5.1081
G01 X1.8697 Y5.0979
G01 X1.8685 Y5.0856
G01 X1.8683 Y5.0737
G01 X1.8689 Y5.0633
G01 X1.8702 Y5.0538
G01 X1.8776 Y5.0112
G01 X1.8804 Y4.9996
G01 X1.8841 Y4.9886
G01 X1.8881 Y4.9794
G01 X1.8936 Y4.9688
G01 X1.9164 Y4.9316
G01 X1.9221 Y4.9232
G01 X1.9318 Y4.9112
G01 X1.9749 Y4.8645
G01 X2.0502 Y4.7601
G01 X2.0571 Y4.7513
G01 X2.0685 Y4.7394
G01 X2.0994 Y4.7107
G01 X2.1085 Y4.7032
G01 X2.1215 Y4.6945
G01 X2.1288 Y4.6905
G01 X2.1367 Y4.6867
G01 X2.1810 Y4.6699
G01 X2.1957 Y4.6654
G01 X2.2090 Y4.6627
G01 X2.2239 Y4.6613
G01 X2.2325 Y4.6612
G01 X2.2724 Y4.6623
G01 X2.2855 Y4.6632
G01 X2.2974 Y4.6652
G01 X2.3108 Y4.6687
G01 X2.3225 Y4.6729
G01 X2.3631 Y4.6912
G01 X2.3721 Y4.6957
G01 X2.3850 Y4.7037
G01 X2.3981 Y4.7140
G01 X2.4054 Y4.7209
G01 X2.4328 Y4.7494
G01 X2.4410 Y4.7587
G01 X2.4477 Y4.7678
G01 X2.4731 Y4.8065
G01 X2.5694 Y4.9248
G01 X2.5748 Y4.9325
G01 X2.5796 Y4.9402
G01 X2.6013 Y4.9800
G01 X2.6077 Y4.9948
G01 X2.6123 Y5.0098
G01 X2.6153 Y5.0257
G01 X2.6200 Y5.0648
G01 X2.6208 Y5.0754
G01 X2.6209 Y5.0859
G01 X2.6203 Y5.0949
G01 X2.6188 Y5.1053
G01 X2.6166 Y5.1156
G01 X2.6051 Y5.1595
G01 X2.6016 Y5.1695
G01 X2.5973 Y5.1792
G01 X2.5923 Y5.1886
G01 X2.5866 Y5.1976
G01 X2.5580 Y5.2365
G01 X2.5548 Y5.2404
G01 X2.5535 Y5.2418
G01 X2.5525 Y5.2430
G01 X2.5512 Y5.2444
G01 X2.5437 Y5.2518
G01 X2.5358 Y5.2586
G01 X2.5290 Y5.2637
G01 X2.4881 Y5.2897
G01 X2.4788 Y5.2948
G01 X2.4691 Y5.2991
G01 X2.4572 Y5.3033
G01 X2.4453 Y5.3063
G01 X2.4025 Y5.3144
G01 X2.3862 Y5.3162
G01 X2.1102 Y5.3164
G01 X2.7176 Y5.2154
G01 X2.7641 Y5.2154
G01 X2.7414 Y5.2016
G01 X2.7259 Y5.1909
G01 X2.7222 Y5.2030
G01 X2.7176 Y5.2154
G01 X3.0260 Y5.2781
G01 X3.0035 Y5.2700
G01 X2.9915 Y5.2650
G01 X2.8905 Y5.2173
G01 X2.8769 Y5.2102
G01 X2.7729 Y5.1477
G01 X2.7641 Y5.1415
G01 X2.6834 Y5.0816
G01 X2.6830 Y5.0928
G01 X2.6822 Y5.1029
G01 X2.6808 Y5.1130
G01 X2.6788 Y5.1237
G01 X2.6660 Y5.1733
G01 X2.6625 Y5.1846
G01 X2.6589 Y5.1942
G01 X2.6510 Y5.2113
G01 X2.6461 Y5.2202
G01 X2.6435 Y5.2246
G01 X2.6422 Y5.2266
G01 X2.6412 Y5.2283
G01 X2.6352 Y5.2370
G01 X2.6121 Y5.2685
G01 X2.6046 Y5.2781
G01 X3.0260 Y5.2781
G01 X2.3120 Y4.6045
G01 X2.2950 Y4.5685
G01 X2.2900 Y4.5565
G01 X2.2521 Y4.4506
G01 X2.2489 Y4.4407
G01 X2.2460 Y4.4298
G01 X2.2431 Y4.4407
G01 X2.2399 Y4.4506
G01 X2.2020 Y4.5565
G01 X2.1970 Y4.5685
G01 X2.1797 Y4.6050
G01 X2.1920 Y4.6023
G01 X2.2042 Y4.6004
G01 X2.2161 Y4.5993
G01 X2.2285 Y4.5988
G01 X2.2825 Y4.6003
G01 X2.2975 Y4.6019
G01 X2.3120 Y4.6045
G01 X2.2460 Y3.6982
G01 X2.2489 Y3.6873
G01 X2.2521 Y3.6774
G01 X2.2900 Y3.5715
G01 X2.2950 Y3.5595
G01 X2.3123 Y3.5229
G01 X2.2974 Y3.5256
G01 X2.2832 Y3.5271
G01 X2.2766 Y3.5275
G01 X2.2375 Y3.5290
G01 X2.2290 Y3.5292
G01 X2.2166 Y3.5288
G01 X2.2038 Y3.5275
G01 X2.1916 Y3.5256
G01 X2.1797 Y3.5229
G01 X2.1970 Y3.5595
G01 X2.2020 Y3.5715
G01 X2.2399 Y3.6774
G01 X2.2431 Y3.6873
G01 X2.2460 Y3.6982
G01 X2.2351 Y3.4667
G01 X2.2219 Y3.4666
G01 X2.2080 Y3.4651
G01 X2.1943 Y3.4623
G01 X2.1829 Y3.4588
G01 X2.1412 Y3.4432
G01 X2.1305 Y3.4384
G01 X2.1228 Y3.4342
G01 X2.1156 Y3.4298
G01 X2.1073 Y3.4238
G01 X2.1005 Y3.4183
G01 X2.0665 Y3.3867
G01 X2.0571 Y3.3766
G01 X2.0502 Y3.3679
G01 X1.9749 Y3.2635
G01 X1.8772 Y3.1576
G01 X1.7678 Y3.0628
G01 X1.6490 Y2.9815
G01 X1.5890 Y2.9499
G01 X1.5774 Y2.9430
G01 X1.5677 Y2.9359
G01 X1.5387 Y2.9126
G01 X1.5280 Y2.9031
G01 X1.5198 Y2.8943
G01 X1.5116 Y2.8836
G01 X1.4850 Y2.8411
G01 X1.4803 Y2.8320
G01 X1.4758 Y2.8212
G01 X1.4720 Y2.8096
G01 X1.4696 Y2.7997
G01 X1.4622 Y2.7554
G01 X1.4611 Y2.7454
G01 X1.4608 Y2.7361
G01 X1.4608 Y-2.4821
G01 X1.4612 Y-2.4929
G01 X1.4627 Y-2.5048
G01 X1.4693 Y-2.5442
G01 X1.4711 Y-2.5523
G01 X1.4735 Y-2.5607
G01 X1.4783 Y-2.5735
G01 X1.4843 Y-2.5858
G01 X1.5088 Y-2.6256
G01 X1.5147 Y-2.6339
G01 X1.5211 Y-2.6417
G01 X1.5280 Y-2.6491
G01 X1.5355 Y-2.6560
G01 X1.5677 Y-2.6819
G01 X1.5774 Y-2.6890
G01 X1.5890 Y-2.6959
G01 X1.6490 Y-2.7275
G01 X1.7678 Y-2.8088
G01 X1.8772 Y-2.9036
G01 X1.9749 Y-3.0095
G01 X2.0502 Y-3.1139
G01 X2.0571 Y-3.1226
G01 X2.0665 Y-3.1327
G01 X2.0994 Y-3.1633
G01 X2.1085 Y-3.1708
G01 X2.1169 Y-3.1766
G01 X2.1258 Y-3.1819
G01 X2.1349 Y-3.1865
G01 X2.1437 Y-3.1901
G01 X2.1842 Y-3.2052
G01 X2.1939 Y-3.2082
G01 X2.2038 Y-3.2104
G01 X2.2190 Y-3.2124
G01 X2.2333 Y-3.2127
G01 X2.2786 Y-3.2114
G01 X2.2890 Y-3.2103
G01 X2.2992 Y-3.2084
G01 X2.3094 Y-3.2057
G01 X2.3207 Y-3.2018
G01 X2.3625 Y-3.1831
G01 X2.3750 Y-3.1767
G01 X2.3877 Y-3.1684
G01 X2.3956 Y-3.1622
G01 X2.4041 Y-3.1544
G01 X2.4333 Y-3.1241
G01 X2.4399 Y-3.1167
G01 X2.4477 Y-3.1062
G01 X2.4732 Y-3.0674
G01 X2.5645 Y-2.9550
G01 X2.6681 Y-2.8546
G01 X2.7825 Y-2.7663
G01 X2.9058 Y-2.6918
G01 X3.0375 Y-2.6319
G01 X3.1747 Y-2.5871
G01 X3.3158 Y-2.5588
G01 X3.4599 Y-2.5465
G01 X3.6044 Y-2.5506
G01 X3.7470 Y-2.5711
G01 X3.8866 Y-2.6078
G01 X4.0213 Y-2.6598
G01 X4.1488 Y-2.7274
G01 X4.2681 Y-2.8088
G01 X4.3770 Y-2.9035
G01 X4.4749 Y-3.0096
G01 X4.5508 Y-3.1142
G01 X4.5585 Y-3.1238
G01 X4.5674 Y-3.1332
G01 X4.5984 Y-3.1625
G01 X4.6065 Y-3.1694
G01 X4.6135 Y-3.1745
G01 X4.6273 Y-3.1828
G01 X4.6351 Y-3.1866
G01 X4.6434 Y-3.1901
G01 X4.6869 Y-3.2060
G01 X4.6979 Y-3.2091
G01 X4.7111 Y-3.2115
G01 X4.7210 Y-3.2125
G01 X4.7310 Y-3.2128
G01 X4.7806 Y-3.2113
G01 X4.7911 Y-3.2100
G01 X4.8015 Y-3.2080
G01 X4.8102 Y-3.2056
G01 X4.8202 Y-3.2021
G01 X4.8637 Y-3.1825
G01 X4.8745 Y-3.1769
G01 X4.8832 Y-3.1715
G01 X4.8900 Y-3.1666
G01 X4.8980 Y-3.1600
G01 X4.9048 Y-3.1535
G01 X4.9328 Y-3.1250
G01 X4.9413 Y-3.1154
G01 X4.9487 Y-3.1054
G01 X4.9733 Y-3.0671
G01 X5.0648 Y-2.9550
G01 X5.1759 Y-2.8469
G01 X5.2194 Y-2.7998
G01 X5.2270 Y-2.7903
G01 X5.2336 Y-2.7804
G01 X5.2395 Y-2.7697
G01 X5.2442 Y-2.7588
G01 X5.2493 Y-2.7432
G01 X5.2607 Y-2.6998
G01 X5.2632 Y-2.6881
G01 X5.2643 Y-2.6800
G01 X5.2649 Y-2.6714
G01 X5.2651 Y-2.6632
G01 X5.2646 Y-2.6531
G01 X5.2631 Y-2.6413
G01 X5.2552 Y-2.5966
G01 X5.2521 Y-2.5833
G01 X5.2483 Y-2.5718
G01 X5.2436 Y-2.5609
G01 X5.2371 Y-2.5489
G01 X5.2319 Y-2.5409
G01 X5.2060 Y-2.5043
G01 X5.1964 Y-2.4922
G01 X5.1869 Y-2.4826
G01 X5.1335 Y-2.4338
G01 X5.0434 Y-2.3296
G01 X4.9664 Y-2.2151
G01 X4.9034 Y-2.0921
G01 X4.8554 Y-1.9631
G01 X4.8232 Y-1.8289
G01 X4.8069 Y-1.6919
G01 X4.8069 Y-1.5542
G01 X4.8232 Y-1.4172
G01 X4.8554 Y-1.2831
G01 X4.9034 Y-1.1540
G01 X4.9665 Y-1.0310
G01 X5.0434 Y-0.9165
G01 X5.1336 Y-0.8123
G01 X5.2356 Y-0.7189
G01 X5.3330 Y-0.6492
G01 X5.3398 Y-0.6439
G01 X5.3460 Y-0.6385
G01 X5.3549 Y-0.6295
G01 X5.3838 Y-0.5975
G01 X5.3904 Y-0.5895
G01 X5.3956 Y-0.5824
G01 X5.4010 Y-0.5736
G01 X5.4058 Y-0.5645
G01 X5.4099 Y-0.5550
G01 X5.4279 Y-0.5004
G01 X5.4308 Y-0.4871
G01 X5.4324 Y-0.4735
G01 X5.4327 Y-0.4648
G01 X5.4324 Y-0.4545
G01 X5.4280 Y-0.4074
G01 X5.4260 Y-0.3941
G01 X5.4227 Y-0.3810
G01 X5.4174 Y-0.3666
G01 X5.4116 Y-0.3545
G01 X5.3868 Y-0.3120
G01 X5.3821 Y-0.3047
G01 X5.3767 Y-0.2975
G01 X5.3674 Y-0.2870
G01 X5.3570 Y-0.2774
G01 X5.3147 Y-0.2456
G01 X5.3050 Y-0.2392
G01 X5.2944 Y-0.2335
G01 X5.2837 Y-0.2288
G01 X5.2723 Y-0.2249
G01 X5.2625 Y-0.2224
G01 X5.2178 Y-0.2131
G01 X5.2071 Y-0.2115
G01 X5.1982 Y-0.2108
G01 X4.4794 Y-0.2107
G01 X4.4692 Y-0.2114
G01 X4.4605 Y-0.2125
G01 X4.4178 Y-0.2209
G01 X4.4049 Y-0.2241
G01 X4.3935 Y-0.2280
G01 X4.3807 Y-0.2338
G01 X4.3699 Y-0.2400
G01 X4.3311 Y-0.2662
G01 X4.3206 Y-0.2744
G01 X4.3127 Y-0.2817
G01 X4.1522 Y-0.4422
G01 X4.1430 Y-0.4523
G01 X4.1172 Y-0.4873
G01 X4.1124 Y-0.4946
G01 X4.1072 Y-0.5039
G01 X4.1027 Y-0.5136
G01 X4.0994 Y-0.5221
G01 X4.0882 Y-0.5579
G01 X4.0843 Y-0.5741
G01 X4.0823 Y-0.5907
G01 X4.0821 Y-0.6025
G01 X4.0835 Y-0.6426
G01 X4.0853 Y-0.6568
G01 X4.1042 Y-0.7584
G01 X4.1123 Y-0.8890
G01 X4.1042 Y-1.0195
G01 X4.0800 Y-1.1489
G01 X4.0405 Y-1.2736
G01 X3.9858 Y-1.3923
G01 X3.9167 Y-1.5037
G01 X3.8346 Y-1.6060
G01 X3.7404 Y-1.6970
G01 X3.6358 Y-1.7760
G01 X3.5222 Y-1.8416
G01 X3.4015 Y-1.8927
G01 X3.2754 Y-1.9286
G01 X3.1462 Y-1.9488
G01 X3.0152 Y-1.9529
G01 X2.8848 Y-1.9408
G01 X2.7569 Y-1.9125
G01 X2.6334 Y-1.8689
G01 X2.5158 Y-1.8106
G01 X2.4068 Y-1.7384
G01 X2.3072 Y-1.6531
G01 X2.2187 Y-1.5561
G01 X2.1430 Y-1.4494
G01 X2.0811 Y-1.3338
G01 X2.0340 Y-1.2117
G01 X2.0021 Y-1.0847
G01 X1.9860 Y-0.9545
G01 X1.9860 Y-0.8235
G01 X2.0021 Y-0.6933
G01 X2.0340 Y-0.5663
G01 X2.0811 Y-0.4442
G01 X2.1430 Y-0.3285
G01 X2.2187 Y-0.2219
G01 X2.3072 Y-0.1249
G01 X2.4066 Y-0.0398
G01 X2.4502 Y-0.0112
G01 X2.4616 Y-0.0025
G01 X2.4701 Y0.0054
G01 X2.4981 Y0.0334
G01 X2.5042 Y0.0400
G01 X2.5138 Y0.0523
G01 X2.5221 Y0.0659
G01 X2.5267 Y0.0754
G01 X2.5433 Y0.1136
G01 X2.5474 Y0.1249
G01 X2.5501 Y0.1349
G01 X2.5524 Y0.1470
G01 X2.5537 Y0.1589
G01 X2.5553 Y0.2002
G01 X2.5554 Y0.2097
G01 X2.5541 Y0.2249
G01 X2.5516 Y0.2384
G01 X2.5478 Y0.2515
G01 X2.5314 Y0.2960
G01 X2.5278 Y0.3038
G01 X2.5235 Y0.3118
G01 X2.5149 Y0.3250
G01 X2.5070 Y0.3348
G01 X2.4805 Y0.3644
G01 X2.4704 Y0.3746
G01 X2.4605 Y0.3828
G01 X2.3556 Y0.4620
G01 X2.2614 Y0.5530
G01 X2.1793 Y0.6553
G01 X2.1102 Y0.7667
G01 X2.0555 Y0.8854
G01 X2.0160 Y1.0101
G01 X1.9918 Y1.1395
G01 X1.9837 Y1.2700
G01 X1.9918 Y1.4005
G01 X2.0160 Y1.5299
G01 X2.0555 Y1.6546
G01 X2.1102 Y1.7733
G01 X2.1793 Y1.8847
G01 X2.2614 Y1.9870
G01 X2.3558 Y2.0782
G01 X2.5062 Y2.1927
G01 X2.5177 Y2.2028
G01 X2.5282 Y2.2144
G01 X2.5344 Y2.2227
G01 X2.5404 Y2.2320
G01 X2.5603 Y2.2663
G01 X2.5671 Y2.2809
G01 X2.5712 Y2.2924
G01 X2.5739 Y2.3026
G01 X2.5822 Y2.3495
G01 X2.5830 Y2.3580
G01 X2.5834 Y2.3678
G01 X2.5834 Y3.1006
G01 X2.5829 Y3.1113
G01 X2.5816 Y3.1218
G01 X2.5749 Y3.1594
G01 X2.5726 Y3.1697
G01 X2.5684 Y3.1831
G01 X2.5628 Y3.1960
G01 X2.5419 Y3.2342
G01 X2.5350 Y3.2451
G01 X2.5286 Y3.2534
G01 X2.4732 Y3.3209
G01 X2.4481 Y3.3597
G01 X2.4412 Y3.3690
G01 X2.4333 Y3.3780
G01 X2.4059 Y3.4065
G01 X2.3965 Y3.4155
G01 X2.3872 Y3.4228
G01 X2.3769 Y3.4295
G01 X2.3648 Y3.4360
G01 X2.3249 Y3.4535
G01 X2.3159 Y3.4571
G01 X2.3010 Y3.4615
G01 X2.2854 Y3.4643
G01 X2.2749 Y3.4651
G01 X2.2351 Y3.4667
G01 X2.2326 Y3.4043
G01 X2.2210 Y3.4039
G01 X2.2134 Y3.4027
G01 X2.2077 Y3.4012
G01 X2.1656 Y3.3857
G01 X2.1587 Y3.3827
G01 X2.1504 Y3.3780
G01 X2.1428 Y3.3723
G01 X2.1110 Y3.3429
G01 X2.1056 Y3.3374
G01 X2.1008 Y3.3314
G01 X2.0233 Y3.2239
G01 X1.9207 Y3.1127
G01 X1.8060 Y3.0133
G01 X1.6813 Y2.9280
G01 X1.6187 Y2.8950
G01 X1.6123 Y2.8912
G01 X1.6062 Y2.8868
G01 X1.5735 Y2.8603
G01 X1.5670 Y2.8535
G01 X1.5614 Y2.8460
G01 X1.5401 Y2.8118
G01 X1.5358 Y2.8033
G01 X1.5331 Y2.7962
G01 X1.5311 Y2.7889
G01 X1.5238 Y2.7454
G01 X1.5232 Y2.7361
G01 X1.5232 Y-2.4821
G01 X1.5240 Y-2.4932
G01 X1.5304 Y-2.5312
G01 X1.5320 Y-2.5386
G01 X1.5344 Y-2.5458
G01 X1.5366 Y-2.5510
G01 X1.5401 Y-2.5578
G01 X1.5625 Y-2.5935
G01 X1.5695 Y-2.6023
G01 X1.5778 Y-2.6099
G01 X1.6062 Y-2.6328
G01 X1.6123 Y-2.6372
G01 X1.6187 Y-2.6410
G01 X1.6813 Y-2.6740
G01 X1.8060 Y-2.7593
G01 X1.9207 Y-2.8587
G01 X2.0233 Y-2.9699
G01 X2.1031 Y-3.0804
G01 X2.1096 Y-3.0875
G01 X2.1413 Y-3.1171
G01 X2.1473 Y-3.1218
G01 X2.1520 Y-3.1250
G01 X2.1587 Y-3.1287
G01 X2.1639 Y-3.1310
G01 X2.2058 Y-3.1466
G01 X2.2148 Y-3.1490
G01 X2.2260 Y-3.1503
G01 X2.2727 Y-3.1493
G01 X2.2804 Y-3.1485
G01 X2.2899 Y-3.1464
G01 X2.2990 Y-3.1432
G01 X2.3385 Y-3.1254
G01 X2.3466 Y-3.1209
G01 X2.3541 Y-3.1155
G01 X2.3610 Y-3.1092
G01 X2.3879 Y-3.0813
G01 X2.3927 Y-3.0758
G01 X2.3970 Y-3.0699
G01 X2.4227 Y-3.0306
G01 X2.5184 Y-2.9128
G01 X2.6272 Y-2.8073
G01 X2.7472 Y-2.7147
G01 X2.8766 Y-2.6366
G01 X3.0149 Y-2.5737
G01 X3.1588 Y-2.5267
G01 X3.3069 Y-2.4969
G01 X3.4581 Y-2.4840
G01 X3.6097 Y-2.4883
G01 X3.7594 Y-2.5099
G01 X3.9059 Y-2.5483
G01 X4.0473 Y-2.6030
G01 X4.1811 Y-2.6739
G01 X4.3063 Y-2.7593
G01 X4.4205 Y-2.8587
G01 X4.5232 Y-2.9700
G01 X4.6035 Y-3.0804
G01 X4.6095 Y-3.0871
G01 X4.6393 Y-3.1153
G01 X4.6453 Y-3.1204
G01 X4.6501 Y-3.1238
G01 X4.6569 Y-3.1278
G01 X4.6622 Y-3.1304
G01 X4.7064 Y-3.1467
G01 X4.7154 Y-3.1490
G01 X4.7228 Y-3.1500
G01 X4.7320 Y-3.1504
G01 X4.7731 Y-3.1493
G01 X4.7809 Y-3.1485
G01 X4.7905 Y-3.1464
G01 X4.7997 Y-3.1431
G01 X4.8405 Y-3.1244
G01 X4.8502 Y-3.1184
G01 X4.8590 Y-3.1111
G01 X4.8877 Y-3.0818
G01 X4.8930 Y-3.0758
G01 X4.8977 Y-3.0693
G01 X4.9227 Y-3.0304
G01 X5.0187 Y-2.9128
G01 X5.1318 Y-2.8027
G01 X5.1745 Y-2.7563
G01 X5.1779 Y-2.7516
G01 X5.1819 Y-2.7451
G01 X5.1845 Y-2.7400
G01 X5.1873 Y-2.7329
G01 X5.2002 Y-2.6847
G01 X5.2022 Y-2.6737
G01 X5.2027 Y-2.6644
G01 X5.2021 Y-2.6551
G01 X5.1935 Y-2.6064
G01 X5.1922 Y-2.6008
G01 X5.1898 Y-2.5936
G01 X5.1867 Y-2.5866
G01 X5.1830 Y-2.5800
G01 X5.1555 Y-2.5408
G01 X5.1496 Y-2.5335
G01 X5.1443 Y-2.5281
G01 X5.0887 Y-2.4774
G01 X4.9938 Y-2.3676
G01 X4.9126 Y-2.2468
G01 X4.8462 Y-2.1173
G01 X4.7956 Y-1.9813
G01 X4.7617 Y-1.8399
G01 X4.7445 Y-1.6956
G01 X4.7445 Y-1.5505
G01 X4.7617 Y-1.4062
G01 X4.7956 Y-1.2648
G01 X4.8462 Y-1.1288
G01 X4.9126 Y-0.9993
G01 X4.9938 Y-0.8785
G01 X5.0888 Y-0.7687
G01 X5.1963 Y-0.6703
G01 X5.2961 Y-0.5989
G01 X5.3033 Y-0.5930
G01 X5.3086 Y-0.5877
G01 X5.3395 Y-0.5533
G01 X5.3461 Y-0.5439
G01 X5.3512 Y-0.5337
G01 X5.3670 Y-0.4864
G01 X5.3692 Y-0.4771
G01 X5.3701 Y-0.4696
G01 X5.3701 Y-0.4582
G01 X5.3657 Y-0.4123
G01 X5.3640 Y-0.4031
G01 X5.3619 Y-0.3959
G01 X5.3599 Y-0.3907
G01 X5.3566 Y-0.3840
G01 X5.3343 Y-0.3458
G01 X5.3300 Y-0.3392
G01 X5.3251 Y-0.3331
G01 X5.3210 Y-0.3289
G01 X5.3151 Y-0.3237
G01 X5.2795 Y-0.2971
G01 X5.2717 Y-0.2920
G01 X5.2633 Y-0.2878
G01 X5.2562 Y-0.2852
G01 X5.2489 Y-0.2833
G01 X5.2058 Y-0.2743
G01 X5.1938 Y-0.2730
G01 X4.4798 Y-0.2731
G01 X4.4704 Y-0.2742
G01 X4.4299 Y-0.2821
G01 X4.4223 Y-0.2840
G01 X4.4150 Y-0.2866
G01 X4.4079 Y-0.2900
G01 X4.4013 Y-0.2941
G01 X4.3667 Y-0.3175
G01 X4.3595 Y-0.3233
G01 X4.1963 Y-0.4864
G01 X4.1909 Y-0.4923
G01 X4.1680 Y-0.5235
G01 X4.1629 Y-0.5320
G01 X4.1583 Y-0.5429
G01 X4.1475 Y-0.5775
G01 X4.1455 Y-0.5866
G01 X4.1445 Y-0.5976
G01 X4.1458 Y-0.6383
G01 X4.1468 Y-0.6462
G01 X4.1663 Y-0.7507
G01 X4.1748 Y-0.8890
G01 X4.1663 Y-1.0272
G01 X4.1406 Y-1.1641
G01 X4.0988 Y-1.2962
G01 X4.0409 Y-1.4219
G01 X3.9677 Y-1.5398
G01 X3.8808 Y-1.6481
G01 X3.7810 Y-1.7445
G01 X3.6703 Y-1.8282
G01 X3.5501 Y-1.8975
G01 X3.4223 Y-1.9517
G01 X3.2888 Y-1.9897
G01 X3.1520 Y-2.0111
G01 X3.0133 Y-2.0153
G01 X2.8751 Y-2.0025
G01 X2.7398 Y-1.9726
G01 X2.6090 Y-1.9265
G01 X2.4845 Y-1.8647
G01 X2.3691 Y-1.7883
G01 X2.2637 Y-1.6980
G01 X2.1700 Y-1.5953
G01 X2.0898 Y-1.4824
G01 X2.0243 Y-1.3599
G01 X1.9744 Y-1.2306
G01 X1.9407 Y-1.0961
G01 X1.9236 Y-0.9583
G01 X1.9236 Y-0.8197
G01 X1.9407 Y-0.6819
G01 X1.9744 Y-0.5474
G01 X2.0243 Y-0.4181
G01 X2.0898 Y-0.2956
G01 X2.1700 Y-0.1826
G01 X2.2637 Y-0.0800
G01 X2.3690 Y0.0101
G01 X2.4136 Y0.0394
G01 X2.4201 Y0.0441
G01 X2.4260 Y0.0495
G01 X2.4561 Y0.0798
G01 X2.4633 Y0.0890
G01 X2.4681 Y0.0974
G01 X2.4858 Y0.1378
G01 X2.4878 Y0.1432
G01 X2.4897 Y0.1507
G01 X2.4908 Y0.1564
G01 X2.4914 Y0.1640
G01 X2.4930 Y0.2065
G01 X2.4926 Y0.2141
G01 X2.4910 Y0.2234
G01 X2.4883 Y0.2326
G01 X2.4736 Y0.2723
G01 X2.4692 Y0.2811
G01 X2.4637 Y0.2893
G01 X2.4340 Y0.3228
G01 X2.4273 Y0.3294
G01 X2.3149 Y0.4145
G01 X2.2152 Y0.5109
G01 X2.1283 Y0.6192
G01 X2.0551 Y0.7370
G01 X1.9972 Y0.8628
G01 X1.9554 Y0.9949
G01 X1.9297 Y1.1318
G01 X1.9212 Y1.2700
G01 X1.9297 Y1.4082
G01 X1.9554 Y1.5451
G01 X1.9972 Y1.6772
G01 X2.0551 Y1.8029
G01 X2.1283 Y1.9208
G01 X2.2152 Y2.0291
G01 X2.3150 Y2.1256
G01 X2.4663 Y2.2407
G01 X2.4736 Y2.2469
G01 X2.4788 Y2.2525
G01 X2.4823 Y2.2570
G01 X2.4865 Y2.2635
G01 X2.5052 Y2.2957
G01 X2.5094 Y2.3045
G01 X2.5119 Y2.3120
G01 X2.5133 Y2.3177
G01 X2.5204 Y2.3581
G01 X2.5210 Y2.3678
G01 X2.5210 Y3.0998
G01 X2.5201 Y3.1116
G01 X2.5136 Y3.1476
G01 X2.5119 Y3.1552
G01 X2.5094 Y3.1626
G01 X2.5061 Y3.1697
G01 X2.4876 Y3.2035
G01 X2.4826 Y3.2110
G01 X2.4227 Y3.2841
G01 X2.3972 Y3.3236
G01 X2.3928 Y3.3296
G01 X2.3879 Y3.3353
G01 X2.3568 Y3.3672
G01 X2.3493 Y3.3731
G01 X2.3395 Y3.3790
G01 X2.2999 Y3.3963
G01 X2.2908 Y3.3997
G01 X2.2833 Y3.4015
G01 X2.2756 Y3.4026
G01 X2.2326 Y3.4043
G00 Z1.0000
G00 X2.6074 Y3.1993
G01 F25.00
G01 Z-0.0600
G01 F120.00
G01 X2.6074 Y2.2113
G01 X2.5637 Y2.1906
G01 X2.5552 Y2.1863
G01 X2.4758 Y2.1387
G01 X2.4678 Y2.1335
G01 X2.3886 Y2.0747
G01 X2.3154 Y2.0086
G01 X2.3076 Y2.0007
G01 X2.2483 Y1.9352
G01 X2.2395 Y1.9246
G01 X2.1825 Y1.8474
G01 X2.1338 Y1.7664
G01 X2.1292 Y1.7581
G01 X2.0865 Y1.6674
G01 X2.0526 Y1.5727
G01 X2.0277 Y1.4737
G01 X2.0135 Y1.3788
G01 X2.0121 Y1.3651
G01 X2.0077 Y1.2761
G01 X2.0078 Y1.2631
G01 X2.0127 Y1.1673
G01 X2.0264 Y1.0738
G01 X2.0281 Y1.0644
G01 X2.0526 Y0.9673
G01 X2.0871 Y0.8712
G01 X2.1308 Y0.7789
G01 X2.1834 Y0.6914
G01 X2.2442 Y0.6094
G01 X2.3129 Y0.5338
G01 X2.3886 Y0.4653
G01 X2.4706 Y0.4045
G01 X2.5582 Y0.3521
G01 X2.6506 Y0.3085
G01 X2.7467 Y0.2742
G01 X2.8458 Y0.2494
G01 X2.9468 Y0.2345
G01 X3.0488 Y0.2296
G01 X3.1507 Y0.2347
G01 X3.2442 Y0.2484
G01 X3.2536 Y0.2501
G01 X3.3493 Y0.2742
G01 X3.4397 Y0.3063
G01 X3.4524 Y0.3116
G01 X3.5391 Y0.3528
G01 X3.6202 Y0.4013
G01 X3.6316 Y0.4089
G01 X3.7086 Y0.4662
G01 X3.7831 Y0.5338
G01 X3.8477 Y0.6048
G01 X3.8565 Y0.6154
G01 X3.9135 Y0.6926
G01 X3.9652 Y0.7789
G01 X4.0064 Y0.8656
G01 X4.0117 Y0.8783
G01 X4.0438 Y0.9687
G01 X4.0671 Y1.0610
G01 X4.0696 Y1.0738
G01 X4.0833 Y1.1673
G01 X4.0882 Y1.2631
G01 X4.0882 Y1.2769
G01 X4.0839 Y1.3659
G01 X4.0825 Y1.3788
G01 X4.0683 Y1.4737
G01 X4.0434 Y1.5727
G01 X4.0095 Y1.6674
G01 X3.9675 Y1.7567
G01 X3.9622 Y1.7664
G01 X3.9135 Y1.8474
G01 X3.8565 Y1.9246
G01 X3.8477 Y1.9352
G01 X3.7884 Y2.0007
G01 X3.7806 Y2.0086
G01 X3.7074 Y2.0747
G01 X3.6282 Y2.1335
G01 X3.6202 Y2.1387
G01 X3.5408 Y2.1863
G01 X3.5323 Y2.1906
G01 X3.4886 Y2.2113
G01 X3.4886 Y2.8238
G01 X3.5029 Y2.8238
G01 X3.6108 Y2.8291
G01 X3.6245 Y2.8304
G01 X3.7388 Y2.8476
G01 X3.8554 Y2.8768
G01 X3.9643 Y2.9155
G01 X3.9770 Y2.9208
G01 X4.0814 Y2.9704
G01 X4.1845 Y3.0322
G01 X4.2775 Y3.1009
G01 X4.2882 Y3.1097
G01 X4.3737 Y3.1874
G01 X4.4544 Y3.2765
G01 X4.5234 Y3.3692
G01 X4.5311 Y3.3807
G01 X4.5903 Y3.4800
G01 X4.6417 Y3.5886
G01 X4.6809 Y3.6974
G01 X4.6849 Y3.7106
G01 X4.7128 Y3.8228
G01 X4.7304 Y3.9417
G01 X4.7363 Y4.0571
G01 X4.7363 Y4.0709
G01 X4.7304 Y4.1863
G01 X4.7128 Y4.3052
G01 X4.6849 Y4.4174
G01 X4.6809 Y4.4306
G01 X4.6417 Y4.5394
G01 X4.5896 Y4.6494
G01 X4.5278 Y4.7525
G01 X4.4591 Y4.8455
G01 X4.4504 Y4.8561
G01 X4.3726 Y4.9416
G01 X4.2882 Y5.0183
G01 X4.2775 Y5.0271
G01 X4.1858 Y5.0949
G01 X4.0868 Y5.1545
G01 X4.0746 Y5.1610
G01 X3.9700 Y5.2103
G01 X3.8627 Y5.2488
G01 X3.8495 Y5.2528
G01 X3.7373 Y5.2807
G01 X3.6245 Y5.2976
G01 X3.6108 Y5.2989
G01 X3.4953 Y5.3044
G01 X3.3752 Y5.2985
G01 X3.2608 Y5.2817
G01 X3.2473 Y5.2791
G01 X3.1367 Y5.2512
G01 X3.0278 Y5.2125
G01 X3.0151 Y5.2072
G01 X2.9107 Y5.1576
G01 X2.8127 Y5.0990
G01 X2.8013 Y5.0914
G01 X2.7097 Y5.0233
G01 X2.6239 Y4.9458
G01 X2.6142 Y4.9361
G01 X2.5377 Y4.8515
G01 X2.4687 Y4.7588
G01 X2.4610 Y4.7473
G01 X2.4025 Y4.6494
G01 X2.3529 Y4.5450
G01 X2.3476 Y4.5323
G01 X2.3093 Y4.4248
G01 X2.2810 Y4.3127
G01 X2.2783 Y4.2992
G01 X2.2625 Y4.1924
G01 X2.2611 Y4.1787
G01 X2.2557 Y4.0632
G01 X2.2611 Y3.9493
G01 X2.2625 Y3.9356
G01 X2.2796 Y3.8213
G01 X2.3072 Y3.7106
G01 X2.3112 Y3.6974
G01 X2.3504 Y3.5886
G01 X2.4025 Y3.4786
G01 X2.4643 Y3.3755
G01 X2.5334 Y3.2819
G01 X2.5417 Y3.2719
G01 X2.6074 Y3.1993
G01 X2.6698 Y3.2248
G01 X2.6698 Y2.1718
G01 X2.5870 Y2.1325
G01 X2.5047 Y2.0832
G01 X2.4276 Y2.0260
G01 X2.3592 Y1.9642
G01 X2.3538 Y1.9588
G01 X2.2945 Y1.8933
G01 X2.2896 Y1.8874
G01 X2.2348 Y1.8133
G01 X2.1855 Y1.7310
G01 X2.1444 Y1.6443
G01 X2.1121 Y1.5539
G01 X2.0888 Y1.4608
G01 X2.0752 Y1.3697
G01 X2.0744 Y1.3620
G01 X2.0701 Y1.2738
G01 X2.0701 Y1.2662
G01 X2.0747 Y1.1741
G01 X2.0881 Y1.0830
G01 X2.0896 Y1.0755
G01 X2.1121 Y0.9861
G01 X2.1444 Y0.8957
G01 X2.1855 Y0.8090
G01 X2.2348 Y0.7267
G01 X2.2920 Y0.6496
G01 X2.3564 Y0.5784
G01 X2.4276 Y0.5140
G01 X2.5047 Y0.4568
G01 X2.5870 Y0.4075
G01 X2.6737 Y0.3664
G01 X2.7641 Y0.3341
G01 X2.8572 Y0.3108
G01 X2.9521 Y0.2967
G01 X3.0480 Y0.2920
G01 X3.1439 Y0.2967
G01 X3.2388 Y0.3108
G01 X3.3319 Y0.3341
G01 X3.4187 Y0.3651
G01 X3.4258 Y0.3680
G01 X3.5090 Y0.4075
G01 X3.5881 Y0.4548
G01 X3.5945 Y0.4590
G01 X3.6684 Y0.5140
G01 X3.7396 Y0.5784
G01 X3.8015 Y0.6467
G01 X3.8064 Y0.6526
G01 X3.8612 Y0.7267
G01 X3.9105 Y0.8090
G01 X3.9500 Y0.8922
G01 X3.9529 Y0.8993
G01 X3.9839 Y0.9861
G01 X4.0064 Y1.0755
G01 X4.0079 Y1.0830
G01 X4.0213 Y1.1741
G01 X4.0259 Y1.2662
G01 X4.0259 Y1.2738
G01 X4.0216 Y1.3620
G01 X4.0208 Y1.3697
G01 X4.0072 Y1.4608
G01 X3.9839 Y1.5539
G01 X3.9516 Y1.6443
G01 X3.9105 Y1.7310
G01 X3.8612 Y1.8133
G01 X3.8064 Y1.8874
G01 X3.8015 Y1.8933
G01 X3.7422 Y1.9588
G01 X3.7368 Y1.9642
G01 X3.6684 Y2.0260
G01 X3.5913 Y2.0832
G01 X3.5090 Y2.1325
G01 X3.4262 Y2.1718
G01 X3.4262 Y2.8893
G01 X3.4980 Y2.8860
G01 X3.6134 Y2.8919
G01 X3.7259 Y2.9086
G01 X3.8362 Y2.9362
G01 X3.9433 Y2.9743
G01 X3.9504 Y2.9772
G01 X4.0514 Y3.0251
G01 X4.1489 Y3.0835
G01 X4.2403 Y3.1510
G01 X4.2463 Y3.1559
G01 X4.3290 Y3.2310
G01 X4.4067 Y3.3167
G01 X4.4733 Y3.4064
G01 X4.4776 Y3.4128
G01 X4.5350 Y3.5087
G01 X4.5836 Y3.6114
G01 X4.6221 Y3.7184
G01 X4.6243 Y3.7257
G01 X4.6514 Y3.8342
G01 X4.6684 Y3.9485
G01 X4.6740 Y4.0602
G01 X4.6740 Y4.0678
G01 X4.6684 Y4.1795
G01 X4.6514 Y4.2938
G01 X4.6233 Y4.4060
G01 X4.5858 Y4.5112
G01 X4.5828 Y4.5183
G01 X4.5350 Y4.6193
G01 X4.4776 Y4.7152
G01 X4.4733 Y4.7216
G01 X4.4067 Y4.8113
G01 X4.3290 Y4.8970
G01 X4.2434 Y4.9746
G01 X4.1505 Y5.0435
G01 X4.0514 Y5.1029
G01 X3.9469 Y5.1523
G01 X3.8380 Y5.1913
G01 X3.7259 Y5.2194
G01 X3.6115 Y5.2363
G01 X3.4961 Y5.2420
G01 X3.3806 Y5.2363
G01 X3.2662 Y5.2194
G01 X3.1541 Y5.1913
G01 X3.0452 Y5.1523
G01 X2.9407 Y5.1029
G01 X2.8416 Y5.0435
G01 X2.7487 Y4.9746
G01 X2.6631 Y4.8970
G01 X2.5854 Y4.8113
G01 X2.5166 Y4.7185
G01 X2.4571 Y4.6193
G01 X2.4077 Y4.5148
G01 X2.3688 Y4.4060
G01 X2.3407 Y4.2938
G01 X2.3237 Y4.1795
G01 X2.3181 Y4.0640
G01 X2.3237 Y3.9485
G01 X2.3407 Y3.8342
G01 X2.3688 Y3.7220
G01 X2.4077 Y3.6132
G01 X2.4571 Y3.5087
G01 X2.5166 Y3.4095
G01 X2.5854 Y3.3167
G01 X2.6604 Y3.2338
G01 X2.6698 Y3.2248
G00 Z1.0000
G00 X4.7320 Y3.4044
G01 F25.00
G01 Z-0.0600
G01 F120.00
G01 X4.7246 Y3.4042
G01 X4.7172 Y3.4033
G01 X4.7100 Y3.4018
G01 X4.7029 Y3.3995
G01 X4.6604 Y3.3836
G01 X4.6501 Y3.3778
G01 X4.6422 Y3.3719
G01 X4.6095 Y3.3411
G01 X4.6035 Y3.3344
G01 X4.5232 Y3.2240
G01 X4.4205 Y3.1127
G01 X4.3063 Y3.0133
G01 X4.1811 Y2.9279
G01 X4.0473 Y2.8570
G01 X3.9059 Y2.8023
G01 X3.7593 Y2.7639
G01 X3.7291 Y2.7594
G01 X3.7212 Y2.7578
G01 X3.6790 Y2.7438
G01 X3.6701 Y2.7399
G01 X3.6602 Y2.7338
G01 X3.6263 Y2.7067
G01 X3.6196 Y2.7000
G01 X3.6127 Y2.6910
G01 X3.5925 Y2.6569
G01 X3.5880 Y2.6482
G01 X3.5853 Y2.6409
G01 X3.5833 Y2.6334
G01 X3.5760 Y2.5939
G01 X3.5750 Y2.5816
G01 X3.5750 Y2.3663
G01 X3.5754 Y2.3588
G01 X3.5821 Y2.3183
G01 X3.5852 Y2.3068
G01 X3.5892 Y2.2977
G01 X3.6058 Y2.2670
G01 X3.6088 Y2.2621
G01 X3.6132 Y2.2558
G01 X3.6196 Y2.2487
G01 X3.6496 Y2.2208
G01 X3.6557 Y2.2164
G01 X3.7269 Y2.1693
G01 X3.8323 Y2.0790
G01 X3.9259 Y1.9763
G01 X4.0062 Y1.8634
G01 X4.0717 Y1.7409
G01 X4.1216 Y1.6116
G01 X4.1553 Y1.4771
G01 X4.1724 Y1.3393
G01 X4.1724 Y1.2007
G01 X4.1553 Y1.0628
G01 X4.1407 Y1.0044
G01 X4.1392 Y0.9968
G01 X4.1360 Y0.9544
G01 X4.1360 Y0.9445
G01 X4.1371 Y0.9348
G01 X4.1390 Y0.9271
G01 X4.1507 Y0.8902
G01 X4.1542 Y0.8811
G01 X4.1578 Y0.8743
G01 X4.1621 Y0.8678
G01 X4.1893 Y0.8329
G01 X4.1960 Y0.8263
G01 X4.2050 Y0.8194
G01 X4.2398 Y0.7981
G01 X4.2483 Y0.7939
G01 X4.2555 Y0.7912
G01 X4.2629 Y0.7893
G01 X4.3009 Y0.7823
G01 X4.3109 Y0.7811
G01 X4.9071 Y0.7810
G01 X4.9180 Y0.7821
G01 X4.9610 Y0.7903
G01 X4.9682 Y0.7924
G01 X4.9734 Y0.7944
G01 X4.9801 Y0.7976
G01 X4.9849 Y0.8005
G01 X5.0190 Y0.8223
G01 X5.0252 Y0.8270
G01 X5.0309 Y0.8322
G01 X5.0383 Y0.8409
G01 X5.0613 Y0.8740
G01 X5.0653 Y0.8804
G01 X5.0687 Y0.8872
G01 X5.0724 Y0.8979
G01 X5.0821 Y0.9369
G01 X5.0833 Y0.9426
G01 X5.0842 Y0.9503
G01 X5.0843 Y0.9581
G01 X5.0839 Y0.9639
G01 X5.0776 Y1.0096
G01 X5.0751 Y1.0187
G01 X5.0707 Y1.0292
G01 X5.0466 Y1.0709
G01 X5.0408 Y1.0783
G01 X4.9937 Y1.1326
G01 X4.9126 Y1.2533
G01 X4.8462 Y1.3828
G01 X4.7956 Y1.5188
G01 X4.7617 Y1.6602
G01 X4.7445 Y1.8045
G01 X4.7445 Y1.9496
G01 X4.7617 Y2.0939
G01 X4.7956 Y2.2353
G01 X4.8462 Y2.3713
G01 X4.9126 Y2.5008
G01 X4.9938 Y2.6216
G01 X5.0887 Y2.7314
G01 X5.1443 Y2.7821
G01 X5.1508 Y2.7889
G01 X5.1554 Y2.7948
G01 X5.1819 Y2.8324
G01 X5.1858 Y2.8390
G01 X5.1891 Y2.8458
G01 X5.1917 Y2.8530
G01 X5.1935 Y2.8604
G01 X5.2015 Y2.9054
G01 X5.2026 Y2.9149
G01 X5.2023 Y2.9264
G01 X5.2004 Y2.9377
G01 X5.1871 Y2.9860
G01 X5.1851 Y2.9914
G01 X5.1818 Y2.9984
G01 X5.1789 Y3.0034
G01 X5.1744 Y3.0098
G01 X5.1320 Y3.0565
G01 X5.0187 Y3.1669
G01 X4.9228 Y3.2838
G01 X4.8979 Y3.3230
G01 X4.8926 Y3.3304
G01 X4.8877 Y3.3358
G01 X4.8590 Y3.3651
G01 X4.8502 Y3.3724
G01 X4.8405 Y3.3784
G01 X4.8015 Y3.3963
G01 X4.7924 Y3.3998
G01 X4.7848 Y3.4018
G01 X4.7751 Y3.4031
G01 X4.7320 Y3.4044
G01 X4.7336 Y3.4667
G01 X4.7244 Y3.4667
G01 X4.7162 Y3.4661
G01 X4.6998 Y3.4635
G01 X4.6837 Y3.4589
G01 X4.6434 Y3.4441
G01 X4.6337 Y3.4399
G01 X4.6242 Y3.4351
G01 X4.6152 Y3.4296
G01 X4.6065 Y3.4234
G01 X4.5970 Y3.4152
G01 X4.5661 Y3.3860
G01 X4.5552 Y3.3740
G01 X4.4749 Y3.2636
G01 X4.3770 Y3.1575
G01 X4.2681 Y3.0628
G01 X4.1488 Y2.9814
G01 X4.0213 Y2.9138
G01 X3.8866 Y2.8618
G01 X3.7468 Y2.8251
G01 X3.7172 Y2.8207
G01 X3.7031 Y2.8176
G01 X3.6568 Y2.8021
G01 X3.6472 Y2.7981
G01 X3.6378 Y2.7934
G01 X3.6301 Y2.7888
G01 X3.6215 Y2.7828
G01 X3.5882 Y2.7562
G01 X3.5771 Y2.7459
G01 X3.5670 Y2.7342
G01 X3.5584 Y2.7218
G01 X3.5383 Y2.6879
G01 X3.5341 Y2.6800
G01 X3.5305 Y2.6723
G01 X3.5267 Y2.6624
G01 X3.5237 Y2.6524
G01 X3.5217 Y2.6436
G01 X3.5142 Y2.6029
G01 X3.5127 Y2.5862
G01 X3.5127 Y2.3621
G01 X3.5132 Y2.3536
G01 X3.5142 Y2.3454
G01 X3.5217 Y2.3020
G01 X3.5240 Y2.2932
G01 X3.5268 Y2.2849
G01 X3.5302 Y2.2765
G01 X3.5340 Y2.2686
G01 X3.5514 Y2.2365
G01 X3.5567 Y2.2277
G01 X3.5660 Y2.2150
G01 X3.5764 Y2.2037
G01 X3.6046 Y2.1772
G01 X3.6151 Y2.1687
G01 X3.6892 Y2.1193
G01 X3.7888 Y2.0341
G01 X3.8773 Y1.9371
G01 X3.9530 Y1.8304
G01 X4.0149 Y1.7148
G01 X4.0620 Y1.5927
G01 X4.0939 Y1.4657
G01 X4.1100 Y1.3355
G01 X4.1100 Y1.2045
G01 X4.0939 Y1.0743
G01 X4.0796 Y1.0169
G01 X4.0771 Y1.0031
G01 X4.0735 Y0.9508
G01 X4.0739 Y0.9383
G01 X4.0756 Y0.9242
G01 X4.0793 Y0.9089
G01 X4.0915 Y0.8705
G01 X4.0945 Y0.8621
G01 X4.0988 Y0.8525
G01 X4.1027 Y0.8449
G01 X4.1082 Y0.8360
G01 X4.1134 Y0.8287
G01 X4.1400 Y0.7944
G01 X4.1469 Y0.7869
G01 X4.1554 Y0.7788
G01 X4.1634 Y0.7724
G01 X4.1718 Y0.7666
G01 X4.2055 Y0.7459
G01 X4.2139 Y0.7412
G01 X4.2214 Y0.7375
G01 X4.2296 Y0.7342
G01 X4.2376 Y0.7314
G01 X4.2476 Y0.7288
G01 X4.2924 Y0.7204
G01 X4.3012 Y0.7193
G01 X4.3121 Y0.7187
G01 X4.9078 Y0.7186
G01 X4.9176 Y0.7192
G01 X4.9274 Y0.7204
G01 X4.9715 Y0.7287
G01 X4.9827 Y0.7315
G01 X4.9940 Y0.7354
G01 X5.0046 Y0.7401
G01 X5.0151 Y0.7457
G01 X5.0511 Y0.7687
G01 X5.0590 Y0.7742
G01 X5.0708 Y0.7840
G01 X5.0818 Y0.7954
G01 X5.0892 Y0.8048
G01 X5.1141 Y0.8407
G01 X5.1202 Y0.8507
G01 X5.1248 Y0.8598
G01 X5.1287 Y0.8693
G01 X5.1324 Y0.8808
G01 X5.1427 Y0.9219
G01 X5.1447 Y0.9314
G01 X5.1465 Y0.9469
G01 X5.1465 Y0.9629
G01 X5.1456 Y0.9733
G01 X5.1404 Y1.0122
G01 X5.1385 Y1.0231
G01 X5.1360 Y1.0330
G01 X5.1321 Y1.0445
G01 X5.1280 Y1.0539
G01 X5.1233 Y1.0630
G01 X5.1036 Y1.0972
G01 X5.0967 Y1.1080
G01 X5.0884 Y1.1187
G01 X5.0434 Y1.1706
G01 X4.9665 Y1.2850
G01 X4.9034 Y1.4080
G01 X4.8554 Y1.5371
G01 X4.8232 Y1.6712
G01 X4.8069 Y1.8082
G01 X4.8069 Y1.9459
G01 X4.8232 Y2.0829
G01 X4.8554 Y2.2171
G01 X4.9034 Y2.3461
G01 X4.9664 Y2.4691
G01 X5.0434 Y2.5836
G01 X5.1335 Y2.6878
G01 X5.1869 Y2.7366
G01 X5.1964 Y2.7462
G01 X5.2060 Y2.7583
G01 X5.2319 Y2.7949
G01 X5.2371 Y2.8029
G01 X5.2436 Y2.8149
G01 X5.2483 Y2.8257
G01 X5.2521 Y2.8373
G01 X5.2549 Y2.8488
G01 X5.2631 Y2.8953
G01 X5.2645 Y2.9056
G01 X5.2651 Y2.9213
G01 X5.2647 Y2.9297
G01 X5.2637 Y2.9384
G01 X5.2623 Y2.9467
G01 X5.2603 Y2.9553
G01 X5.2601 Y2.9560
G01 X5.2484 Y2.9987
G01 X5.2482 Y2.9995
G01 X5.2450 Y3.0094
G01 X5.2403 Y3.0209
G01 X5.2355 Y3.0302
G01 X5.2301 Y3.0392
G01 X5.2240 Y3.0477
G01 X5.2167 Y3.0563
G01 X5.1762 Y3.1006
G01 X5.1739 Y3.1029
G01 X5.0647 Y3.2091
G01 X4.9735 Y3.3204
G01 X4.9506 Y3.3565
G01 X4.9492 Y3.3586
G01 X4.9415 Y3.3692
G01 X4.9340 Y3.3777
G01 X4.9323 Y3.3795
G01 X4.9048 Y3.4075
G01 X4.9043 Y3.4080
G01 X4.8980 Y3.4140
G01 X4.8900 Y3.4206
G01 X4.8817 Y3.4265
G01 X4.8729 Y3.4318
G01 X4.8637 Y3.4365
G01 X4.8275 Y3.4531
G01 X4.8151 Y3.4580
G01 X4.8000 Y3.4623
G01 X4.7841 Y3.4650
G01 X4.7735 Y3.4657
G01 X4.7336 Y3.4667
G01 X4.8118 Y3.5236
G01 X4.7982 Y3.5261
G01 X4.7830 Y3.5277
G01 X4.7290 Y3.5292
G01 X4.7167 Y3.5287
G01 X4.7049 Y3.5276
G01 X4.6928 Y3.5257
G01 X4.6798 Y3.5229
G01 X4.6971 Y3.5595
G01 X4.7021 Y3.5715
G01 X4.7400 Y3.6774
G01 X4.7432 Y3.6873
G01 X4.7460 Y3.6977
G01 X4.7488 Y3.6873
G01 X4.7520 Y3.6774
G01 X4.7899 Y3.5715
G01 X4.7949 Y3.5595
G01 X4.8118 Y3.5236
G01 X5.3257 Y2.8924
G01 X5.3271 Y2.9069
G01 X5.3275 Y2.9199
G01 X5.3269 Y2.9341
G01 X5.3253 Y2.9486
G01 X5.3724 Y2.9204
G01 X5.3257 Y2.8924
G01 X5.5908 Y2.9592
G01 X5.5908 Y2.8854
G01 X5.5547 Y2.8722
G01 X5.4625 Y2.8286
G01 X5.3685 Y2.7723
G01 X5.2851 Y2.7104
G01 X5.2095 Y2.6420
G01 X5.2041 Y2.6365
G01 X5.1345 Y2.5594
G01 X5.0749 Y2.4791
G01 X5.0706 Y2.4727
