(G-CODE GENERATED BY FLATCAM v8.994 - www.flatcam.org - Version Date: 2020/11/7)

(Name: Gerber_BottomLayer.GBL_ncc_cnc)
(Type: G-code from Geometry)
(Units: MM)

(Created on Friday, 15 July 2022 at 15:33)

(This preprocessor is the default preprocessor used by FlatCAM.)
(It is made to work with MACH3 compatible motion controllers.)

(TOOL DIAMETER: 0.1291 mm)
(Feedrate_XY: 120.0 mm/min)
(Feedrate_Z: 25.0 mm/min)
(Feedrate rapids 1500.0 mm/min)

(Z_Cut: -0.04 mm)
(Z_Move: 1.0 mm)
(Z Start: None mm)
(Z End: 15.0 mm)
(X,Y End: None mm)
(Steps per circle: 64)
(Preprocessor Geometry: default)

(X range:   -9.3746 ...    9.4406  mm)
(Y range:   -9.3746 ...    9.6763  mm)

(Spindle Speed: 1000.0 RPM)
G21
G90
G94

G01 F120.00

M5
G00 Z15.0000
G00 X0.0000 Y0.0000
T1
M6    
(MSG, Change to Tool Dia = 0.1291)
M0
G00 Z15.0000

M03 S1000.0
G01 F120.00
G00 X2.0796 Y-1.0655
G01 F25.00
G01 Z-0.0400
G01 F120.00
G01 X2.0977 Y-1.0738
G01 X2.1174 Y-1.0806
G01 X2.1309 Y-1.0842
G01 X2.1790 Y-1.0949
G01 X2.1966 Y-1.0973
G01 X2.2136 Y-1.0983
G01 X2.2316 Y-1.0979
G01 X2.2492 Y-1.0961
G01 X2.2391 Y-1.1365
G01 X2.2363 Y-1.1493
G01 X2.2216 Y-1.2483
G01 X2.2202 Y-1.2645
G01 X2.2155 Y-1.3634
G01 X2.2158 Y-1.3746
G01 X2.2158 Y-1.3748
G01 X2.2201 Y-1.4630
G01 X2.2201 Y-1.4631
G01 X2.2216 Y-1.4797
G01 X2.2363 Y-1.5787
G01 X2.2391 Y-1.5915
G01 X2.2492 Y-1.6319
G01 X2.2317 Y-1.6301
G01 X2.2136 Y-1.6297
G01 X2.1965 Y-1.6307
G01 X2.1790 Y-1.6332
G01 X2.1308 Y-1.6438
G01 X2.1174 Y-1.6474
G01 X2.0977 Y-1.6543
G01 X2.0796 Y-1.6625
G01 X2.0796 Y-1.0655
G01 X2.1313 Y-1.1372
G01 X2.1639 Y-1.1445
G01 X2.1842 Y-1.1479
G01 X2.1711 Y-1.2366
G01 X2.1701 Y-1.2437
G01 X2.1697 Y-1.2472
G01 X2.1696 Y-1.2484
G01 X2.1696 Y-1.2486
G01 X2.1695 Y-1.2498
G01 X2.1694 Y-1.2505
G01 X2.1642 Y-1.3508
G01 X2.1639 Y-1.3646
G01 X2.1642 Y-1.3773
G01 X2.1694 Y-1.4777
G01 X2.1711 Y-1.4914
G01 X2.1842 Y-1.5801
G01 X2.1651 Y-1.5832
G01 X2.1316 Y-1.5907
G01 X2.1313 Y-1.1372
G01 X2.3228 Y-1.7016
G01 X2.3087 Y-1.6963
G01 X2.2933 Y-1.6920
G01 X2.2387 Y-1.6826
G01 X2.2251 Y-1.6815
G01 X2.2121 Y-1.6814
G01 X2.1983 Y-1.6825
G01 X2.1842 Y-1.6847
G01 X2.1336 Y-1.6964
G01 X2.1188 Y-1.7014
G01 X2.1051 Y-1.7075
G01 X2.0963 Y-1.7122
G01 X2.0876 Y-1.7176
G01 X2.0506 Y-1.7433
G01 X2.0388 Y-1.7525
G01 X2.0280 Y-1.7626
G01 X2.0280 Y-0.9654
G01 X2.0388 Y-0.9755
G01 X2.0506 Y-0.9847
G01 X2.0876 Y-1.0104
G01 X2.0964 Y-1.0158
G01 X2.1052 Y-1.0205
G01 X2.1189 Y-1.0266
G01 X2.1337 Y-1.0316
G01 X2.1842 Y-1.0433
G01 X2.1983 Y-1.0455
G01 X2.2122 Y-1.0466
G01 X2.2251 Y-1.0465
G01 X2.2387 Y-1.0454
G01 X2.2933 Y-1.0360
G01 X2.3087 Y-1.0318
G01 X2.3228 Y-1.0264
G01 X2.3148 Y-1.0489
G01 X2.3117 Y-1.0592
G01 X2.2894 Y-1.1479
G01 X2.2867 Y-1.1610
G01 X2.2723 Y-1.2600
G01 X2.2672 Y-1.3646
G01 X2.2723 Y-1.4680
G01 X2.2867 Y-1.5670
G01 X2.2894 Y-1.5801
G01 X2.3110 Y-1.6660
G01 X2.3113 Y-1.6673
G01 X2.3117 Y-1.6688
G01 X2.3148 Y-1.6791
G01 X2.3228 Y-1.7016
G00 Z1.0000
G00 X2.2288 Y1.1355
G01 F25.00
G01 Z-0.0400
G01 F120.00
G01 X2.2178 Y1.1364
G01 X2.2067 Y1.1354
G01 X2.1655 Y1.1262
G01 X2.1566 Y1.1234
G01 X2.1509 Y1.1209
G01 X2.1441 Y1.1170
G01 X2.1095 Y1.0928
G01 X2.1032 Y1.0876
G01 X2.0977 Y1.0816
G01 X2.0938 Y1.0763
G01 X2.0717 Y1.0425
G01 X2.0667 Y1.0328
G01 X2.0635 Y1.0225
G01 X2.0555 Y0.9829
G01 X2.0546 Y0.9766
G01 X2.0543 Y0.9703
G01 X2.0545 Y-0.7820
G01 X2.0555 Y-0.7899
G01 X2.0635 Y-0.8295
G01 X2.0651 Y-0.8355
G01 X2.0673 Y-0.8413
G01 X2.0717 Y-0.8495
G01 X2.0938 Y-0.8833
G01 X2.0977 Y-0.8886
G01 X2.1021 Y-0.8934
G01 X2.1095 Y-0.8998
G01 X2.1428 Y-0.9232
G01 X2.1481 Y-0.9265
G01 X2.1537 Y-0.9293
G01 X2.1640 Y-0.9328
G01 X2.2036 Y-0.9418
G01 X2.2114 Y-0.9431
G01 X2.2178 Y-0.9434
G01 X2.2272 Y-0.9427
G01 X2.2674 Y-0.9359
G01 X2.2734 Y-0.9346
G01 X2.2793 Y-0.9327
G01 X2.2849 Y-0.9302
G01 X2.2903 Y-0.9272
G01 X2.3247 Y-0.9060
G01 X2.3325 Y-0.9001
G01 X2.3392 Y-0.8932
G01 X2.3440 Y-0.8866
G01 X2.4495 Y-0.7208
G01 X2.5373 Y-0.6148
G01 X2.6375 Y-0.5208
G01 X2.7488 Y-0.4402
G01 X2.8693 Y-0.3740
G01 X2.9969 Y-0.3231
G01 X3.1302 Y-0.2891
G01 X3.2664 Y-0.2718
G01 X3.4064 Y-0.2718
G01 X3.4601 Y-0.2739
G01 X3.4693 Y-0.2733
G01 X3.4799 Y-0.2710
G01 X3.5103 Y-0.2609
G01 X3.5175 Y-0.2580
G01 X3.5269 Y-0.2526
G01 X3.5531 Y-0.2334
G01 X3.5605 Y-0.2270
G01 X4.2565 Y0.4691
G01 X4.2621 Y0.4762
G01 X4.2863 Y0.5135
G01 X4.2914 Y0.5231
G01 X4.2936 Y0.5289
G01 X4.2955 Y0.5364
G01 X4.3009 Y0.5735
G01 X4.3359 Y0.5780
G01 X4.3421 Y0.5795
G01 X4.3497 Y0.5821
G01 X4.3595 Y0.5873
G01 X4.3966 Y0.6112
G01 X4.4016 Y0.6147
G01 X4.4073 Y0.6198
G01 X4.6524 Y0.8649
G01 X4.7345 Y0.9351
G01 X4.8208 Y0.9877
G01 X4.9141 Y1.0265
G01 X5.0124 Y1.0501
G01 X5.1196 Y1.0586
G01 X5.5453 Y1.0586
G01 X5.5514 Y1.0589
G01 X5.5575 Y1.0598
G01 X5.6017 Y1.0685
G01 X5.6121 Y1.0722
G01 X5.6217 Y1.0777
G01 X5.6560 Y1.1015
G01 X5.6642 Y1.1086
G01 X5.6712 Y1.1171
G01 X5.6956 Y1.1547
G01 X5.6998 Y1.1634
G01 X5.7027 Y1.1726
G01 X5.7107 Y1.2170
G01 X5.7114 Y1.2265
G01 X5.7112 Y1.2328
G01 X5.7103 Y1.2391
G01 X5.7013 Y1.2798
G01 X5.6985 Y1.2891
G01 X5.6952 Y1.2964
G01 X5.6910 Y1.3032
G01 X5.6676 Y1.3362
G01 X5.6635 Y1.3414
G01 X5.6590 Y1.3461
G01 X5.5853 Y1.4149
G01 X5.4976 Y1.5208
G01 X5.4242 Y1.6369
G01 X5.3656 Y1.7612
G01 X5.3230 Y1.8921
G01 X5.2976 Y2.0268
G01 X5.2889 Y2.1641
G01 X5.2976 Y2.3013
G01 X5.3230 Y2.4360
G01 X5.3656 Y2.5669
G01 X5.4242 Y2.6912
G01 X5.4976 Y2.8073
G01 X5.5853 Y2.9132
G01 X5.6859 Y3.0075
G01 X5.6927 Y3.0148
G01 X5.7194 Y3.0528
G01 X5.7226 Y3.0582
G01 X5.7253 Y3.0639
G01 X5.7286 Y3.0743
G01 X5.7379 Y3.1207
G01 X5.7384 Y3.1288
G01 X5.7384 Y5.5677
G01 X5.7381 Y5.5741
G01 X5.7328 Y5.6093
G01 X5.7305 Y5.6187
G01 X5.7274 Y5.6261
G01 X5.7135 Y5.6550
G01 X5.7102 Y5.6606
G01 X5.7065 Y5.6659
G01 X5.6824 Y5.6919
G01 X5.6775 Y5.6967
G01 X5.6181 Y5.7431
G01 X5.5160 Y5.8452
G01 X5.4273 Y5.9585
G01 X5.3526 Y6.0818
G01 X5.3116 Y6.1732
G01 X5.3087 Y6.1788
G01 X5.3053 Y6.1842
G01 X5.2802 Y6.2193
G01 X5.2738 Y6.2260
G01 X5.2665 Y6.2318
G01 X5.2313 Y6.2543
G01 X5.2228 Y6.2586
G01 X5.2122 Y6.2620
G01 X5.1731 Y6.2700
G01 X5.1667 Y6.2709
G01 X5.1603 Y6.2713
G01 X5.1539 Y6.2710
G01 X5.1476 Y6.2700
G01 X5.1079 Y6.2621
G01 X5.0972 Y6.2587
G01 X5.0887 Y6.2543
G01 X5.0535 Y6.2318
G01 X5.0474 Y6.2271
G01 X5.0408 Y6.2205
G01 X5.0370 Y6.2156
G01 X5.0146 Y6.1841
G01 X5.0113 Y6.1788
G01 X5.0084 Y6.1732
G01 X4.9673 Y6.0818
G01 X4.8926 Y5.9585
G01 X4.8040 Y5.8452
G01 X4.7018 Y5.7431
G01 X4.6154 Y5.6753
G01 X4.6106 Y5.6706
G01 X4.5887 Y5.6470
G01 X4.5837 Y5.6407
G01 X4.5803 Y5.6351
G01 X4.5656 Y5.6048
G01 X4.5621 Y5.5959
G01 X4.5600 Y5.5865
G01 X4.5552 Y5.5549
G01 X4.5547 Y5.5468
G01 X4.5547 Y2.1387
G01 X4.5461 Y2.0314
G01 X4.5226 Y1.9331
G01 X4.4838 Y1.8398
G01 X4.4435 Y1.7729
G01 X4.4287 Y1.7389
G01 X4.4255 Y1.7282
G01 X4.4243 Y1.7203
G01 X4.4216 Y1.6832
G01 X4.4291 Y1.5571
G01 X4.4204 Y1.4197
G01 X4.3950 Y1.2850
G01 X4.3523 Y1.1541
G01 X4.2938 Y1.0298
G01 X4.2205 Y0.9139
G01 X4.1617 Y0.8435
G01 X4.1553 Y0.8341
G01 X4.1339 Y0.7922
G01 X4.1303 Y0.7836
G01 X4.1286 Y0.7776
G01 X4.1273 Y0.7699
G01 X4.1264 Y0.7487
G01 X4.1160 Y0.7488
G01 X4.1098 Y0.7484
G01 X4.1037 Y0.7474
G01 X4.0977 Y0.7459
G01 X4.0904 Y0.7431
G01 X4.0478 Y0.7239
G01 X4.0393 Y0.7188
G01 X3.9212 Y0.6332
G01 X3.8007 Y0.5670
G01 X3.6731 Y0.5161
G01 X3.5398 Y0.4821
G01 X3.4036 Y0.4648
G01 X3.2664 Y0.4648
G01 X3.1302 Y0.4821
G01 X2.9969 Y0.5161
G01 X2.8693 Y0.5670
G01 X2.7488 Y0.6332
G01 X2.6375 Y0.7138
G01 X2.5373 Y0.8078
G01 X2.4495 Y0.9138
G01 X2.3440 Y1.0796
G01 X2.3371 Y1.0886
G01 X2.3312 Y1.0942
G01 X2.3247 Y1.0990
G01 X2.2890 Y1.1210
G01 X2.2821 Y1.1245
G01 X2.2749 Y1.1271
G01 X2.2689 Y1.1286
G01 X2.2288 Y1.1355
G01 X2.2375 Y1.1864
G01 X2.2284 Y1.1876
G01 X2.2199 Y1.1880
G01 X2.2097 Y1.1878
G01 X2.2012 Y1.1868
G01 X2.1928 Y1.1853
G01 X2.1535 Y1.1764
G01 X2.1412 Y1.1728
G01 X2.1283 Y1.1674
G01 X2.1174 Y1.1612
G01 X2.0807 Y1.1357
G01 X2.0715 Y1.1285
G01 X2.0619 Y1.1191
G01 X2.0527 Y1.1076
G01 X2.0275 Y1.0692
G01 X2.0240 Y1.0631
G01 X2.0203 Y1.0556
G01 X2.0159 Y1.0440
G01 X2.0127 Y1.0318
G01 X2.0043 Y0.9896
G01 X2.0032 Y0.9811
G01 X2.0027 Y0.9725
G01 X2.0027 Y-0.7779
G01 X2.0032 Y-0.7881
G01 X2.0043 Y-0.7966
G01 X2.0132 Y-0.8415
G01 X2.0154 Y-0.8495
G01 X2.0177 Y-0.8563
G01 X2.0240 Y-0.8701
G01 X2.0290 Y-0.8786
G01 X2.0527 Y-0.9146
G01 X2.0599 Y-0.9239
G01 X2.0671 Y-0.9315
G01 X2.0725 Y-0.9363
G01 X2.0794 Y-0.9418
G01 X2.1151 Y-0.9667
G01 X2.1247 Y-0.9725
G01 X2.1360 Y-0.9778
G01 X2.1439 Y-0.9807
G01 X2.1508 Y-0.9827
G01 X2.1929 Y-0.9923
G01 X2.2041 Y-0.9942
G01 X2.2154 Y-0.9950
G01 X2.2268 Y-0.9947
G01 X2.2375 Y-0.9934
G01 X2.2794 Y-0.9862
G01 X2.2890 Y-0.9838
G01 X2.2969 Y-0.9812
G01 X2.3057 Y-0.9775
G01 X2.3145 Y-0.9729
G01 X2.3548 Y-0.9481
G01 X2.3606 Y-0.9439
G01 X2.3673 Y-0.9383
G01 X2.3727 Y-0.9331
G01 X2.3785 Y-0.9266
G01 X2.3875 Y-0.9143
G01 X2.4913 Y-0.7513
G01 X2.5750 Y-0.6503
G01 X2.6705 Y-0.5607
G01 X2.7765 Y-0.4839
G01 X2.8914 Y-0.4208
G01 X3.0129 Y-0.3724
G01 X3.1398 Y-0.3399
G01 X3.2697 Y-0.3235
G01 X3.4054 Y-0.3235
G01 X3.4587 Y-0.3255
G01 X3.4726 Y-0.3249
G01 X3.4821 Y-0.3236
G01 X3.4918 Y-0.3213
G01 X3.5273 Y-0.3097
G01 X3.5402 Y-0.3044
G01 X3.5523 Y-0.2977
G01 X3.5855 Y-0.2736
G01 X3.5965 Y-0.2640
G01 X4.2924 Y0.4319
G01 X4.2986 Y0.4389
G01 X4.3044 Y0.4466
G01 X4.3336 Y0.4921
G01 X4.3380 Y0.5007
G01 X4.3417 Y0.5099
G01 X4.3445 Y0.5191
G01 X4.3464 Y0.5275
G01 X4.3556 Y0.5296
G01 X4.3638 Y0.5322
G01 X4.3718 Y0.5354
G01 X4.3806 Y0.5398
G01 X4.4251 Y0.5681
G01 X4.4361 Y0.5763
G01 X4.4438 Y0.5833
G01 X4.6875 Y0.8270
G01 X4.7649 Y0.8932
G01 X4.8443 Y0.9416
G01 X4.9301 Y0.9773
G01 X5.0205 Y0.9989
G01 X5.1217 Y1.0070
G01 X5.5487 Y1.0070
G01 X5.5557 Y1.0074
G01 X5.5639 Y1.0085
G01 X5.6090 Y1.0171
G01 X5.6185 Y1.0195
G01 X5.6266 Y1.0223
G01 X5.6344 Y1.0257
G01 X5.6420 Y1.0296
G01 X5.6505 Y1.0349
G01 X5.6841 Y1.0581
G01 X5.6935 Y1.0654
G01 X5.7028 Y1.0742
G01 X5.7118 Y1.0851
G01 X5.7399 Y1.1281
G01 X5.7440 Y1.1358
G01 X5.7476 Y1.1438
G01 X5.7500 Y1.1504
G01 X5.7525 Y1.1588
G01 X5.7616 Y1.2085
G01 X5.7630 Y1.2227
G01 X5.7628 Y1.2355
G01 X5.7611 Y1.2484
G01 X5.7512 Y1.2931
G01 X5.7489 Y1.3015
G01 X5.7465 Y1.3082
G01 X5.7418 Y1.3187
G01 X5.7351 Y1.3301
G01 X5.7094 Y1.3666
G01 X5.7029 Y1.3749
G01 X5.6942 Y1.3839
G01 X5.6229 Y1.4504
G01 X5.5395 Y1.5512
G01 X5.4695 Y1.6618
G01 X5.4137 Y1.7803
G01 X5.3731 Y1.9049
G01 X5.3489 Y2.0332
G01 X5.3407 Y2.1641
G01 X5.3489 Y2.2949
G01 X5.3731 Y2.4232
G01 X5.4137 Y2.5479
G01 X5.4695 Y2.6663
G01 X5.5395 Y2.7769
G01 X5.6230 Y2.8778
G01 X5.7229 Y2.9714
G01 X5.7300 Y2.9789
G01 X5.7366 Y2.9873
G01 X5.7636 Y3.0261
G01 X5.7685 Y3.0344
G01 X5.7728 Y3.0435
G01 X5.7761 Y3.0526
G01 X5.7788 Y3.0622
G01 X5.7890 Y3.1136
G01 X5.7900 Y3.1288
G01 X5.7900 Y5.5677
G01 X5.7896 Y5.5769
G01 X5.7836 Y5.6189
G01 X5.7817 Y5.6274
G01 X5.7792 Y5.6357
G01 X5.7749 Y5.6465
G01 X5.7597 Y5.6780
G01 X5.7555 Y5.6857
G01 X5.7507 Y5.6930
G01 X5.7426 Y5.7031
G01 X5.7154 Y5.7320
G01 X5.7072 Y5.7391
G01 X5.6524 Y5.7819
G01 X5.5547 Y5.8795
G01 X5.4699 Y5.9879
G01 X5.3984 Y6.1059
G01 X5.3584 Y6.1950
G01 X5.3518 Y6.2075
G01 X5.3251 Y6.2455
G01 X5.3196 Y6.2526
G01 X5.3149 Y6.2580
G01 X5.3089 Y6.2638
G01 X5.3026 Y6.2693
G01 X5.2959 Y6.2742
G01 X5.2562 Y6.2996
G01 X5.2474 Y6.3042
G01 X5.2368 Y6.3085
G01 X5.2231 Y6.3125
G01 X5.1811 Y6.3210
G01 X5.1697 Y6.3225
G01 X5.1569 Y6.3229
G01 X5.1495 Y6.3224
G01 X5.1409 Y6.3213
G01 X5.0994 Y6.3130
G01 X5.0888 Y6.3104
G01 X5.0794 Y6.3071
G01 X5.0700 Y6.3030
G01 X5.0614 Y6.2981
G01 X5.0251 Y6.2749
G01 X5.0140 Y6.2665
G01 X5.0059 Y6.2589
G01 X4.9978 Y6.2495
G01 X4.9722 Y6.2135
G01 X4.9667 Y6.2050
G01 X4.9613 Y6.1944
G01 X4.9215 Y6.1059
G01 X4.8501 Y5.9879
G01 X4.7652 Y5.8795
G01 X4.6675 Y5.7818
G01 X4.5820 Y5.7146
G01 X4.5745 Y5.7075
G01 X4.5496 Y5.6808
G01 X4.5407 Y5.6693
G01 X4.5333 Y5.6567
G01 X4.5165 Y5.6214
G01 X4.5130 Y5.6118
G01 X4.5104 Y5.6022
G01 X4.5040 Y5.5621
G01 X4.5030 Y5.5468
G01 X4.5030 Y2.1407
G01 X4.4950 Y2.0396
G01 X4.4733 Y1.9492
G01 X4.4376 Y1.8632
G01 X4.4015 Y1.8036
G01 X4.3973 Y1.7960
G01 X4.3805 Y1.7575
G01 X4.3777 Y1.7493
G01 X4.3751 Y1.7394
G01 X4.3729 Y1.7251
G01 X4.3703 Y1.6929
G01 X4.3699 Y1.6831
G01 X4.3773 Y1.5572
G01 X4.3691 Y1.4262
G01 X4.3449 Y1.2979
G01 X4.3042 Y1.1732
G01 X4.2484 Y1.0547
G01 X4.1786 Y0.9443
G01 X4.1217 Y0.8760
G01 X4.1138 Y0.8653
G01 X4.1080 Y0.8552
G01 X4.0869 Y0.8135
G01 X4.0830 Y0.8047
G01 X4.0796 Y0.7943
G01 X4.0698 Y0.7905
G01 X4.0296 Y0.7725
G01 X4.0170 Y0.7659
G01 X4.0091 Y0.7606
G01 X3.8935 Y0.6769
G01 X3.7786 Y0.6138
G01 X3.6571 Y0.5654
G01 X3.5301 Y0.5329
G01 X3.4003 Y0.5165
G01 X3.2697 Y0.5165
G01 X3.1398 Y0.5329
G01 X3.0129 Y0.5654
G01 X2.8914 Y0.6138
G01 X2.7765 Y0.6769
G01 X2.6705 Y0.7537
G01 X2.5750 Y0.8432
G01 X2.4913 Y0.9443
G01 X2.3863 Y1.1092
G01 X2.3785 Y1.1196
G01 X2.3694 Y1.1293
G01 X2.3606 Y1.1369
G01 X2.3523 Y1.1427
G01 X2.3156 Y1.1653
G01 X2.3032 Y1.1716
G01 X2.2929 Y1.1756
G01 X2.2822 Y1.1786
G01 X2.2375 Y1.1864
G01 X2.1313 Y1.7838
G01 X2.1639 Y1.7765
G01 X2.1842 Y1.7731
G01 X2.1711 Y1.6844
G01 X2.1694 Y1.6705
G01 X2.1686 Y1.6588
G01 X2.1686 Y1.6585
G01 X2.1642 Y1.5703
G01 X2.1642 Y1.5702
G01 X2.1639 Y1.5564
G01 X2.1642 Y1.5437
G01 X2.1694 Y1.4433
G01 X2.1711 Y1.4296
G01 X2.1842 Y1.3409
G01 X2.1651 Y1.3378
G01 X2.1316 Y1.3303
G01 X2.1313 Y1.7838
G01 X2.0796 Y1.8555
G01 X2.0977 Y1.8472
G01 X2.1174 Y1.8404
G01 X2.1309 Y1.8368
G01 X2.1790 Y1.8261
G01 X2.1966 Y1.8237
G01 X2.2136 Y1.8227
G01 X2.2316 Y1.8231
G01 X2.2492 Y1.8249
G01 X2.2391 Y1.7845
G01 X2.2363 Y1.7717
G01 X2.2216 Y1.6727
G01 X2.2202 Y1.6565
G01 X2.2155 Y1.5576
G01 X2.2158 Y1.5464
G01 X2.2201 Y1.4579
G01 X2.2216 Y1.4413
G01 X2.2363 Y1.3423
G01 X2.2391 Y1.3295
G01 X2.2492 Y1.2891
G01 X2.2317 Y1.2909
G01 X2.2222 Y1.2913
G01 X2.2209 Y1.2913
G01 X2.2193 Y1.2913
G01 X2.2190 Y1.2913
G01 X2.2184 Y1.2913
G01 X2.2181 Y1.2913
G01 X2.2136 Y1.2913
G01 X2.1965 Y1.2903
G01 X2.1790 Y1.2878
G01 X2.1308 Y1.2772
G01 X2.1174 Y1.2736
G01 X2.0977 Y1.2667
G01 X2.0796 Y1.2585
G01 X2.0796 Y1.8555
G01 X2.3228 Y1.8946
G01 X2.3148 Y1.8721
G01 X2.3117 Y1.8618
G01 X2.2894 Y1.7731
G01 X2.2867 Y1.7600
G01 X2.2723 Y1.6610
G01 X2.2672 Y1.5564
G01 X2.2723 Y1.4530
G01 X2.2867 Y1.3540
G01 X2.2894 Y1.3409
G01 X2.3117 Y1.2522
G01 X2.3148 Y1.2419
G01 X2.3228 Y1.2194
G01 X2.3087 Y1.2247
G01 X2.2933 Y1.2290
G01 X2.2387 Y1.2384
G01 X2.2311 Y1.2392
G01 X2.2286 Y1.2393
G01 X2.2270 Y1.2394
G01 X2.2251 Y1.2395
G01 X2.2121 Y1.2396
G01 X2.1983 Y1.2385
G01 X2.1842 Y1.2363
G01 X2.1336 Y1.2246
G01 X2.1188 Y1.2196
G01 X2.1051 Y1.2135
G01 X2.0963 Y1.2088
G01 X2.0876 Y1.2034
G01 X2.0506 Y1.1777
G01 X2.0388 Y1.1685
G01 X2.0280 Y1.1584
G01 X2.0280 Y1.9556
G01 X2.0388 Y1.9455
G01 X2.0506 Y1.9363
G01 X2.0876 Y1.9106
G01 X2.0964 Y1.9052
G01 X2.1052 Y1.9005
G01 X2.1189 Y1.8944
G01 X2.1337 Y1.8894
G01 X2.1842 Y1.8777
G01 X2.1983 Y1.8755
G01 X2.1998 Y1.8753
G01 X2.2005 Y1.8752
G01 X2.2017 Y1.8751
G01 X2.2046 Y1.8748
G01 X2.2122 Y1.8744
G01 X2.2251 Y1.8745
G01 X2.2387 Y1.8756
G01 X2.2933 Y1.8850
G01 X2.3087 Y1.8892
G01 X2.3228 Y1.8946
G00 Z1.0000
G00 X5.7336 Y1.0321
G01 F25.00
G01 Z-0.0400
G01 F120.00
G01 X5.7442 Y1.0431
G01 X5.7532 Y1.0543
G01 X5.7809 Y1.0964
G01 X5.7863 Y1.1052
G01 X5.7910 Y1.1144
G01 X5.7953 Y1.1241
G01 X5.7989 Y1.1338
G01 X5.8020 Y1.1440
G01 X5.8044 Y1.1547
G01 X5.8123 Y1.1984
G01 X5.8141 Y1.2123
G01 X5.8147 Y1.2254
G01 X5.8144 Y1.2378
G01 X5.8131 Y1.2501
G01 X5.8107 Y1.2634
G01 X5.8807 Y1.2217
G01 X5.9668 Y1.1808
G01 X5.9755 Y1.1770
G01 X6.0724 Y1.1424
G01 X6.1694 Y1.1179
G01 X6.1825 Y1.1154
G01 X6.2702 Y1.1024
G01 X6.2865 Y1.1008
G01 X6.3836 Y1.0962
G01 X6.4795 Y1.1008
G01 X6.4924 Y1.1019
G01 X6.5919 Y1.1169
G01 X6.6936 Y1.1424
G01 X6.7911 Y1.1773
G01 X6.8821 Y1.2201
G01 X6.8935 Y1.2264
G01 X6.9757 Y1.2758
G01 X7.0562 Y1.3353
G01 X7.0664 Y1.3438
G01 X7.1347 Y1.4057
G01 X7.1418 Y1.4129
G01 X7.1618 Y1.4348
G01 X7.1632 Y1.4155
G01 X7.1663 Y1.3976
G01 X7.1710 Y1.3810
G01 X7.1777 Y1.3645
G01 X7.2008 Y1.3197
G01 X7.2083 Y1.3069
G01 X7.2150 Y1.2973
G01 X7.2217 Y1.2889
G01 X7.2296 Y1.2803
G01 X7.2371 Y1.2731
G01 X7.2774 Y1.2405
G01 X7.2863 Y1.2339
G01 X7.2937 Y1.2290
G01 X7.3019 Y1.2242
G01 X7.3099 Y1.2202
G01 X7.3189 Y1.2162
G01 X7.3284 Y1.2126
G01 X7.3369 Y1.2100
G01 X7.3894 Y1.1964
G01 X7.3997 Y1.1947
G01 X7.4097 Y1.1936
G01 X7.4200 Y1.1931
G01 X7.4312 Y1.1933
G01 X7.2700 Y1.0321
G01 X5.7336 Y1.0321
G01 X5.8333 Y1.0837
G01 X5.8380 Y1.0930
G01 X5.8425 Y1.1030
G01 X5.8463 Y1.1129
G01 X5.8499 Y1.1236
G01 X5.8546 Y1.1421
G01 X5.8604 Y1.1741
G01 X5.9452 Y1.1340
G01 X5.9590 Y1.1280
G01 X6.0535 Y1.0942
G01 X6.0650 Y1.0908
G01 X6.0684 Y1.0899
G01 X6.0932 Y1.0837
G01 X5.8333 Y1.0837
G01 X6.6728 Y1.0837
G01 X6.7010 Y1.0908
G01 X6.7137 Y1.0946
G01 X6.8073 Y1.1281
G01 X6.8211 Y1.1341
G01 X6.9015 Y1.1721
G01 X6.9121 Y1.1775
G01 X6.9963 Y1.2277
G01 X7.0102 Y1.2368
G01 X7.0905 Y1.2965
G01 X7.1003 Y1.3048
G01 X7.1343 Y1.3356
G01 X7.1566 Y1.2928
G01 X7.1664 Y1.2765
G01 X7.1741 Y1.2657
G01 X7.1820 Y1.2558
G01 X7.1911 Y1.2458
G01 X7.2004 Y1.2367
G01 X7.2110 Y1.2275
G01 X7.2466 Y1.1990
G01 X7.2566 Y1.1916
G01 X7.2667 Y1.1850
G01 X7.2804 Y1.1771
G01 X7.2950 Y1.1702
G01 X7.3095 Y1.1645
G01 X7.3247 Y1.1598
G01 X7.2486 Y1.0837
G01 X6.6728 Y1.0837
G01 X6.9425 Y1.1353
G01 X7.0227 Y1.1834
G01 X7.0342 Y1.1907
G01 X7.0443 Y1.1978
G01 X7.1197 Y1.2538
G01 X7.1290 Y1.2399
G01 X7.1393 Y1.2265
G01 X7.1511 Y1.2129
G01 X7.1629 Y1.2010
G01 X7.1766 Y1.1890
G01 X7.2136 Y1.1593
G01 X7.2244 Y1.1511
G01 X7.2355 Y1.1436
G01 X7.2272 Y1.1353
G01 X6.9425 Y1.1353
G00 Z1.0000
G00 X6.6727 Y-0.2557
G01 F25.00
G01 Z-0.0400
G01 F120.00
G01 X6.9327 Y-0.2557
G01 X6.9280 Y-0.2650
G01 X6.9235 Y-0.2750
G01 X6.9197 Y-0.2849
G01 X6.9161 Y-0.2957
G01 X6.9114 Y-0.3141
G01 X6.9056 Y-0.3461
G01 X6.8208 Y-0.3060
G01 X6.8070 Y-0.3000
G01 X6.7125 Y-0.2662
G01 X6.7010 Y-0.2628
G01 X6.6727 Y-0.2557
G01 X6.9553 Y-0.4354
G01 X6.8858 Y-0.3940
G01 X6.7980 Y-0.3523
G01 X6.7843 Y-0.3467
G01 X6.6918 Y-0.3139
G01 X6.5919 Y-0.2889
G01 X6.4958 Y-0.2744
G01 X6.4798 Y-0.2728
G01 X6.3824 Y-0.2682
G01 X6.2862 Y-0.2728
G01 X6.2702 Y-0.2744
G01 X6.1741 Y-0.2889
G01 X6.1666 Y-0.2906
G01 X6.0810 Y-0.3120
G01 X6.0742 Y-0.3138
G01 X5.9817 Y-0.3467
G01 X5.9680 Y-0.3523
G01 X5.8802 Y-0.3940
G01 X5.8107 Y-0.4354
G01 X5.8131 Y-0.4221
G01 X5.8144 Y-0.4098
G01 X5.8147 Y-0.3974
G01 X5.8141 Y-0.3843
G01 X5.8123 Y-0.3704
G01 X5.8044 Y-0.3267
G01 X5.8020 Y-0.3160
G01 X5.7989 Y-0.3058
G01 X5.7953 Y-0.2961
G01 X5.7910 Y-0.2864
G01 X5.7863 Y-0.2772
G01 X5.7809 Y-0.2684
G01 X5.7532 Y-0.2263
G01 X5.7442 Y-0.2151
G01 X5.7336 Y-0.2041
G01 X7.0324 Y-0.2041
G01 X7.0218 Y-0.2151
G01 X7.0128 Y-0.2263
G01 X6.9850 Y-0.2684
G01 X6.9797 Y-0.2772
G01 X6.9750 Y-0.2864
G01 X6.9707 Y-0.2961
G01 X6.9671 Y-0.3058
G01 X6.9640 Y-0.3160
G01 X6.9615 Y-0.3267
G01 X6.9537 Y-0.3704
G01 X6.9519 Y-0.3843
G01 X6.9513 Y-0.3974
G01 X6.9516 Y-0.4098
G01 X6.9529 Y-0.4221
G01 X6.9553 Y-0.4354
G01 X5.8333 Y-0.2557
G01 X6.0933 Y-0.2557
G01 X6.0650 Y-0.2628
G01 X6.0535 Y-0.2662
G01 X6.0478 Y-0.2682
G01 X5.9646 Y-0.2979
G01 X5.9590 Y-0.3000
G01 X5.9452 Y-0.3060
G01 X5.8604 Y-0.3461
G01 X5.8546 Y-0.3141
G01 X5.8499 Y-0.2957
G01 X5.8463 Y-0.2849
G01 X5.8425 Y-0.2750
G01 X5.8380 Y-0.2650
G01 X5.8333 Y-0.2557
G00 Z1.0000
G00 X5.4488 Y-0.2306
G01 F25.00
G01 Z-0.0400
G01 F120.00
G01 X5.4380 Y-0.2315
G01 X5.3973 Y-0.2394
G01 X5.3911 Y-0.2410
G01 X5.3850 Y-0.2431
G01 X5.3792 Y-0.2459
G01 X5.3737 Y-0.2492
G01 X5.3399 Y-0.2720
G01 X5.3326 Y-0.2779
G01 X4.4715 Y-1.1390
G01 X4.4665 Y-1.1447
G01 X4.4629 Y-1.1496
G01 X4.4372 Y-1.1896
G01 X4.4328 Y-1.1995
G01 X4.4310 Y-1.2054
G01 X4.4299 Y-1.2115
G01 X4.4238 Y-1.2537
G01 X4.4232 Y-1.2602
G01 X4.4232 Y-1.2668
G01 X4.4291 Y-1.3639
G01 X4.4204 Y-1.5013
G01 X4.3950 Y-1.6360
G01 X4.3523 Y-1.7669
G01 X4.2938 Y-1.8912
G01 X4.2204 Y-2.0072
G01 X4.1327 Y-2.1132
G01 X4.0325 Y-2.2072
G01 X3.9212 Y-2.2878
G01 X3.8007 Y-2.3540
G01 X3.6731 Y-2.4049
G01 X3.5398 Y-2.4389
G01 X3.4036 Y-2.4562
G01 X3.2664 Y-2.4562
G01 X3.1302 Y-2.4389
G01 X2.9969 Y-2.4049
G01 X2.8693 Y-2.3540
G01 X2.7488 Y-2.2878
G01 X2.6375 Y-2.2072
G01 X2.5373 Y-2.1132
G01 X2.4495 Y-2.0072
G01 X2.3431 Y-1.8400
G01 X2.3382 Y-1.8336
G01 X2.3337 Y-1.8290
G01 X2.3287 Y-1.8248
G01 X2.3234 Y-1.8211
G01 X2.2890 Y-1.8000
G01 X2.2836 Y-1.7971
G01 X2.2764 Y-1.7943
G01 X2.2689 Y-1.7924
G01 X2.2272 Y-1.7853
G01 X2.2193 Y-1.7846
G01 X2.2114 Y-1.7849
G01 X2.2036 Y-1.7862
G01 X2.1640 Y-1.7952
G01 X2.1566 Y-1.7976
G01 X2.1509 Y-1.8001
G01 X2.1428 Y-1.8049
G01 X2.1082 Y-1.8292
G01 X2.1009 Y-1.8357
G01 X2.0948 Y-1.8434
G01 X2.0717 Y-1.8785
G01 X2.0686 Y-1.8839
G01 X2.0662 Y-1.8896
G01 X2.0635 Y-1.8985
G01 X2.0555 Y-1.9381
G01 X2.0546 Y-1.9444
G01 X2.0543 Y-1.9507
G01 X2.0544 Y-5.2301
G01 X2.0550 Y-5.2366
G01 X2.0599 Y-5.2681
G01 X2.0626 Y-5.2786
G01 X2.0657 Y-5.2857
G01 X2.0801 Y-5.3145
G01 X2.0841 Y-5.3211
G01 X2.0879 Y-5.3259
G01 X2.1107 Y-5.3506
G01 X2.1156 Y-5.3553
G01 X2.2019 Y-5.4231
G01 X2.3041 Y-5.5252
G01 X2.3928 Y-5.6385
G01 X2.4675 Y-5.7618
G01 X2.5085 Y-5.8532
G01 X2.5114 Y-5.8588
G01 X2.5148 Y-5.8641
G01 X2.5399 Y-5.8993
G01 X2.5463 Y-5.9060
G01 X2.5536 Y-5.9118
G01 X2.5888 Y-5.9343
G01 X2.5958 Y-5.9380
G01 X2.6033 Y-5.9408
G01 X2.6094 Y-5.9424
G01 X2.6486 Y-5.9503
G01 X2.6582 Y-5.9513
G01 X2.6662 Y-5.9510
G01 X2.6725 Y-5.9500
G01 X2.7122 Y-5.9421
G01 X2.7229 Y-5.9387
G01 X2.7314 Y-5.9343
G01 X2.7666 Y-5.9118
G01 X2.7727 Y-5.9071
G01 X2.7793 Y-5.9005
G01 X2.7831 Y-5.8956
G01 X2.8055 Y-5.8641
G01 X2.8089 Y-5.8588
G01 X2.8117 Y-5.8532
G01 X2.8528 Y-5.7618
G01 X2.9270 Y-5.6385
G01 X3.0161 Y-5.5253
G01 X3.1183 Y-5.4231
G01 X3.2315 Y-5.3344
G01 X3.3549 Y-5.2597
G01 X3.4865 Y-5.2004
G01 X3.6243 Y-5.1575
G01 X3.7660 Y-5.1315
G01 X3.9100 Y-5.1228
G01 X4.0541 Y-5.1315
G01 X4.1958 Y-5.1575
G01 X4.3336 Y-5.2004
G01 X4.4652 Y-5.2597
G01 X4.5886 Y-5.3344
G01 X4.7018 Y-5.4231
G01 X4.8040 Y-5.5252
G01 X4.8926 Y-5.6385
G01 X4.9673 Y-5.7618
G01 X5.0084 Y-5.8532
G01 X5.0113 Y-5.8588
G01 X5.0146 Y-5.8641
G01 X5.0398 Y-5.8993
G01 X5.0462 Y-5.9060
G01 X5.0535 Y-5.9118
G01 X5.0887 Y-5.9343
G01 X5.0958 Y-5.9380
G01 X5.1017 Y-5.9404
G01 X5.1079 Y-5.9421
G01 X5.1476 Y-5.9500
G01 X5.1555 Y-5.9511
G01 X5.1635 Y-5.9512
G01 X5.1715 Y-5.9503
G01 X5.2122 Y-5.9420
G01 X5.2213 Y-5.9392
G01 X5.2313 Y-5.9343
G01 X5.2665 Y-5.9118
G01 X5.2726 Y-5.9071
G01 X5.2781 Y-5.9017
G01 X5.2830 Y-5.8956
G01 X5.3053 Y-5.8641
G01 X5.3087 Y-5.8588
G01 X5.3116 Y-5.8532
G01 X5.3526 Y-5.7618
G01 X5.4273 Y-5.6385
G01 X5.5160 Y-5.5252
G01 X5.6182 Y-5.4231
G01 X5.7020 Y-5.3574
G01 X5.7067 Y-5.3533
G01 X5.7318 Y-5.3270
G01 X5.7365 Y-5.3208
G01 X5.7404 Y-5.3141
G01 X5.7550 Y-5.2839
G01 X5.7583 Y-5.2748
G01 X5.7598 Y-5.2685
G01 X5.7646 Y-5.2364
G01 X5.7653 Y-5.2268
G01 X5.7653 Y-2.3221
G01 X5.7649 Y-2.3147
G01 X5.7591 Y-2.2787
G01 X5.7566 Y-2.2693
G01 X5.7534 Y-2.2617
G01 X5.7385 Y-2.2319
G01 X5.7326 Y-2.2228
G01 X5.7253 Y-2.2148
G01 X5.5852 Y-2.0851
G01 X5.4976 Y-1.9793
G01 X5.4242 Y-1.8632
G01 X5.3656 Y-1.7389
G01 X5.3230 Y-1.6080
G01 X5.2976 Y-1.4733
G01 X5.2889 Y-1.3361
G01 X5.2976 Y-1.1988
G01 X5.3230 Y-1.0641
G01 X5.3656 Y-0.9332
G01 X5.4242 Y-0.8089
G01 X5.4976 Y-0.6928
G01 X5.5853 Y-0.5869
G01 X5.6590 Y-0.5181
G01 X5.6635 Y-0.5134
G01 X5.6676 Y-0.5082
G01 X5.6928 Y-0.4725
G01 X5.6973 Y-0.4640
G01 X5.7009 Y-0.4534
G01 X5.7105 Y-0.4096
G01 X5.7113 Y-0.4033
G01 X5.7114 Y-0.3953
G01 X5.7104 Y-0.3874
G01 X5.7030 Y-0.3462
G01 X5.7009 Y-0.3384
G01 X5.6985 Y-0.3324
G01 X5.6947 Y-0.3253
G01 X5.6712 Y-0.2891
G01 X5.6653 Y-0.2818
G01 X5.6585 Y-0.2754
G01 X5.6177 Y-0.2472
G01 X5.6077 Y-0.2424
G01 X5.5987 Y-0.2397
G01 X5.5575 Y-0.2318
G01 X5.5499 Y-0.2308
G01 X5.4488 Y-0.2306
G01 X5.4488 Y-0.1790
G01 X5.4426 Y-0.1791
G01 X5.4287 Y-0.1807
G01 X5.3852 Y-0.1892
G01 X5.3740 Y-0.1922
G01 X5.3647 Y-0.1957
G01 X5.3554 Y-0.2001
G01 X5.3454 Y-0.2060
G01 X5.3105 Y-0.2294
G01 X5.2986 Y-0.2390
G01 X4.4350 Y-1.1025
G01 X4.4256 Y-1.1131
G01 X4.4199 Y-1.1210
G01 X4.3962 Y-1.1576
G01 X4.3909 Y-1.1666
G01 X4.3873 Y-1.1742
G01 X4.3838 Y-1.1831
G01 X4.3810 Y-1.1926
G01 X4.3791 Y-1.2020
G01 X4.3726 Y-1.2469
G01 X4.3715 Y-1.2587
G01 X4.3717 Y-1.2699
G01 X4.3773 Y-1.3638
G01 X4.3691 Y-1.4948
G01 X4.3449 Y-1.6231
G01 X4.3042 Y-1.7478
G01 X4.2484 Y-1.8663
G01 X4.1785 Y-1.9769
G01 X4.0950 Y-2.0778
G01 X3.9995 Y-2.1673
G01 X3.8935 Y-2.2441
G01 X3.7786 Y-2.3072
G01 X3.6571 Y-2.3556
G01 X3.5301 Y-2.3881
G01 X3.4003 Y-2.4045
G01 X3.2697 Y-2.4045
G01 X3.1398 Y-2.3881
G01 X3.0129 Y-2.3556
G01 X2.8914 Y-2.3072
G01 X2.7765 Y-2.2441
G01 X2.6705 Y-2.1673
G01 X2.5750 Y-2.0778
G01 X2.4913 Y-1.9767
G01 X2.3872 Y-1.8131
G01 X2.3822 Y-1.8059
G01 X2.3766 Y-1.7992
G01 X2.3663 Y-1.7889
G01 X2.3548 Y-1.7799
G01 X2.3169 Y-1.7565
G01 X2.3057 Y-1.7505
G01 X2.2929 Y-1.7454
G01 X2.2794 Y-1.7418
G01 X2.2341 Y-1.7341
G01 X2.2268 Y-1.7333
G01 X2.2183 Y-1.7330
G01 X2.2069 Y-1.7335
G01 X2.1944 Y-1.7354
G01 X2.1520 Y-1.7450
G01 X2.1374 Y-1.7496
G01 X2.1258 Y-1.7549
G01 X2.1151 Y-1.7613
G01 X2.0794 Y-1.7862
G01 X2.0737 Y-1.7906
G01 X2.0671 Y-1.7965
G01 X2.0591 Y-1.8051
G01 X2.0519 Y-1.8145
G01 X2.0282 Y-1.8507
G01 X2.0221 Y-1.8615
G01 X2.0168 Y-1.8743
G01 X2.0130 Y-1.8877
G01 X2.0043 Y-1.9314
G01 X2.0030 Y-1.9415
G01 X2.0027 Y-1.9507
G01 X2.0027 Y-5.2268
G01 X2.0029 Y-5.2350
G01 X2.0037 Y-5.2421
G01 X2.0094 Y-5.2792
G01 X2.0117 Y-5.2886
G01 X2.0142 Y-5.2965
G01 X2.0185 Y-5.3068
G01 X2.0342 Y-5.3381
G01 X2.0390 Y-5.3464
G01 X2.0446 Y-5.3545
G01 X2.0521 Y-5.3635
G01 X2.0746 Y-5.3875
G01 X2.0811 Y-5.3938
G01 X2.1676 Y-5.4618
G01 X2.2654 Y-5.5595
G01 X2.3502 Y-5.6679
G01 X2.4217 Y-5.7859
G01 X2.4614 Y-5.8744
G01 X2.4662 Y-5.8839
G01 X2.4723 Y-5.8935
G01 X2.4954 Y-5.9260
G01 X2.5005 Y-5.9326
G01 X2.5061 Y-5.9389
G01 X2.5121 Y-5.9447
G01 X2.5197 Y-5.9510
G01 X2.5266 Y-5.9558
G01 X2.5596 Y-5.9769
G01 X2.5701 Y-5.9829
G01 X2.5806 Y-5.9876
G01 X2.5930 Y-5.9915
G01 X2.6390 Y-6.0010
G01 X2.6475 Y-6.0023
G01 X2.6562 Y-6.0029
G01 X2.6648 Y-6.0028
G01 X2.6747 Y-6.0020
G01 X2.7229 Y-5.9926
G01 X2.7325 Y-5.9900
G01 X2.7407 Y-5.9872
G01 X2.7501 Y-5.9830
G01 X2.7576 Y-5.9788
G01 X2.7983 Y-5.9526
G01 X2.8039 Y-5.9483
G01 X2.8102 Y-5.9428
G01 X2.8205 Y-5.9317
G01 X2.8476 Y-5.8940
G01 X2.8526 Y-5.8864
G01 X2.8586 Y-5.8750
G01 X2.8986 Y-5.7857
G01 X2.9695 Y-5.6679
G01 X3.0547 Y-5.5596
G01 X3.1526 Y-5.4618
G01 X3.2609 Y-5.3770
G01 X3.3790 Y-5.3055
G01 X3.5048 Y-5.2488
G01 X3.6367 Y-5.2078
G01 X3.7722 Y-5.1829
G01 X3.9100 Y-5.1746
G01 X4.0479 Y-5.1829
G01 X4.1834 Y-5.2078
G01 X4.3153 Y-5.2488
G01 X4.4411 Y-5.3055
G01 X4.5592 Y-5.3770
G01 X4.6675 Y-5.4618
G01 X4.7652 Y-5.5595
G01 X4.8501 Y-5.6679
G01 X4.9215 Y-5.7859
G01 X4.9613 Y-5.8744
G01 X4.9667 Y-5.8850
G01 X4.9722 Y-5.8935
G01 X4.9961 Y-5.9273
G01 X5.0022 Y-5.9348
G01 X5.0079 Y-5.9408
G01 X5.0174 Y-5.9493
G01 X5.0264 Y-5.9558
G01 X5.0625 Y-5.9788
G01 X5.0689 Y-5.9824
G01 X5.0767 Y-5.9861
G01 X5.0876 Y-5.9900
G01 X5.0972 Y-5.9926
G01 X5.1397 Y-6.0011
G01 X5.1540 Y-6.0027
G01 X5.1668 Y-6.0027
G01 X5.1811 Y-6.0010
G01 X5.2243 Y-5.9922
G01 X5.2326 Y-5.9900
G01 X5.2407 Y-5.9871
G01 X5.2500 Y-5.9829
G01 X5.2575 Y-5.9788
G01 X5.2948 Y-5.9549
G01 X5.3059 Y-5.9465
G01 X5.3149 Y-5.9380
G01 X5.3204 Y-5.9317
G01 X5.3247 Y-5.9260
G01 X5.3478 Y-5.8935
G01 X5.3532 Y-5.8850
G01 X5.3587 Y-5.8744
G01 X5.3984 Y-5.7859
G01 X5.4699 Y-5.6679
G01 X5.5547 Y-5.5595
G01 X5.6525 Y-5.4618
G01 X5.7338 Y-5.3980
G01 X5.7427 Y-5.3903
G01 X5.7670 Y-5.3649
G01 X5.7730 Y-5.3582
G01 X5.7805 Y-5.3479
G01 X5.7874 Y-5.3357
G01 X5.8024 Y-5.3045
G01 X5.8056 Y-5.2964
G01 X5.8082 Y-5.2881
G01 X5.8107 Y-5.2768
G01 X5.8157 Y-5.2441
G01 X5.8166 Y-5.2361
G01 X5.8169 Y-5.2275
G01 X5.8169 Y-2.3221
G01 X5.8162 Y-2.3094
G01 X5.8097 Y-2.2686
G01 X5.8077 Y-2.2600
G01 X5.8051 Y-2.2516
G01 X5.8006 Y-2.2407
G01 X5.7844 Y-2.2083
G01 X5.7802 Y-2.2010
G01 X5.7748 Y-2.1930
G01 X5.7678 Y-2.1844
G01 X5.7608 Y-2.1773
G01 X5.6228 Y-2.0495
G01 X5.5395 Y-1.9489
G01 X5.4695 Y-1.8383
G01 X5.4137 Y-1.7199
G01 X5.3731 Y-1.5952
G01 X5.3489 Y-1.4669
G01 X5.3407 Y-1.3361
G01 X5.3489 Y-1.2053
G01 X5.3731 Y-1.0769
G01 X5.4137 Y-0.9523
G01 X5.4695 Y-0.8338
G01 X5.5395 Y-0.7232
G01 X5.6229 Y-0.6224
G01 X5.6942 Y-0.5559
G01 X5.7020 Y-0.5479
G01 X5.7094 Y-0.5386
G01 X5.7367 Y-0.4997
G01 X5.7418 Y-0.4907
G01 X5.7454 Y-0.4829
G01 X5.7489 Y-0.4735
G01 X5.7512 Y-0.4651
G01 X5.7616 Y-0.4176
G01 X5.7629 Y-0.4046
G01 X5.7629 Y-0.3919
G01 X5.7614 Y-0.3789
G01 X5.7525 Y-0.3308
G01 X5.7500 Y-0.3224
G01 X5.7469 Y-0.3143
G01 X5.7433 Y-0.3064
G01 X5.7390 Y-0.2988
G01 X5.7134 Y-0.2594
G01 X5.7073 Y-0.2514
G01 X5.7017 Y-0.2451
G01 X5.6947 Y-0.2384
G01 X5.6869 Y-0.2321
G01 X5.6505 Y-0.2069
G01 X5.6433 Y-0.2024
G01 X5.6358 Y-0.1983
G01 X5.6266 Y-0.1943
G01 X5.6185 Y-0.1916
G01 X5.6075 Y-0.1888
G01 X5.5612 Y-0.1801
G01 X5.5530 Y-0.1792
G01 X5.5459 Y-0.1790
G01 X5.4488 Y-0.1790
G00 Z1.0000
G00 X5.8951 Y-2.1669
G01 F25.00
G01 Z-0.0400
G01 F120.00
G01 X5.8951 Y-5.3858
G01 X5.8185 Y-5.4319
G01 X5.7371 Y-5.4921
G01 X5.7322 Y-5.4962
G01 X5.6572 Y-5.5642
G01 X5.5870 Y-5.6417
G01 X5.5266 Y-5.7230
G01 X5.5231 Y-5.7282
G01 X5.4711 Y-5.8152
G01 X5.4277 Y-5.9067
G01 X5.4253 Y-5.9126
G01 X5.3912 Y-6.0080
G01 X5.3658 Y-6.1093
G01 X5.3505 Y-6.2127
G01 X5.3454 Y-6.3138
G01 X5.3454 Y-6.3202
G01 X5.3507 Y-6.4229
G01 X5.3658 Y-6.5247
G01 X5.3912 Y-6.6260
G01 X5.4264 Y-6.7244
G01 X5.4711 Y-6.8188
G01 X5.5248 Y-6.9084
G01 X5.5870 Y-6.9923
G01 X5.6572 Y-7.0698
G01 X5.7346 Y-7.1399
G01 X5.8185 Y-7.2021
G01 X5.9081 Y-7.2558
G01 X6.0025 Y-7.3005
G01 X6.1009 Y-7.3357
G01 X6.2022 Y-7.3611
G01 X6.3056 Y-7.3764
G01 X6.4099 Y-7.3815
G01 X6.5158 Y-7.3762
G01 X6.6176 Y-7.3611
G01 X6.7189 Y-7.3357
G01 X6.8173 Y-7.3005
G01 X6.9089 Y-7.2573
G01 X6.9145 Y-7.2543
G01 X7.0014 Y-7.2021
G01 X7.0828 Y-7.1419
G01 X7.0877 Y-7.1378
G01 X7.1604 Y-7.0719
G01 X7.1649 Y-7.0675
G01 X7.2328 Y-6.9923
G01 X7.2951 Y-6.9084
G01 X7.3488 Y-6.8188
G01 X7.3934 Y-6.7244
G01 X7.4286 Y-6.6260
G01 X7.4540 Y-6.5247
G01 X7.4693 Y-6.4213
G01 X7.4744 Y-6.3202
G01 X7.4744 Y-6.3138
G01 X7.4696 Y-6.2158
G01 X7.4690 Y-6.2095
G01 X7.4540 Y-6.1093
G01 X7.4295 Y-6.0110
G01 X7.4276 Y-6.0050
G01 X7.3934 Y-5.9096
G01 X7.3502 Y-5.8180
G01 X7.3472 Y-5.8124
G01 X7.2951 Y-5.7256
G01 X7.2348 Y-5.6442
G01 X7.2308 Y-5.6393
G01 X7.1627 Y-5.5642
G01 X7.0877 Y-5.4962
G01 X7.0828 Y-5.4921
G01 X7.0014 Y-5.4319
G01 X6.9247 Y-5.3858
G01 X6.9247 Y-2.1338
G01 X6.9949 Y-2.0817
G01 X7.0627 Y-2.0203
G01 X7.0672 Y-2.0158
G01 X7.1265 Y-1.9504
G01 X7.1306 Y-1.9455
G01 X7.1850 Y-1.8719
G01 X7.2337 Y-1.7907
G01 X7.2728 Y-1.7081
G01 X7.2753 Y-1.7022
G01 X7.3060 Y-1.6161
G01 X7.3283 Y-1.5273
G01 X7.3296 Y-1.5211
G01 X7.3429 Y-1.4306
G01 X7.3475 Y-1.3345
G01 X7.3429 Y-1.2415
G01 X7.3296 Y-1.1510
G01 X7.3283 Y-1.1448
G01 X7.3060 Y-1.0561
G01 X7.2753 Y-0.9699
G01 X7.2728 Y-0.9640
G01 X7.2337 Y-0.8814
G01 X7.1867 Y-0.8029
G01 X7.1832 Y-0.7976
G01 X7.1286 Y-0.7242
G01 X7.0672 Y-0.6563
G01 X7.0627 Y-0.6518
G01 X6.9949 Y-0.5905
G01 X6.9215 Y-0.5359
G01 X6.9162 Y-0.5324
G01 X6.8391 Y-0.4862
G01 X6.7521 Y-0.4449
G01 X6.6660 Y-0.4140
G01 X6.6599 Y-0.4122
G01 X6.5712 Y-0.3900
G01 X6.4807 Y-0.3765
G01 X6.4744 Y-0.3759
G01 X6.3830 Y-0.3715
G01 X6.2916 Y-0.3759
G01 X6.2853 Y-0.3765
G01 X6.1948 Y-0.3900
G01 X6.1061 Y-0.4122
G01 X6.1000 Y-0.4140
G01 X6.0139 Y-0.4449
G01 X5.9311 Y-0.4840
G01 X5.9256 Y-0.4870
G01 X5.8471 Y-0.5341
G01 X5.7736 Y-0.5885
G01 X5.7687 Y-0.5925
G01 X5.7010 Y-0.6540
G01 X5.6395 Y-0.7218
G01 X5.6354 Y-0.7267
G01 X5.5810 Y-0.8002
G01 X5.5339 Y-0.8786
G01 X5.5309 Y-0.8842
G01 X5.4919 Y-0.9669
G01 X5.4610 Y-1.0531
G01 X5.4591 Y-1.0591
G01 X5.4370 Y-1.1479
G01 X5.4235 Y-1.2384
G01 X5.4229 Y-1.2447
G01 X5.4185 Y-1.3329
G01 X5.4185 Y-1.3392
G01 X5.4231 Y-1.4306
G01 X5.4364 Y-1.5211
G01 X5.4377 Y-1.5273
G01 X5.4600 Y-1.6161
G01 X5.4907 Y-1.7022
G01 X5.4932 Y-1.7081
G01 X5.5331 Y-1.7921
G01 X5.5793 Y-1.8693
G01 X5.5828 Y-1.8745
G01 X5.6374 Y-1.9480
G01 X5.6999 Y-2.0170
G01 X5.7723 Y-2.0827
G01 X5.8458 Y-2.1372
G01 X5.8951 Y-2.1669
G01 X5.8435 Y-2.1962
G01 X5.8435 Y-5.3566
G01 X5.7880 Y-5.3902
G01 X5.7063 Y-5.4507
G01 X5.7001 Y-5.4556
G01 X5.6211 Y-5.5273
G01 X5.5493 Y-5.6062
G01 X5.5436 Y-5.6134
G01 X5.4851 Y-5.6922
G01 X5.4788 Y-5.7017
G01 X5.4252 Y-5.7914
G01 X5.3801 Y-5.8867
G01 X5.3766 Y-5.8952
G01 X5.3436 Y-5.9876
G01 X5.3403 Y-5.9985
G01 X5.3151 Y-6.0999
G01 X5.2992 Y-6.2070
G01 X5.2939 Y-6.3113
G01 X5.2939 Y-6.3227
G01 X5.2992 Y-6.4270
G01 X5.3148 Y-6.5326
G01 X5.3164 Y-6.5403
G01 X5.3416 Y-6.6404
G01 X5.3785 Y-6.7436
G01 X5.4252 Y-6.8426
G01 X5.4815 Y-6.9366
G01 X5.5467 Y-7.0246
G01 X5.6202 Y-7.1058
G01 X5.7013 Y-7.1794
G01 X5.7851 Y-7.2418
G01 X5.7946 Y-7.2481
G01 X5.8832 Y-7.3011
G01 X5.9776 Y-7.3459
G01 X5.9881 Y-7.3503
G01 X6.0805 Y-7.3833
G01 X6.0914 Y-7.3866
G01 X6.1928 Y-7.4119
G01 X6.3011 Y-7.4279
G01 X6.4106 Y-7.4332
G01 X6.5136 Y-7.4282
G01 X6.5228 Y-7.4274
G01 X6.6283 Y-7.4116
G01 X6.7333 Y-7.3853
G01 X6.8365 Y-7.3485
G01 X6.9310 Y-7.3040
G01 X6.9411 Y-7.2986
G01 X7.0252 Y-7.2481
G01 X7.0347 Y-7.2418
G01 X7.1185 Y-7.1794
G01 X7.1996 Y-7.1058
G01 X7.2723 Y-7.0256
G01 X7.3376 Y-6.9376
G01 X7.3940 Y-6.8437
G01 X7.4388 Y-6.7494
G01 X7.4432 Y-6.7388
G01 X7.4763 Y-6.6464
G01 X7.4796 Y-6.6355
G01 X7.5048 Y-6.5341
G01 X7.5200 Y-6.4321
G01 X7.5211 Y-6.4214
G01 X7.5261 Y-6.3176
G01 X7.5212 Y-6.2133
G01 X7.5200 Y-6.2019
G01 X7.5045 Y-6.0986
G01 X7.4796 Y-5.9985
G01 X7.4763 Y-5.9876
G01 X7.4409 Y-5.8893
G01 X7.3953 Y-5.7928
G01 X7.3915 Y-5.7859
G01 X7.3410 Y-5.7017
G01 X7.3347 Y-5.6922
G01 X7.2723 Y-5.6084
G01 X7.2007 Y-5.5293
G01 X7.1951 Y-5.5238
G01 X7.1223 Y-5.4579
G01 X7.1153 Y-5.4520
G01 X7.0319 Y-5.3902
G01 X6.9763 Y-5.3566
G01 X6.9763 Y-2.1598
G01 X7.0282 Y-2.1212
G01 X7.0991 Y-2.0570
G01 X7.1055 Y-2.0505
G01 X7.1663 Y-1.9834
G01 X7.1720 Y-1.9762
G01 X7.2276 Y-1.9011
G01 X7.2764 Y-1.8201
G01 X7.2802 Y-1.8131
G01 X7.3195 Y-1.7302
G01 X7.3239 Y-1.7196
G01 X7.3556 Y-1.6304
G01 X7.3784 Y-1.5399
G01 X7.3806 Y-1.5287
G01 X7.3942 Y-1.4363
G01 X7.3992 Y-1.3354
G01 X7.3947 Y-1.2421
G01 X7.3936 Y-1.2308
G01 X7.3798 Y-1.1384
G01 X7.3570 Y-1.0466
G01 X7.3536 Y-1.0357
G01 X7.3221 Y-0.9478
G01 X7.2789 Y-0.8565
G01 X7.2310 Y-0.7763
G01 X7.2246 Y-0.7668
G01 X7.1681 Y-0.6909
G01 X7.1055 Y-0.6216
G01 X7.0974 Y-0.6136
G01 X7.0282 Y-0.5509
G01 X6.9522 Y-0.4944
G01 X6.9457 Y-0.4899
G01 X6.8615 Y-0.4396
G01 X6.7713 Y-0.3970
G01 X6.6774 Y-0.3634
G01 X6.5806 Y-0.3393
G01 X6.4820 Y-0.3247
G01 X6.3824 Y-0.3199
G01 X6.2828 Y-0.3248
G01 X6.1841 Y-0.3395
G01 X6.0874 Y-0.3638
G01 X5.9935 Y-0.3975
G01 X5.9034 Y-0.4402
G01 X5.8179 Y-0.4915
G01 X5.7378 Y-0.5509
G01 X5.6640 Y-0.6180
G01 X5.5971 Y-0.6919
G01 X5.5414 Y-0.7668
G01 X5.5369 Y-0.7734
G01 X5.4865 Y-0.8576
G01 X5.4439 Y-0.9478
G01 X5.4104 Y-1.0417
G01 X5.3862 Y-1.1384
G01 X5.3716 Y-1.2371
G01 X5.3668 Y-1.3367
G01 X5.3718 Y-1.4363
G01 X5.3854 Y-1.5287
G01 X5.3868 Y-1.5365
G01 X5.4108 Y-1.6316
G01 X5.4444 Y-1.7255
G01 X5.4871 Y-1.8156
G01 X5.5350 Y-1.8958
G01 X5.5393 Y-1.9025
G01 X5.5979 Y-1.9812
G01 X5.6605 Y-2.0505
G01 X5.6660 Y-2.0562
G01 X5.7340 Y-2.1179
G01 X5.7401 Y-2.1230
G01 X5.8156 Y-2.1790
G01 X5.8227 Y-2.1837
G01 X5.8435 Y-2.1962
G00 Z1.0000
G00 X5.1095 Y-6.5336
G01 F25.00
G01 Z-0.0400
G01 F120.00
G01 X5.1224 Y-6.4467
G01 X5.1237 Y-6.4356
G01 X5.1295 Y-6.3176
G01 X5.1293 Y-6.3062
G01 X5.1238 Y-6.1990
G01 X5.1224 Y-6.1873
G01 X5.1095 Y-6.1004
G01 X5.1235 Y-6.1031
G01 X5.1349 Y-6.1047
G01 X5.1477 Y-6.1058
G01 X5.1599 Y-6.1062
G01 X5.1721 Y-6.1059
G01 X5.1842 Y-6.1049
G01 X5.1969 Y-6.1031
G01 X5.2104 Y-6.1005
G01 X5.1976 Y-6.1873
G01 X5.1962 Y-6.1990
G01 X5.1907 Y-6.3062
G01 X5.1905 Y-6.3176
G01 X5.1962 Y-6.4356
G01 X5.1976 Y-6.4467
G01 X5.2104 Y-6.5335
G01 X5.1969 Y-6.5309
G01 X5.1842 Y-6.5291
G01 X5.1721 Y-6.5281
G01 X5.1599 Y-6.5278
G01 X5.1477 Y-6.5282
G01 X5.1349 Y-6.5293
G01 X5.1235 Y-6.5309
G01 X5.1095 Y-6.5336
G01 X5.0396 Y-6.6088
G01 X5.0537 Y-6.5526
G01 X5.0560 Y-6.5420
G01 X5.0716 Y-6.4368
G01 X5.0728 Y-6.4236
G01 X5.0779 Y-6.3176
G01 X5.0729 Y-6.2107
G01 X5.0716 Y-6.1972
G01 X5.0560 Y-6.0920
G01 X5.0537 Y-6.0814
G01 X5.0396 Y-6.0253
G01 X5.0504 Y-6.0308
G01 X5.0607 Y-6.0353
G01 X5.0718 Y-6.0392
G01 X5.0823 Y-6.0421
G01 X5.1343 Y-6.0525
G01 X5.1473 Y-6.0541
G01 X5.1598 Y-6.0546
G01 X5.1736 Y-6.0540
G01 X5.1866 Y-6.0525
G01 X5.2380 Y-6.0421
G01 X5.2484 Y-6.0391
G01 X5.2595 Y-6.0352
G01 X5.2697 Y-6.0308
G01 X5.2803 Y-6.0253
G01 X5.2663 Y-6.0814
G01 X5.2640 Y-6.0920
G01 X5.2483 Y-6.1972
G01 X5.2471 Y-6.2107
G01 X5.2421 Y-6.3176
G01 X5.2471 Y-6.4236
G01 X5.2483 Y-6.4368
G01 X5.2640 Y-6.5420
G01 X5.2663 Y-6.5526
G01 X5.2803 Y-6.6088
G01 X5.2697 Y-6.6033
G01 X5.2595 Y-6.5988
G01 X5.2484 Y-6.5949
G01 X5.2380 Y-6.5920
G01 X5.1866 Y-6.5815
G01 X5.1736 Y-6.5800
G01 X5.1598 Y-6.5795
G01 X5.1473 Y-6.5800
G01 X5.1343 Y-6.5815
G01 X5.0823 Y-6.5919
G01 X5.0718 Y-6.5948
G01 X5.0607 Y-6.5987
G01 X5.0504 Y-6.6032
G01 X5.0396 Y-6.6088
G00 Z1.0000
G00 X2.6094 Y-6.5336
G01 F25.00
G01 Z-0.0400
G01 F120.00
G01 X2.6223 Y-6.4467
G01 X2.6236 Y-6.4356
G01 X2.6294 Y-6.3176
G01 X2.6291 Y-6.3062
G01 X2.6237 Y-6.1990
G01 X2.6223 Y-6.1873
G01 X2.6094 Y-6.1004
G01 X2.6232 Y-6.1031
G01 X2.6359 Y-6.1049
G01 X2.6480 Y-6.1059
G01 X2.6602 Y-6.1062
G01 X2.6724 Y-6.1058
G01 X2.6852 Y-6.1047
G01 X2.6966 Y-6.1031
G01 X2.7106 Y-6.1004
G01 X2.6977 Y-6.1873
G01 X2.6963 Y-6.1990
G01 X2.6908 Y-6.3062
G01 X2.6906 Y-6.3176
G01 X2.6964 Y-6.4356
G01 X2.6977 Y-6.4467
G01 X2.7106 Y-6.5336
G01 X2.6966 Y-6.5309
G01 X2.6852 Y-6.5293
G01 X2.6724 Y-6.5282
G01 X2.6602 Y-6.5278
G01 X2.6480 Y-6.5281
G01 X2.6359 Y-6.5291
G01 X2.6232 Y-6.5309
G01 X2.6094 Y-6.5336
G01 X2.5395 Y-6.6089
G01 X2.5556 Y-6.5436
G01 X2.5715 Y-6.4368
G01 X2.5727 Y-6.4236
G01 X2.5778 Y-6.3176
G01 X2.5727 Y-6.2107
G01 X2.5715 Y-6.1972
G01 X2.5556 Y-6.0904
G01 X2.5395 Y-6.0251
G01 X2.5492 Y-6.0302
G01 X2.5600 Y-6.0350
G01 X2.5702 Y-6.0386
G01 X2.5821 Y-6.0421
G01 X2.6335 Y-6.0525
G01 X2.6465 Y-6.0540
G01 X2.6603 Y-6.0546
G01 X2.6728 Y-6.0541
G01 X2.6858 Y-6.0525
G01 X2.7378 Y-6.0422
G01 X2.7482 Y-6.0392
G01 X2.7594 Y-6.0353
G01 X2.7697 Y-6.0308
G01 X2.7805 Y-6.0253
G01 X2.7664 Y-6.0814
G01 X2.7641 Y-6.0920
G01 X2.7485 Y-6.1972
G01 X2.7472 Y-6.2107
G01 X2.7422 Y-6.3176
G01 X2.7473 Y-6.4236
G01 X2.7485 Y-6.4368
G01 X2.7641 Y-6.5420
G01 X2.7664 Y-6.5526
G01 X2.7805 Y-6.6088
G01 X2.7697 Y-6.6032
G01 X2.7594 Y-6.5987
G01 X2.7482 Y-6.5948
G01 X2.7378 Y-6.5919
G01 X2.6858 Y-6.5815
G01 X2.6728 Y-6.5800
G01 X2.6603 Y-6.5795
G01 X2.6465 Y-6.5800
G01 X2.6335 Y-6.5815
G01 X2.5821 Y-6.5920
G01 X2.5702 Y-6.5954
G01 X2.5600 Y-6.5991
G01 X2.5492 Y-6.6038
G01 X2.5395 Y-6.6089
G00 Z1.0000
G00 X0.1095 Y-6.5336
G01 F25.00
G01 Z-0.0400
G01 F120.00
G01 X0.1224 Y-6.4467
G01 X0.1237 Y-6.4356
G01 X0.1295 Y-6.3176
G01 X0.1293 Y-6.3062
G01 X0.1238 Y-6.1990
G01 X0.1224 Y-6.1873
G01 X0.1095 Y-6.1005
G01 X0.1232 Y-6.1031
G01 X0.1346 Y-6.1047
G01 X0.1473 Y-6.1058
G01 X0.1594 Y-6.1062
G01 X0.1724 Y-6.1058
G01 X0.1851 Y-6.1048
G01 X0.1968 Y-6.1031
G01 X0.2105 Y-6.1005
G01 X0.1976 Y-6.1873
G01 X0.1962 Y-6.1990
G01 X0.1907 Y-6.3062
G01 X0.1905 Y-6.3176
G01 X0.1962 Y-6.4356
G01 X0.1976 Y-6.4467
G01 X0.2105 Y-6.5336
G01 X0.1968 Y-6.5309
G01 X0.1851 Y-6.5293
G01 X0.1724 Y-6.5282
G01 X0.1594 Y-6.5278
G01 X0.1473 Y-6.5282
G01 X0.1346 Y-6.5293
G01 X0.1232 Y-6.5309
G01 X0.1095 Y-6.5336
G01 X0.0397 Y-6.6086
G01 X0.0537 Y-6.5526
G01 X0.0560 Y-6.5420
G01 X0.0716 Y-6.4368
G01 X0.0729 Y-6.4236
G01 X0.0779 Y-6.3176
G01 X0.0729 Y-6.2107
G01 X0.0716 Y-6.1972
G01 X0.0560 Y-6.0920
G01 X0.0537 Y-6.0814
G01 X0.0397 Y-6.0254
G01 X0.0501 Y-6.0308
G01 X0.0604 Y-6.0353
G01 X0.0716 Y-6.0392
G01 X0.0821 Y-6.0422
G01 X0.1340 Y-6.0525
G01 X0.1470 Y-6.0540
G01 X0.1594 Y-6.0546
G01 X0.1730 Y-6.0540
G01 X0.1860 Y-6.0525
G01 X0.2379 Y-6.0421
G01 X0.2484 Y-6.0392
G01 X0.2596 Y-6.0353
G01 X0.2699 Y-6.0308
G01 X0.2803 Y-6.0254
G01 X0.2663 Y-6.0814
G01 X0.2640 Y-6.0920
G01 X0.2483 Y-6.1972
G01 X0.2471 Y-6.2107
G01 X0.2421 Y-6.3176
G01 X0.2471 Y-6.4236
G01 X0.2483 Y-6.4368
G01 X0.2640 Y-6.5420
G01 X0.2663 Y-6.5526
G01 X0.2803 Y-6.6086
G01 X0.2699 Y-6.6032
G01 X0.2596 Y-6.5987
G01 X0.2484 Y-6.5948
G01 X0.2379 Y-6.5919
G01 X0.1860 Y-6.5815
G01 X0.1730 Y-6.5800
G01 X0.1594 Y-6.5795
G01 X0.1470 Y-6.5800
G01 X0.1340 Y-6.5815
G01 X0.0821 Y-6.5919
G01 X0.0716 Y-6.5948
G01 X0.0604 Y-6.5987
G01 X0.0501 Y-6.6032
G01 X0.0397 Y-6.6086
G00 Z1.0000
G00 X-2.3906 Y-6.5336
G01 F25.00
G01 Z-0.0400
G01 F120.00
G01 X-2.3777 Y-6.4467
G01 X-2.3764 Y-6.4356
G01 X-2.3706 Y-6.3176
G01 X-2.3709 Y-6.3062
G01 X-2.3763 Y-6.1990
G01 X-2.3777 Y-6.1873
G01 X-2.3906 Y-6.1004
G01 X-2.3766 Y-6.1031
G01 X-2.3652 Y-6.1047
G01 X-2.3524 Y-6.1058
G01 X-2.3402 Y-6.1062
G01 X-2.3280 Y-6.1059
G01 X-2.3159 Y-6.1049
G01 X-2.3032 Y-6.1031
G01 X-2.2894 Y-6.1004
G01 X-2.3023 Y-6.1873
G01 X-2.3037 Y-6.1990
G01 X-2.3091 Y-6.3062
G01 X-2.3094 Y-6.3176
G01 X-2.3036 Y-6.4356
G01 X-2.3023 Y-6.4467
G01 X-2.2894 Y-6.5336
G01 X-2.3032 Y-6.5309
G01 X-2.3159 Y-6.5291
G01 X-2.3280 Y-6.5281
G01 X-2.3402 Y-6.5278
G01 X-2.3524 Y-6.5282
G01 X-2.3652 Y-6.5293
G01 X-2.3766 Y-6.5309
G01 X-2.3906 Y-6.5336
G01 X-2.4605 Y-6.6088
G01 X-2.4464 Y-6.5526
G01 X-2.4441 Y-6.5420
G01 X-2.4285 Y-6.4368
G01 X-2.4273 Y-6.4236
G01 X-2.4222 Y-6.3176
G01 X-2.4272 Y-6.2107
G01 X-2.4285 Y-6.1972
G01 X-2.4441 Y-6.0920
G01 X-2.4464 Y-6.0814
G01 X-2.4605 Y-6.0253
G01 X-2.4497 Y-6.0308
G01 X-2.4394 Y-6.0353
G01 X-2.4283 Y-6.0392
G01 X-2.4178 Y-6.0421
G01 X-2.3658 Y-6.0525
G01 X-2.3528 Y-6.0541
G01 X-2.3403 Y-6.0546
G01 X-2.3265 Y-6.0540
G01 X-2.3135 Y-6.0525
G01 X-2.2621 Y-6.0421
G01 X-2.2517 Y-6.0391
G01 X-2.2400 Y-6.0350
G01 X-2.2292 Y-6.0302
G01 X-2.2195 Y-6.0251
G01 X-2.2356 Y-6.0904
G01 X-2.2515 Y-6.1972
G01 X-2.2528 Y-6.2107
G01 X-2.2578 Y-6.3176
G01 X-2.2527 Y-6.4236
G01 X-2.2515 Y-6.4368
G01 X-2.2356 Y-6.5436
G01 X-2.2195 Y-6.6089
G01 X-2.2292 Y-6.6038
G01 X-2.2400 Y-6.5991
G01 X-2.2502 Y-6.5954
G01 X-2.2621 Y-6.5920
G01 X-2.3135 Y-6.5815
G01 X-2.3265 Y-6.5800
G01 X-2.3403 Y-6.5795
G01 X-2.3528 Y-6.5800
G01 X-2.3658 Y-6.5815
G01 X-2.4178 Y-6.5919
G01 X-2.4283 Y-6.5948
G01 X-2.4394 Y-6.5987
G01 X-2.4497 Y-6.6032
G01 X-2.4605 Y-6.6088
G00 Z1.0000
G00 X-4.7197 Y-6.0253
G01 F25.00
G01 Z-0.0400
G01 F120.00
G01 X-4.7337 Y-6.0814
G01 X-4.7360 Y-6.0920
G01 X-4.7516 Y-6.1972
G01 X-4.7529 Y-6.2107
G01 X-4.7579 Y-6.3176
G01 X-4.7529 Y-6.4236
G01 X-4.7516 Y-6.4368
G01 X-4.7360 Y-6.5420
G01 X-4.7337 Y-6.5526
G01 X-4.7196 Y-6.6088
G01 X-4.7302 Y-6.6033
G01 X-4.7405 Y-6.5988
G01 X-4.7516 Y-6.5949
G01 X-4.7620 Y-6.5920
G01 X-4.8133 Y-6.5815
G01 X-4.8264 Y-6.5800
G01 X-4.8402 Y-6.5795
G01 X-4.8527 Y-6.5800
G01 X-4.8657 Y-6.5815
G01 X-4.9176 Y-6.5919
G01 X-4.9281 Y-6.5948
G01 X-4.9393 Y-6.5987
G01 X-4.9496 Y-6.6032
G01 X-4.9603 Y-6.6088
G01 X-4.9463 Y-6.5526
G01 X-4.9440 Y-6.5420
G01 X-4.9431 Y-6.5367
G01 X-4.9287 Y-6.4396
G01 X-4.9283 Y-6.4368
G01 X-4.9271 Y-6.4236
G01 X-4.9221 Y-6.3176
G01 X-4.9223 Y-6.3088
G01 X-4.9271 Y-6.2107
G01 X-4.9283 Y-6.1972
G01 X-4.9440 Y-6.0920
G01 X-4.9463 Y-6.0814
G01 X-4.9603 Y-6.0253
G01 X-4.9496 Y-6.0308
G01 X-4.9393 Y-6.0353
G01 X-4.9281 Y-6.0392
G01 X-4.9176 Y-6.0421
G01 X-4.8657 Y-6.0525
G01 X-4.8527 Y-6.0541
G01 X-4.8402 Y-6.0546
G01 X-4.8264 Y-6.0540
G01 X-4.8133 Y-6.0525
G01 X-4.7620 Y-6.0421
G01 X-4.7516 Y-6.0391
G01 X-4.7405 Y-6.0352
G01 X-4.7302 Y-6.0308
G01 X-4.7197 Y-6.0253
G01 X-4.9739 Y-6.3227
G01 X-4.9739 Y-6.3113
G01 X-4.9791 Y-6.2082
G01 X-4.9951 Y-6.0999
G01 X-5.0216 Y-5.9936
G01 X-5.0585 Y-5.8904
G01 X-5.1052 Y-5.7914
G01 X-5.1615 Y-5.6974
G01 X-5.2267 Y-5.6094
G01 X-5.3002 Y-5.5282
G01 X-5.3813 Y-5.4546
G01 X-5.4693 Y-5.3893
G01 X-5.5643 Y-5.3323
G01 X-5.6634 Y-5.2855
G01 X-5.7665 Y-5.2487
G01 X-5.8728 Y-5.2221
G01 X-5.9812 Y-5.2061
G01 X-6.0842 Y-5.2010
G01 X-6.0934 Y-5.2009
G01 X-6.2000 Y-5.2063
G01 X-6.3071 Y-5.2221
G01 X-6.4133 Y-5.2487
G01 X-6.5118 Y-5.2837
G01 X-6.5223 Y-5.2881
G01 X-6.6110 Y-5.3300
G01 X-6.6211 Y-5.3354
G01 X-6.7106 Y-5.3893
G01 X-6.7985 Y-5.4546
G01 X-6.8796 Y-5.5282
G01 X-6.9524 Y-5.6084
G01 X-7.0177 Y-5.6964
G01 X-7.0715 Y-5.7859
G01 X-7.0769 Y-5.7959
G01 X-7.1188 Y-5.8846
G01 X-7.1232 Y-5.8952
G01 X-7.1582 Y-5.9936
G01 X-7.1848 Y-6.0999
G01 X-7.2008 Y-6.2082
G01 X-7.2061 Y-6.3176
G01 X-7.2007 Y-6.4270
G01 X-7.1845 Y-6.5354
G01 X-7.1579 Y-6.6416
G01 X-7.1209 Y-6.7447
G01 X-7.0740 Y-6.8437
G01 X-7.0177 Y-6.9376
G01 X-6.9524 Y-7.0256
G01 X-6.8787 Y-7.1067
G01 X-6.7975 Y-7.1802
G01 X-6.7095 Y-7.2454
G01 X-6.6155 Y-7.3017
G01 X-6.5165 Y-7.3485
G01 X-6.4133 Y-7.3853
G01 X-6.3071 Y-7.4119
G01 X-6.1987 Y-7.4279
G01 X-6.0893 Y-7.4332
G01 X-5.9799 Y-7.4277
G01 X-5.8778 Y-7.4127
G01 X-5.8666 Y-7.4105
G01 X-5.7653 Y-7.3849
G01 X-5.6681 Y-7.3503
G01 X-5.6576 Y-7.3459
G01 X-5.5689 Y-7.3040
G01 X-5.5588 Y-7.2986
G01 X-5.4703 Y-7.2454
G01 X-5.3823 Y-7.1802
G01 X-5.3002 Y-7.1058
G01 X-5.2267 Y-7.0246
G01 X-5.1615 Y-6.9366
G01 X-5.1083 Y-6.8481
G01 X-5.1030 Y-6.8381
G01 X-5.0590 Y-6.7447
G01 X-5.0236 Y-6.6464
G01 X-5.0203 Y-6.6355
G01 X-4.9964 Y-6.5403
G01 X-4.9942 Y-6.5291
G01 X-4.9792 Y-6.4270
G01 X-4.9787 Y-6.4207
G01 X-4.9739 Y-6.3227
G01 X-5.0255 Y-6.3202
G01 X-5.0255 Y-6.3138
G01 X-5.0303 Y-6.2158
G01 X-5.0309 Y-6.2095
G01 X-5.0458 Y-6.1093
G01 X-5.0712 Y-6.0080
G01 X-5.1053 Y-5.9126
G01 X-5.1077 Y-5.9067
G01 X-5.1511 Y-5.8152
G01 X-5.2039 Y-5.7269
G01 X-5.2670 Y-5.6417
G01 X-5.3350 Y-5.5665
G01 X-5.3395 Y-5.5621
G01 X-5.4146 Y-5.4941
G01 X-5.4959 Y-5.4337
G01 X-5.5012 Y-5.4302
G01 X-5.5881 Y-5.3782
G01 X-5.6796 Y-5.3348
G01 X-5.6855 Y-5.3323
G01 X-5.7809 Y-5.2983
G01 X-5.8792 Y-5.2736
G01 X-5.8854 Y-5.2724
G01 X-5.9856 Y-5.2576
G01 X-6.0868 Y-5.2525
G01 X-6.0931 Y-5.2525
G01 X-6.1943 Y-5.2576
G01 X-6.2945 Y-5.2724
G01 X-6.3007 Y-5.2736
G01 X-6.3990 Y-5.2983
G01 X-6.4944 Y-5.3323
G01 X-6.5002 Y-5.3348
G01 X-6.5918 Y-5.3782
G01 X-6.6800 Y-5.4310
G01 X-6.7653 Y-5.4941
G01 X-6.8404 Y-5.5621
G01 X-6.8449 Y-5.5665
G01 X-6.9128 Y-5.6417
G01 X-6.9732 Y-5.7230
G01 X-6.9768 Y-5.7282
G01 X-7.0288 Y-5.8152
G01 X-7.0734 Y-5.9096
G01 X-7.1076 Y-6.0050
G01 X-7.1095 Y-6.0110
G01 X-7.1340 Y-6.1093
G01 X-7.1490 Y-6.2095
G01 X-7.1496 Y-6.2158
G01 X-7.1545 Y-6.3170
G01 X-7.1496 Y-6.4182
G01 X-7.1490 Y-6.4245
G01 X-7.1340 Y-6.5247
G01 X-7.1095 Y-6.6230
G01 X-7.1076 Y-6.6290
G01 X-7.0734 Y-6.7244
G01 X-7.0288 Y-6.8188
G01 X-6.9768 Y-6.9058
G01 X-6.9732 Y-6.9110
G01 X-6.9128 Y-6.9923
G01 X-6.8449 Y-7.0675
G01 X-6.8404 Y-7.0719
G01 X-6.7653 Y-7.1399
G01 X-6.6840 Y-7.2003
G01 X-6.6787 Y-7.2038
G01 X-6.5918 Y-7.2558
G01 X-6.5002 Y-7.2992
G01 X-6.4944 Y-7.3017
G01 X-6.3990 Y-7.3357
G01 X-6.3007 Y-7.3604
G01 X-6.2945 Y-7.3616
G01 X-6.1943 Y-7.3764
G01 X-6.0931 Y-7.3815
G01 X-6.0868 Y-7.3815
G01 X-5.9856 Y-7.3764
G01 X-5.8854 Y-7.3616
G01 X-5.8792 Y-7.3604
G01 X-5.7809 Y-7.3357
G01 X-5.6855 Y-7.3017
G01 X-5.6796 Y-7.2992
G01 X-5.5909 Y-7.2573
G01 X-5.5853 Y-7.2543
G01 X-5.4985 Y-7.2021
G01 X-5.4171 Y-7.1419
G01 X-5.4122 Y-7.1378
G01 X-5.3372 Y-7.0698
G01 X-5.2691 Y-6.9947
G01 X-5.2651 Y-6.9898
G01 X-5.2048 Y-6.9084
G01 X-5.1526 Y-6.8216
G01 X-5.1497 Y-6.8160
G01 X-5.1064 Y-6.7244
G01 X-5.0722 Y-6.6290
G01 X-5.0704 Y-6.6230
G01 X-5.0458 Y-6.5247
G01 X-5.0309 Y-6.4245
G01 X-5.0303 Y-6.4182
G01 X-5.0255 Y-6.3202
G01 X-4.8905 Y-6.5336
G01 X-4.8776 Y-6.4467
G01 X-4.8762 Y-6.4356
G01 X-4.8705 Y-6.3176
G01 X-4.8707 Y-6.3062
G01 X-4.8755 Y-6.2081
G01 X-4.8756 Y-6.2077
G01 X-4.8756 Y-6.2076
G01 X-4.8756 Y-6.2069
G01 X-4.8756 Y-6.2063
G01 X-4.8758 Y-6.2035
G01 X-4.8762 Y-6.1990
G01 X-4.8776 Y-6.1873
G01 X-4.8905 Y-6.1004
G01 X-4.8765 Y-6.1031
G01 X-4.8650 Y-6.1047
G01 X-4.8523 Y-6.1058
G01 X-4.8401 Y-6.1062
G01 X-4.8279 Y-6.1059
G01 X-4.8158 Y-6.1049
G01 X-4.8031 Y-6.1031
G01 X-4.7895 Y-6.1005
G01 X-4.8023 Y-6.1868
G01 X-4.8024 Y-6.1873
G01 X-4.8038 Y-6.1990
G01 X-4.8093 Y-6.3062
G01 X-4.8095 Y-6.3176
G01 X-4.8037 Y-6.4356
G01 X-4.8024 Y-6.4467
G01 X-4.7895 Y-6.5335
G01 X-4.8031 Y-6.5309
G01 X-4.8158 Y-6.5291
G01 X-4.8279 Y-6.5281
G01 X-4.8401 Y-6.5278
G01 X-4.8523 Y-6.5282
G01 X-4.8650 Y-6.5293
G01 X-4.8765 Y-6.5309
G01 X-4.8905 Y-6.5336
G00 Z1.0000
G00 X-4.3847 Y-2.0798
G01 F25.00
G01 Z-0.0400
G01 F120.00
G01 X-4.3960 Y-2.0783
G01 X-4.4025 Y-2.0783
G01 X-4.4090 Y-2.0790
G01 X-4.4519 Y-2.0871
G01 X-4.4610 Y-2.0900
G01 X-4.4682 Y-2.0934
G01 X-4.5045 Y-2.1159
G01 X-4.5122 Y-2.1215
G01 X-4.6036 Y-2.2072
G01 X-4.7148 Y-2.2878
G01 X-4.8353 Y-2.3540
G01 X-4.9629 Y-2.4049
G01 X-5.0962 Y-2.4389
G01 X-5.2324 Y-2.4562
G01 X-5.3724 Y-2.4562
G01 X-5.4261 Y-2.4541
G01 X-5.4369 Y-2.4549
G01 X-5.4474 Y-2.4575
G01 X-5.4778 Y-2.4676
G01 X-5.4849 Y-2.4707
G01 X-5.4929 Y-2.4754
G01 X-5.5216 Y-2.4966
G01 X-5.5265 Y-2.5010
G01 X-8.0370 Y-5.0110
G01 X-8.0414 Y-5.0158
G01 X-8.0452 Y-5.0210
G01 X-8.0679 Y-5.0554
G01 X-8.0723 Y-5.0638
G01 X-8.0746 Y-5.0697
G01 X-8.0766 Y-5.0773
G01 X-8.0845 Y-5.1180
G01 X-8.0854 Y-5.1288
G01 X-8.0854 Y-6.8702
G01 X-8.0851 Y-6.8764
G01 X-8.0842 Y-6.8826
G01 X-8.0763 Y-6.9233
G01 X-8.0740 Y-6.9310
G01 X-8.0709 Y-6.9384
G01 X-8.0668 Y-6.9453
G01 X-8.0441 Y-6.9791
G01 X-8.0370 Y-6.9875
G01 X-6.9875 Y-8.0370
G01 X-6.9791 Y-8.0441
G01 X-6.9440 Y-8.0677
G01 X-6.9384 Y-8.0709
G01 X-6.9325 Y-8.0735
G01 X-6.9233 Y-8.0763
G01 X-6.8826 Y-8.0842
G01 X-6.8764 Y-8.0851
G01 X-6.8702 Y-8.0854
G01 X2.1149 Y-8.0852
G01 X2.1226 Y-8.0842
G01 X2.1632 Y-8.0763
G01 X2.1740 Y-8.0729
G01 X2.1798 Y-8.0701
G01 X2.1853 Y-8.0668
G01 X2.2191 Y-8.0441
G01 X2.2264 Y-8.0381
G01 X2.9732 Y-7.2913
G01 X2.9796 Y-7.2838
G01 X3.0014 Y-7.2525
G01 X3.0048 Y-7.2471
G01 X3.0076 Y-7.2414
G01 X3.0107 Y-7.2324
G01 X3.0198 Y-7.1953
G01 X3.0210 Y-7.1890
G01 X3.0215 Y-7.1826
G01 X3.0214 Y-7.1746
G01 X3.0169 Y-7.1348
G01 X3.0153 Y-7.1268
G01 X3.0121 Y-7.1176
G01 X2.9927 Y-7.0807
G01 X2.9884 Y-7.0737
G01 X2.9270 Y-6.9955
G01 X2.8528 Y-6.8723
G01 X2.8117 Y-6.7808
G01 X2.8072 Y-6.7725
G01 X2.7822 Y-6.7371
G01 X2.7750 Y-6.7290
G01 X2.7666 Y-6.7222
G01 X2.7300 Y-6.6989
G01 X2.7229 Y-6.6953
G01 X2.7137 Y-6.6923
G01 X2.6725 Y-6.6840
G01 X2.6630 Y-6.6828
G01 X2.6518 Y-6.6832
G01 X2.6079 Y-6.6920
G01 X2.6018 Y-6.6937
G01 X2.5958 Y-6.6960
G01 X2.5888 Y-6.6997
G01 X2.5536 Y-6.7222
G01 X2.5463 Y-6.7280
G01 X2.5399 Y-6.7347
G01 X2.5148 Y-6.7699
G01 X2.5114 Y-6.7752
G01 X2.5085 Y-6.7808
G01 X2.4675 Y-6.8722
G01 X2.3928 Y-6.9955
G01 X2.3041 Y-7.1088
G01 X2.2019 Y-7.2109
G01 X2.0883 Y-7.3001
G01 X1.9649 Y-7.3743
G01 X1.8332 Y-7.4336
G01 X1.6959 Y-7.4765
G01 X1.5538 Y-7.5025
G01 X1.4102 Y-7.5112
G01 X1.2661 Y-7.5025
G01 X1.1244 Y-7.4765
G01 X0.9866 Y-7.4336
G01 X0.8550 Y-7.3743
G01 X0.7316 Y-7.3001
G01 X0.6180 Y-7.2110
G01 X0.5162 Y-7.1088
G01 X0.4270 Y-6.9955
G01 X0.3524 Y-6.8722
G01 X0.3113 Y-6.7808
G01 X0.3087 Y-6.7755
G01 X0.2837 Y-6.7389
G01 X0.2787 Y-6.7327
G01 X0.2731 Y-6.7271
G01 X0.2668 Y-6.7223
G01 X0.2316 Y-6.6997
G01 X0.2230 Y-6.6953
G01 X0.2123 Y-6.6919
G01 X0.1727 Y-6.6840
G01 X0.1648 Y-6.6829
G01 X0.1568 Y-6.6828
G01 X0.1489 Y-6.6837
G01 X0.1077 Y-6.6919
G01 X0.1015 Y-6.6937
G01 X0.0955 Y-6.6960
G01 X0.0884 Y-6.6997
G01 X0.0532 Y-6.7222
G01 X0.0457 Y-6.7282
G01 X0.0402 Y-6.7339
G01 X0.0363 Y-6.7389
G01 X0.0113 Y-6.7755
G01 X0.0087 Y-6.7808
G01 X-0.0324 Y-6.8722
G01 X-0.1070 Y-6.9955
G01 X-0.1962 Y-7.1088
G01 X-0.2980 Y-7.2110
G01 X-0.4116 Y-7.3001
G01 X-0.5350 Y-7.3743
G01 X-0.6666 Y-7.4336
G01 X-0.8044 Y-7.4765
G01 X-0.9461 Y-7.5025
G01 X-1.0902 Y-7.5112
G01 X-1.2338 Y-7.5025
G01 X-1.3760 Y-7.4765
G01 X-1.5133 Y-7.4336
G01 X-1.6449 Y-7.3743
G01 X-1.7683 Y-7.3001
G01 X-1.8820 Y-7.2109
G01 X-1.9841 Y-7.1088
G01 X-2.0728 Y-6.9955
G01 X-2.1475 Y-6.8722
G01 X-2.1885 Y-6.7808
G01 X-2.1914 Y-6.7752
G01 X-2.1948 Y-6.7699
G01 X-2.2171 Y-6.7384
G01 X-2.2230 Y-6.7312
G01 X-2.2287 Y-6.7259
G01 X-2.2349 Y-6.7214
G01 X-2.2688 Y-6.6997
G01 X-2.2788 Y-6.6948
G01 X-2.2879 Y-6.6920
G01 X-2.3286 Y-6.6837
G01 X-2.3366 Y-6.6828
G01 X-2.3430 Y-6.6828
G01 X-2.3510 Y-6.6837
G01 X-2.3922 Y-6.6919
G01 X-2.3984 Y-6.6937
G01 X-2.4043 Y-6.6960
G01 X-2.4114 Y-6.6997
G01 X-2.4466 Y-6.7222
G01 X-2.4539 Y-6.7280
G01 X-2.4593 Y-6.7335
G01 X-2.4631 Y-6.7384
G01 X-2.4855 Y-6.7698
G01 X-2.4889 Y-6.7752
G01 X-2.4917 Y-6.7808
G01 X-2.5328 Y-6.8723
G01 X-2.6070 Y-6.9955
G01 X-2.6961 Y-7.1087
G01 X-2.7984 Y-7.2110
G01 X-2.9115 Y-7.3001
G01 X-3.0348 Y-7.3743
G01 X-3.1665 Y-7.4336
G01 X-3.3043 Y-7.4765
G01 X-3.4460 Y-7.5025
G01 X-3.5901 Y-7.5112
G01 X-3.7342 Y-7.5025
G01 X-3.8758 Y-7.4765
G01 X-4.0136 Y-7.4336
G01 X-4.1448 Y-7.3743
G01 X-4.2686 Y-7.3001
G01 X-4.3818 Y-7.2110
G01 X-4.4840 Y-7.1088
G01 X-4.5727 Y-6.9955
G01 X-4.6473 Y-6.8722
G01 X-4.6884 Y-6.7808
G01 X-4.6913 Y-6.7752
G01 X-4.6946 Y-6.7698
G01 X-4.7170 Y-6.7384
G01 X-4.7219 Y-6.7323
G01 X-4.7274 Y-6.7269
G01 X-4.7335 Y-6.7222
G01 X-4.7687 Y-6.6997
G01 X-4.7772 Y-6.6954
G01 X-4.7878 Y-6.6920
G01 X-4.8269 Y-6.6840
G01 X-4.8333 Y-6.6831
G01 X-4.8397 Y-6.6827
G01 X-4.8461 Y-6.6830
G01 X-4.8524 Y-6.6840
G01 X-4.8921 Y-6.6919
G01 X-4.9027 Y-6.6953
G01 X-4.9113 Y-6.6997
G01 X-4.9465 Y-6.7222
G01 X-4.9538 Y-6.7280
G01 X-4.9592 Y-6.7335
G01 X-4.9630 Y-6.7384
G01 X-4.9853 Y-6.7699
G01 X-4.9887 Y-6.7752
G01 X-4.9916 Y-6.7808
G01 X-5.0326 Y-6.8722
G01 X-5.1073 Y-6.9955
G01 X-5.1960 Y-7.1088
G01 X-5.2982 Y-7.2110
G01 X-5.4114 Y-7.3001
G01 X-5.5347 Y-7.3743
G01 X-5.6663 Y-7.4336
G01 X-5.8042 Y-7.4765
G01 X-5.9458 Y-7.5025
G01 X-6.0899 Y-7.5112
G01 X-6.2340 Y-7.5025
G01 X-6.3757 Y-7.4765
G01 X-6.5135 Y-7.4336
G01 X-6.6451 Y-7.3743
G01 X-6.7684 Y-7.3001
G01 X-6.8816 Y-7.2110
G01 X-6.9839 Y-7.1087
G01 X-7.0730 Y-6.9955
G01 X-7.1472 Y-6.8722
G01 X-7.2065 Y-6.7406
G01 X-7.2494 Y-6.6028
G01 X-7.2754 Y-6.4611
G01 X-7.2841 Y-6.3170
G01 X-7.2754 Y-6.1729
G01 X-7.2494 Y-6.0312
G01 X-7.2065 Y-5.8934
G01 X-7.1472 Y-5.7618
G01 X-7.0730 Y-5.6385
G01 X-6.9839 Y-5.5253
G01 X-6.8817 Y-5.4231
G01 X-6.7684 Y-5.3344
G01 X-6.6451 Y-5.2597
G01 X-6.5135 Y-5.2004
G01 X-6.3757 Y-5.1575
G01 X-6.2340 Y-5.1315
G01 X-6.0899 Y-5.1228
G01 X-5.9458 Y-5.1315
G01 X-5.8042 Y-5.1575
G01 X-5.6663 Y-5.2004
G01 X-5.5348 Y-5.2597
G01 X-5.4114 Y-5.3344
G01 X-5.2982 Y-5.4231
G01 X-5.1960 Y-5.5252
G01 X-5.1073 Y-5.6385
G01 X-5.0326 Y-5.7618
G01 X-4.9916 Y-5.8532
G01 X-4.9887 Y-5.8588
G01 X-4.9853 Y-5.8641
G01 X-4.9630 Y-5.8956
G01 X-4.9592 Y-5.9005
G01 X-4.9526 Y-5.9071
G01 X-4.9465 Y-5.9118
G01 X-4.9113 Y-5.9343
G01 X-4.9027 Y-5.9387
G01 X-4.8921 Y-5.9421
G01 X-4.8524 Y-5.9500
G01 X-4.8445 Y-5.9511
G01 X-4.8365 Y-5.9512
G01 X-4.8285 Y-5.9503
G01 X-4.7878 Y-5.9420
G01 X-4.7816 Y-5.9403
G01 X-4.7757 Y-5.9380
G01 X-4.7687 Y-5.9343
G01 X-4.7335 Y-5.9118
G01 X-4.7262 Y-5.9060
G01 X-4.7208 Y-5.9005
G01 X-4.7170 Y-5.8956
G01 X-4.6946 Y-5.8641
G01 X-4.6913 Y-5.8588
G01 X-4.6884 Y-5.8532
G01 X-4.6473 Y-5.7618
G01 X-4.5727 Y-5.6385
G01 X-4.4840 Y-5.5252
G01 X-4.3818 Y-5.4231
G01 X-4.2968 Y-5.3564
G01 X-4.2911 Y-5.3511
G01 X-4.2692 Y-5.3281
G01 X-4.2643 Y-5.3219
G01 X-4.2601 Y-5.3152
G01 X-4.2448 Y-5.2830
G01 X-4.2421 Y-5.2757
G01 X-4.2402 Y-5.2681
G01 X-4.2352 Y-5.2350
G01 X-4.2347 Y-5.2268
G01 X-4.2348 Y-2.2412
G01 X-4.2356 Y-2.2333
G01 X-4.2436 Y-2.1936
G01 X-4.2467 Y-2.1828
G01 X-4.2518 Y-2.1726
G01 X-4.2740 Y-2.1382
G01 X-4.2777 Y-2.1330
G01 X-4.2831 Y-2.1271
G01 X-4.2905 Y-2.1209
G01 X-4.3238 Y-2.0981
G01 X-4.3308 Y-2.0939
G01 X-4.3368 Y-2.0913
G01 X-4.3445 Y-2.0888
G01 X-4.3847 Y-2.0798
G01 X-4.3735 Y-2.0294
G01 X-4.3828 Y-2.0277
G01 X-4.3915 Y-2.0268
G01 X-4.4003 Y-2.0266
G01 X-4.4091 Y-2.0270
G01 X-4.4201 Y-2.0286
G01 X-4.4660 Y-2.0374
G01 X-4.4743 Y-2.0399
G01 X-4.4809 Y-2.0423
G01 X-4.4876 Y-2.0453
G01 X-4.4952 Y-2.0494
G01 X-4.5323 Y-2.0724
G01 X-4.5417 Y-2.0790
G01 X-4.5500 Y-2.0860
G01 X-4.6365 Y-2.1673
G01 X-4.7425 Y-2.2441
G01 X-4.8574 Y-2.3072
G01 X-4.9789 Y-2.3556
G01 X-5.1059 Y-2.3881
G01 X-5.2357 Y-2.4045
G01 X-5.3714 Y-2.4045
G01 X-5.4275 Y-2.4025
G01 X-5.4371 Y-2.4029
G01 X-5.4469 Y-2.4042
G01 X-5.4551 Y-2.4060
G01 X-5.4631 Y-2.4083
G01 X-5.4947 Y-2.4188
G01 X-5.5062 Y-2.4236
G01 X-5.5149 Y-2.4282
G01 X-5.5219 Y-2.4327
G01 X-5.5538 Y-2.4562
G01 X-5.5630 Y-2.4645
G01 X-8.0735 Y-4.9745
G01 X-8.0809 Y-4.9826
G01 X-8.0883 Y-4.9925
G01 X-8.1120 Y-5.0285
G01 X-8.1162 Y-5.0359
G01 X-8.1199 Y-5.0436
G01 X-8.1239 Y-5.0543
G01 X-8.1271 Y-5.0668
G01 X-8.1355 Y-5.1099
G01 X-8.1367 Y-5.1198
G01 X-8.1370 Y-5.1288
G01 X-8.1370 Y-6.8708
G01 X-8.1364 Y-6.8820
G01 X-8.1350 Y-6.8918
G01 X-8.1268 Y-6.9338
G01 X-8.1247 Y-6.9422
G01 X-8.1225 Y-6.9489
G01 X-8.1173 Y-6.9611
G01 X-8.1109 Y-6.9723
G01 X-8.0858 Y-7.0095
G01 X-8.0797 Y-7.0173
G01 X-8.0740 Y-7.0236
G01 X-7.0240 Y-8.0735
G01 X-7.0162 Y-8.0807
G01 X-7.0085 Y-8.0866
G01 X-6.9698 Y-8.1124
G01 X-6.9596 Y-8.1180
G01 X-6.9489 Y-8.1225
G01 X-6.9422 Y-8.1247
G01 X-6.9338 Y-8.1268
G01 X-6.8918 Y-8.1350
G01 X-6.8808 Y-8.1365
G01 X-6.8702 Y-8.1370
G01 X2.1102 Y-8.1370
G01 X2.1192 Y-8.1367
G01 X2.1303 Y-8.1353
G01 X2.1737 Y-8.1268
G01 X2.1834 Y-8.1243
G01 X2.1943 Y-8.1203
G01 X2.2048 Y-8.1153
G01 X2.2136 Y-8.1100
G01 X2.2484 Y-8.0866
G01 X2.2604 Y-8.0770
G01 X3.0097 Y-7.3278
G01 X3.0162 Y-7.3208
G01 X3.0226 Y-7.3125
G01 X3.0466 Y-7.2777
G01 X3.0509 Y-7.2703
G01 X3.0552 Y-7.2614
G01 X3.0583 Y-7.2534
G01 X3.0608 Y-7.2452
G01 X3.0701 Y-7.2069
G01 X3.0720 Y-7.1968
G01 X3.0731 Y-7.1853
G01 X3.0731 Y-7.1737
G01 X3.0678 Y-7.1255
G01 X3.0658 Y-7.1157
G01 X3.0634 Y-7.1072
G01 X3.0597 Y-7.0975
G01 X3.0556 Y-7.0890
G01 X3.0372 Y-7.0545
G01 X3.0309 Y-7.0444
G01 X2.9695 Y-6.9661
G01 X2.8986 Y-6.8483
G01 X2.8588 Y-6.7596
G01 X2.8540 Y-6.7501
G01 X2.8476 Y-6.7400
G01 X2.8249 Y-6.7080
G01 X2.8188 Y-6.7002
G01 X2.8091 Y-6.6902
G01 X2.7973 Y-6.6807
G01 X2.7587 Y-6.6559
G01 X2.7526 Y-6.6524
G01 X2.7448 Y-6.6486
G01 X2.7341 Y-6.6445
G01 X2.7214 Y-6.6411
G01 X2.6792 Y-6.6327
G01 X2.6706 Y-6.6316
G01 X2.6620 Y-6.6311
G01 X2.6504 Y-6.6315
G01 X2.6374 Y-6.6333
G01 X2.5958 Y-6.6418
G01 X2.5860 Y-6.6445
G01 X2.5779 Y-6.6475
G01 X2.5701 Y-6.6511
G01 X2.5626 Y-6.6552
G01 X2.5253 Y-6.6791
G01 X2.5153 Y-6.6865
G01 X2.5061 Y-6.6951
G01 X2.4963 Y-6.7067
G01 X2.4723 Y-6.7405
G01 X2.4669 Y-6.7490
G01 X2.4614 Y-6.7596
G01 X2.4217 Y-6.8481
G01 X2.3502 Y-6.9661
G01 X2.2654 Y-7.0745
G01 X2.1676 Y-7.1722
G01 X2.0589 Y-7.2575
G01 X1.9409 Y-7.3285
G01 X1.8149 Y-7.3852
G01 X1.6836 Y-7.4262
G01 X1.5476 Y-7.4511
G01 X1.4102 Y-7.4594
G01 X1.2723 Y-7.4511
G01 X1.1368 Y-7.4262
G01 X1.0049 Y-7.3852
G01 X0.8790 Y-7.3285
G01 X0.7610 Y-7.2575
G01 X0.6523 Y-7.1723
G01 X0.5550 Y-7.0745
G01 X0.4696 Y-6.9660
G01 X0.3982 Y-6.8481
G01 X0.3584 Y-6.7596
G01 X0.3533 Y-6.7496
G01 X0.3483 Y-6.7415
G01 X0.3248 Y-6.7077
G01 X0.3195 Y-6.7009
G01 X0.3148 Y-6.6957
G01 X0.3053 Y-6.6868
G01 X0.2952 Y-6.6791
G01 X0.2578 Y-6.6552
G01 X0.2502 Y-6.6510
G01 X0.2435 Y-6.6480
G01 X0.2327 Y-6.6440
G01 X0.2215 Y-6.6411
G01 X0.1793 Y-6.6327
G01 X0.1721 Y-6.6317
G01 X0.1635 Y-6.6311
G01 X0.1520 Y-6.6314
G01 X0.1394 Y-6.6329
G01 X0.0957 Y-6.6417
G01 X0.0873 Y-6.6440
G01 X0.0792 Y-6.6469
G01 X0.0698 Y-6.6510
G01 X0.0622 Y-6.6552
G01 X0.0262 Y-6.6782
G01 X0.0156 Y-6.6859
G01 X0.0063 Y-6.6945
G01 X0.0005 Y-6.7009
G01 X-0.0048 Y-6.7077
G01 X-0.0283 Y-6.7415
G01 X-0.0333 Y-6.7496
G01 X-0.0384 Y-6.7596
G01 X-0.0782 Y-6.8481
G01 X-0.1496 Y-6.9660
G01 X-0.2350 Y-7.0745
G01 X-0.3323 Y-7.1723
G01 X-0.4410 Y-7.2575
G01 X-0.5590 Y-7.3285
G01 X-0.6849 Y-7.3852
G01 X-0.8168 Y-7.4262
G01 X-0.9523 Y-7.4511
G01 X-1.0902 Y-7.4594
G01 X-1.2276 Y-7.4511
G01 X-1.3636 Y-7.4262
G01 X-1.4949 Y-7.3852
G01 X-1.6209 Y-7.3285
G01 X-1.7389 Y-7.2575
G01 X-1.8476 Y-7.1722
G01 X-1.9454 Y-7.0745
G01 X-2.0302 Y-6.9661
G01 X-2.1017 Y-6.8481
G01 X-2.1414 Y-6.7596
G01 X-2.1469 Y-6.7490
G01 X-2.1523 Y-6.7405
G01 X-2.1763 Y-6.7067
G01 X-2.1815 Y-6.7002
G01 X-2.1880 Y-6.6932
G01 X-2.1975 Y-6.6847
G01 X-2.2066 Y-6.6782
G01 X-2.2426 Y-6.6552
G01 X-2.2501 Y-6.6511
G01 X-2.2567 Y-6.6480
G01 X-2.2660 Y-6.6445
G01 X-2.2770 Y-6.6415
G01 X-2.3190 Y-6.6330
G01 X-2.3260 Y-6.6319
G01 X-2.3346 Y-6.6312
G01 X-2.3477 Y-6.6314
G01 X-2.3605 Y-6.6329
G01 X-2.4042 Y-6.6417
G01 X-2.4126 Y-6.6440
G01 X-2.4207 Y-6.6469
G01 X-2.4301 Y-6.6510
G01 X-2.4377 Y-6.6552
G01 X-2.4737 Y-6.6782
G01 X-2.4849 Y-6.6865
G01 X-2.4942 Y-6.6951
G01 X-2.4997 Y-6.7014
G01 X-2.5049 Y-6.7080
G01 X-2.5279 Y-6.7405
G01 X-2.5334 Y-6.7490
G01 X-2.5388 Y-6.7596
G01 X-2.5787 Y-6.8483
G01 X-2.6495 Y-6.9661
G01 X-2.7348 Y-7.0744
G01 X-2.8327 Y-7.1723
G01 X-2.9409 Y-7.2575
G01 X-3.0588 Y-7.3285
G01 X-3.1848 Y-7.3852
G01 X-3.3167 Y-7.4262
G01 X-3.4522 Y-7.4511
G01 X-3.5901 Y-7.4594
G01 X-3.7279 Y-7.4511
G01 X-3.8634 Y-7.4262
G01 X-3.9952 Y-7.3852
G01 X-4.1208 Y-7.3285
G01 X-4.2393 Y-7.2575
G01 X-4.3474 Y-7.1723
G01 X-4.4453 Y-7.0745
G01 X-4.5301 Y-6.9661
G01 X-4.6015 Y-6.8481
G01 X-4.6413 Y-6.7596
G01 X-4.6468 Y-6.7490
G01 X-4.6522 Y-6.7405
G01 X-4.6762 Y-6.7067
G01 X-4.6814 Y-6.7002
G01 X-4.6879 Y-6.6931
G01 X-4.6974 Y-6.6847
G01 X-4.7064 Y-6.6782
G01 X-4.7424 Y-6.6552
G01 X-4.7500 Y-6.6511
G01 X-4.7566 Y-6.6480
G01 X-4.7658 Y-6.6445
G01 X-4.7769 Y-6.6415
G01 X-4.8189 Y-6.6330
G01 X-4.8303 Y-6.6315
G01 X-4.8447 Y-6.6312
G01 X-4.8591 Y-6.6327
G01 X-4.9041 Y-6.6417
G01 X-4.9124 Y-6.6440
G01 X-4.9206 Y-6.6469
G01 X-4.9299 Y-6.6510
G01 X-4.9375 Y-6.6552
G01 X-4.9748 Y-6.6791
G01 X-4.9859 Y-6.6875
G01 X-4.9960 Y-6.6972
G01 X-5.0047 Y-6.7080
G01 X-5.0278 Y-6.7405
G01 X-5.0332 Y-6.7490
G01 X-5.0387 Y-6.7596
G01 X-5.0785 Y-6.8481
G01 X-5.1499 Y-6.9661
G01 X-5.2347 Y-7.0745
G01 X-5.3326 Y-7.1723
G01 X-5.4408 Y-7.2575
G01 X-5.5587 Y-7.3285
G01 X-5.6847 Y-7.3852
G01 X-5.8165 Y-7.4262
G01 X-5.9521 Y-7.4511
G01 X-6.0899 Y-7.4594
G01 X-6.2278 Y-7.4511
G01 X-6.3633 Y-7.4262
G01 X-6.4952 Y-7.3852
G01 X-6.6211 Y-7.3285
G01 X-6.7390 Y-7.2575
G01 X-6.8473 Y-7.1723
G01 X-6.9452 Y-7.0744
G01 X-7.0304 Y-6.9661
G01 X-7.1014 Y-6.8482
G01 X-7.1581 Y-6.7223
G01 X-7.1992 Y-6.5904
G01 X-7.2241 Y-6.4549
G01 X-7.2323 Y-6.3170
G01 X-7.2241 Y-6.1791
G01 X-7.1992 Y-6.0436
G01 X-7.1581 Y-5.9118
G01 X-7.1014 Y-5.7858
G01 X-7.0304 Y-5.6679
G01 X-6.9452 Y-5.5596
G01 X-6.8474 Y-5.4618
G01 X-6.7390 Y-5.3770
G01 X-6.6210 Y-5.3055
G01 X-6.4952 Y-5.2488
G01 X-6.3633 Y-5.2078
G01 X-6.2278 Y-5.1829
G01 X-6.0899 Y-5.1746
G01 X-5.9521 Y-5.1829
G01 X-5.8165 Y-5.2078
G01 X-5.6847 Y-5.2488
G01 X-5.5589 Y-5.3055
G01 X-5.4408 Y-5.3770
G01 X-5.3325 Y-5.4618
G01 X-5.2347 Y-5.5595
G01 X-5.1499 Y-5.6679
G01 X-5.0785 Y-5.7859
G01 X-5.0387 Y-5.8744
G01 X-5.0332 Y-5.8850
G01 X-5.0278 Y-5.8935
G01 X-5.0047 Y-5.9260
G01 X-4.9960 Y-5.9368
G01 X-4.9859 Y-5.9465
G01 X-4.9748 Y-5.9549
G01 X-4.9375 Y-5.9788
G01 X-4.9299 Y-5.9830
G01 X-4.9221 Y-5.9866
G01 X-4.9124 Y-5.9900
G01 X-4.9041 Y-5.9923
G01 X-4.8619 Y-6.0008
G01 X-4.8489 Y-6.0026
G01 X-4.8361 Y-6.0029
G01 X-4.8274 Y-6.0023
G01 X-4.8201 Y-6.0012
G01 X-4.7769 Y-5.9925
G01 X-4.7658 Y-5.9895
G01 X-4.7552 Y-5.9854
G01 X-4.7488 Y-5.9823
G01 X-4.7414 Y-5.9781
G01 X-4.7041 Y-5.9542
G01 X-4.6931 Y-5.9457
G01 X-4.6840 Y-5.9368
G01 X-4.6753 Y-5.9260
G01 X-4.6522 Y-5.8935
G01 X-4.6467 Y-5.8850
G01 X-4.6413 Y-5.8744
G01 X-4.6015 Y-5.7859
G01 X-4.5301 Y-5.6679
G01 X-4.4453 Y-5.5595
G01 X-4.3475 Y-5.4618
G01 X-4.2623 Y-5.3949
G01 X-4.2553 Y-5.3883
G01 X-4.2314 Y-5.3633
G01 X-4.2224 Y-5.3522
G01 X-4.2156 Y-5.3415
G01 X-4.2120 Y-5.3344
G01 X-4.1962 Y-5.3008
G01 X-4.1921 Y-5.2887
G01 X-4.1895 Y-5.2777
G01 X-4.1840 Y-5.2421
G01 X-4.1830 Y-5.2268
G01 X-4.1832 Y-2.2380
G01 X-4.1849 Y-2.2238
G01 X-4.1934 Y-2.1813
G01 X-4.1960 Y-2.1716
G01 X-4.1995 Y-2.1618
G01 X-4.2037 Y-2.1527
G01 X-4.2093 Y-2.1432
G01 X-4.2325 Y-2.1073
G01 X-4.2377 Y-2.1003
G01 X-4.2426 Y-2.0947
G01 X-4.2508 Y-2.0866
G01 X-4.2598 Y-2.0793
G01 X-4.2966 Y-2.0542
G01 X-4.3079 Y-2.0477
G01 X-4.3186 Y-2.0429
G01 X-4.3285 Y-2.0396
G01 X-4.3735 Y-2.0294
G01 X-4.3373 Y-1.9316
G01 X-4.3173 Y-1.8981
G01 X-4.3104 Y-1.8852
G01 X-4.2695 Y-1.7988
G01 X-4.2650 Y-1.7880
G01 X-4.2598 Y-1.7737
G01 X-4.2598 Y-1.9563
G01 X-4.2769 Y-1.9484
G01 X-4.2944 Y-1.9420
G01 X-4.3085 Y-1.9381
G01 X-4.3373 Y-1.9316
G01 X-4.2598 Y-0.9543
G01 X-4.2650 Y-0.9400
G01 X-4.2695 Y-0.9292
G01 X-4.3104 Y-0.8428
G01 X-4.3173 Y-0.8299
G01 X-4.3373 Y-0.7964
G01 X-4.3085 Y-0.7899
G01 X-4.2943 Y-0.7860
G01 X-4.2769 Y-0.7796
G01 X-4.2598 Y-0.7717
G01 X-4.2598 Y-0.9543
G01 X-4.2081 Y-0.6720
G01 X-4.2081 Y-2.0560
G01 X-4.2176 Y-2.0470
G01 X-4.2278 Y-2.0387
G01 X-4.2686 Y-2.0108
G01 X-4.2769 Y-2.0057
G01 X-4.2850 Y-2.0014
G01 X-4.2941 Y-1.9971
G01 X-4.3038 Y-1.9933
G01 X-4.3125 Y-1.9905
G01 X-4.3226 Y-1.9878
G01 X-4.3236 Y-1.9876
G01 X-4.3622 Y-1.9790
G01 X-4.3651 Y-1.9784
G01 X-4.3776 Y-1.9763
G01 X-4.3903 Y-1.9752
G01 X-4.4030 Y-1.9750
G01 X-4.4157 Y-1.9758
G01 X-4.4279 Y-1.9775
G01 X-4.4162 Y-1.9617
G01 X-4.4102 Y-1.9527
G01 X-4.3632 Y-1.8743
G01 X-4.3568 Y-1.8626
G01 X-4.3556 Y-1.8600
G01 X-4.3178 Y-1.7802
G01 X-4.3142 Y-1.7721
G01 X-4.2800 Y-1.6767
G01 X-4.2770 Y-1.6663
G01 X-4.2554 Y-1.5801
G01 X-4.2523 Y-1.5642
G01 X-4.2383 Y-1.4680
G01 X-4.2332 Y-1.3646
G01 X-4.2383 Y-1.2600
G01 X-4.2523 Y-1.1638
G01 X-4.2554 Y-1.1479
G01 X-4.2555 Y-1.1476
G01 X-4.2770 Y-1.0620
G01 X-4.2770 Y-1.0617
G01 X-4.2800 Y-1.0513
G01 X-4.3142 Y-0.9559
G01 X-4.3568 Y-0.8654
G01 X-4.3632 Y-0.8537
G01 X-4.4102 Y-0.7753
G01 X-4.4162 Y-0.7663
G01 X-4.4279 Y-0.7505
G01 X-4.4157 Y-0.7522
G01 X-4.4030 Y-0.7530
G01 X-4.3903 Y-0.7528
G01 X-4.3776 Y-0.7517
G01 X-4.3650 Y-0.7496
G01 X-4.3226 Y-0.7402
G01 X-4.3125 Y-0.7375
G01 X-4.3038 Y-0.7347
G01 X-4.2947 Y-0.7311
G01 X-4.2864 Y-0.7273
G01 X-4.2775 Y-0.7226
G01 X-4.2686 Y-0.7172
G01 X-4.2278 Y-0.6893
G01 X-4.2176 Y-0.6810
G01 X-4.2081 Y-0.6720
G00 Z1.0000
G00 X-4.3847 Y0.8412
G01 F25.00
G01 Z-0.0400
G01 F120.00
G01 X-4.3960 Y0.8427
G01 X-4.4058 Y0.8424
G01 X-4.4487 Y0.8346
G01 X-4.4565 Y0.8326
G01 X-4.4639 Y0.8297
G01 X-4.4696 Y0.8268
G01 X-4.5084 Y0.8025
G01 X-4.5146 Y0.7974
G01 X-4.6040 Y0.7136
G01 X-4.6086 Y0.7088
G01 X-4.6127 Y0.7035
G01 X-4.6391 Y0.6656
G01 X-4.6439 Y0.6558
G01 X-4.6466 Y0.6468
G01 X-4.6554 Y0.6035
G01 X-4.6564 Y0.5923
G01 X-4.6564 Y-0.4009
G01 X-4.6551 Y-0.4121
G01 X-4.6466 Y-0.4538
G01 X-4.6439 Y-0.4628
G01 X-4.6406 Y-0.4699
G01 X-4.6374 Y-0.4752
G01 X-4.6127 Y-0.5106
G01 X-4.6086 Y-0.5158
G01 X-4.6040 Y-0.5206
G01 X-4.5146 Y-0.6044
G01 X-4.5097 Y-0.6085
G01 X-4.5045 Y-0.6121
G01 X-4.4710 Y-0.6330
G01 X-4.4610 Y-0.6380
G01 X-4.4503 Y-0.6413
G01 X-4.4106 Y-0.6487
G01 X-4.4009 Y-0.6498
G01 X-4.3895 Y-0.6491
G01 X-4.3414 Y-0.6383
G01 X-4.3337 Y-0.6355
G01 X-4.3265 Y-0.6317
G01 X-4.2918 Y-0.6081
G01 X-4.2831 Y-0.6010
G01 X-4.2758 Y-0.5924
G01 X-4.2518 Y-0.5554
G01 X-4.2467 Y-0.5453
G01 X-4.2436 Y-0.5344
G01 X-4.2359 Y-0.4963
G01 X-4.2349 Y-0.4884
G01 X-4.2347 Y0.6766
G01 X-4.2356 Y0.6877
G01 X-4.2436 Y0.7274
G01 X-4.2451 Y0.7337
G01 X-4.2473 Y0.7397
G01 X-4.2509 Y0.7470
G01 X-4.2748 Y0.7841
G01 X-4.2820 Y0.7928
G01 X-4.2892 Y0.7992
G01 X-4.3252 Y0.8238
G01 X-4.3337 Y0.8285
G01 X-4.3445 Y0.8322
G01 X-4.3847 Y0.8412
G01 X-4.3735 Y0.8916
G01 X-4.3828 Y0.8933
G01 X-4.3915 Y0.8942
G01 X-4.4003 Y0.8944
G01 X-4.4091 Y0.8940
G01 X-4.4195 Y0.8926
G01 X-4.4582 Y0.8853
G01 X-4.4700 Y0.8825
G01 X-4.4823 Y0.8780
G01 X-4.4938 Y0.8724
G01 X-4.5323 Y0.8486
G01 X-4.5429 Y0.8411
G01 X-4.5499 Y0.8351
G01 X-4.6393 Y0.7512
G01 X-4.6451 Y0.7453
G01 X-4.6499 Y0.7398
G01 X-4.6549 Y0.7332
G01 X-4.6816 Y0.6950
G01 X-4.6872 Y0.6853
G01 X-4.6918 Y0.6750
G01 X-4.6946 Y0.6670
G01 X-4.6969 Y0.6589
G01 X-4.7057 Y0.6154
G01 X-4.7074 Y0.6045
G01 X-4.7080 Y0.5929
G01 X-4.7080 Y-0.4000
G01 X-4.7075 Y-0.4103
G01 X-4.7064 Y-0.4189
G01 X-4.6969 Y-0.4659
G01 X-4.6946 Y-0.4740
G01 X-4.6918 Y-0.4820
G01 X-4.6878 Y-0.4911
G01 X-4.6837 Y-0.4985
G01 X-4.6792 Y-0.5057
G01 X-4.6549 Y-0.5402
G01 X-4.6491 Y-0.5479
G01 X-4.6393 Y-0.5582
G01 X-4.5499 Y-0.6421
G01 X-4.5429 Y-0.6481
G01 X-4.5336 Y-0.6548
G01 X-4.4963 Y-0.6780
G01 X-4.4861 Y-0.6834
G01 X-4.4770 Y-0.6872
G01 X-4.4700 Y-0.6895
G01 X-4.4617 Y-0.6916
G01 X-4.4201 Y-0.6995
G01 X-4.4107 Y-0.7008
G01 X-4.4003 Y-0.7014
G01 X-4.3873 Y-0.7009
G01 X-4.3757 Y-0.6991
G01 X-4.3313 Y-0.6891
G01 X-4.3241 Y-0.6871
G01 X-4.3159 Y-0.6840
G01 X-4.3053 Y-0.6790
G01 X-4.2966 Y-0.6738
G01 X-4.2608 Y-0.6495
G01 X-4.2496 Y-0.6404
G01 X-4.2406 Y-0.6311
G01 X-4.2325 Y-0.6207
G01 X-4.2080 Y-0.5829
G01 X-4.2019 Y-0.5715
G01 X-4.1974 Y-0.5607
G01 X-4.1940 Y-0.5496
G01 X-4.1844 Y-0.5014
G01 X-4.1834 Y-0.4929
G01 X-4.1830 Y-0.4836
G01 X-4.1830 Y0.6773
G01 X-4.1837 Y0.6887
G01 X-4.1853 Y0.6994
G01 X-4.1937 Y0.7410
G01 X-4.1960 Y0.7494
G01 X-4.1989 Y0.7577
G01 X-4.2031 Y0.7671
G01 X-4.2089 Y0.7772
G01 X-4.2318 Y0.8127
G01 X-4.2369 Y0.8197
G01 X-4.2415 Y0.8251
G01 X-4.2508 Y0.8344
G01 X-4.2598 Y0.8417
G01 X-4.2966 Y0.8668
G01 X-4.3079 Y0.8733
G01 X-4.3186 Y0.8781
G01 X-4.3285 Y0.8814
G01 X-4.3735 Y0.8916
G01 X-4.2598 Y1.1471
G01 X-4.2598 Y0.9648
G01 X-4.2769 Y0.9726
G01 X-4.2944 Y0.9790
G01 X-4.3085 Y0.9829
G01 X-4.3123 Y0.9838
G01 X-4.3373 Y0.9894
G01 X-4.3173 Y1.0229
G01 X-4.3104 Y1.0358
G01 X-4.3089 Y1.0389
G01 X-4.2711 Y1.1187
G01 X-4.2695 Y1.1222
G01 X-4.2650 Y1.1330
G01 X-4.2598 Y1.1471
G01 X-4.3373 Y2.1246
G01 X-4.3085 Y2.1311
G01 X-4.2943 Y2.1350
G01 X-4.2769 Y2.1414
G01 X-4.2601 Y2.1491
G01 X-4.2600 Y1.9674
G01 X-4.2651 Y1.9813
G01 X-4.2696 Y1.9921
G01 X-4.3104 Y2.0782
G01 X-4.3173 Y2.0911
G01 X-4.3373 Y2.1246
G01 X-4.4279 Y2.1705
G01 X-4.4157 Y2.1688
G01 X-4.4030 Y2.1680
G01 X-4.3903 Y2.1682
G01 X-4.3776 Y2.1693
G01 X-4.3650 Y2.1714
G01 X-4.3226 Y2.1808
G01 X-4.3125 Y2.1835
G01 X-4.3038 Y2.1863
G01 X-4.2947 Y2.1899
G01 X-4.2864 Y2.1937
G01 X-4.2775 Y2.1984
G01 X-4.2686 Y2.2038
G01 X-4.2278 Y2.2317
G01 X-4.2176 Y2.2400
G01 X-4.2081 Y2.2490
G01 X-4.2081 Y0.8650
G01 X-4.2176 Y0.8740
G01 X-4.2278 Y0.8823
G01 X-4.2686 Y0.9102
G01 X-4.2769 Y0.9153
G01 X-4.2850 Y0.9196
G01 X-4.2941 Y0.9239
G01 X-4.3038 Y0.9277
G01 X-4.3125 Y0.9305
G01 X-4.3226 Y0.9332
G01 X-4.3236 Y0.9334
G01 X-4.3622 Y0.9420
G01 X-4.3651 Y0.9426
G01 X-4.3776 Y0.9447
G01 X-4.3903 Y0.9458
G01 X-4.4030 Y0.9460
G01 X-4.4157 Y0.9452
G01 X-4.4279 Y0.9435
G01 X-4.4162 Y0.9593
G01 X-4.4102 Y0.9683
G01 X-4.3632 Y1.0467
G01 X-4.3568 Y1.0584
G01 X-4.3142 Y1.1489
G01 X-4.2800 Y1.2443
G01 X-4.2770 Y1.2547
G01 X-4.2770 Y1.2550
G01 X-4.2555 Y1.3406
G01 X-4.2554 Y1.3409
G01 X-4.2523 Y1.3568
G01 X-4.2383 Y1.4530
G01 X-4.2332 Y1.5564
G01 X-4.2383 Y1.6610
G01 X-4.2523 Y1.7572
G01 X-4.2554 Y1.7731
G01 X-4.2770 Y1.8593
G01 X-4.2800 Y1.8697
G01 X-4.3142 Y1.9651
G01 X-4.3178 Y1.9732
G01 X-4.3556 Y2.0530
G01 X-4.3568 Y2.0556
G01 X-4.3632 Y2.0673
G01 X-4.4102 Y2.1457
G01 X-4.4162 Y2.1547
G01 X-4.4279 Y2.1705
G00 Z1.0000
G00 X-4.1565 Y5.6766
G01 F25.00
G01 Z-0.0400
G01 F120.00
G01 X-4.1565 Y-5.3566
G01 X-4.2120 Y-5.3902
G01 X-4.2954 Y-5.4520
G01 X-4.3025 Y-5.4579
G01 X-4.3752 Y-5.5238
G01 X-4.3809 Y-5.5293
G01 X-4.4492 Y-5.6046
G01 X-4.4564 Y-5.6134
G01 X-4.5185 Y-5.6974
G01 X-4.5728 Y-5.7878
G01 X-4.5770 Y-5.7959
G01 X-4.6190 Y-5.8846
G01 X-4.6233 Y-5.8952
G01 X-4.6580 Y-5.9924
G01 X-4.6836 Y-6.0937
G01 X-4.6858 Y-6.1049
G01 X-4.7008 Y-6.2070
G01 X-4.7061 Y-6.3113
G01 X-4.7061 Y-6.3227
G01 X-4.7008 Y-6.4270
G01 X-4.6847 Y-6.5354
G01 X-4.6580 Y-6.6416
G01 X-4.6210 Y-6.7447
G01 X-4.5741 Y-6.8437
G01 X-4.5178 Y-6.9376
G01 X-4.4525 Y-7.0256
G01 X-4.3789 Y-7.1067
G01 X-4.2977 Y-7.1802
G01 X-4.2097 Y-7.2454
G01 X-4.1157 Y-7.3017
G01 X-4.0166 Y-7.3485
G01 X-3.9135 Y-7.3853
G01 X-3.8072 Y-7.4119
G01 X-3.6988 Y-7.4279
G01 X-3.5958 Y-7.4330
G01 X-3.5844 Y-7.4330
G01 X-3.4800 Y-7.4277
G01 X-3.3717 Y-7.4116
G01 X-3.2654 Y-7.3849
G01 X-3.1623 Y-7.3480
G01 X-3.0633 Y-7.3011
G01 X-2.9694 Y-7.2447
G01 X-2.8815 Y-7.1794
G01 X-2.8003 Y-7.1058
G01 X-2.7276 Y-7.0256
G01 X-2.6623 Y-6.9376
G01 X-2.6060 Y-6.8437
G01 X-2.5591 Y-6.7447
G01 X-2.5221 Y-6.6416
G01 X-2.4954 Y-6.5354
G01 X-2.4793 Y-6.4270
G01 X-2.4739 Y-6.3205
G01 X-2.4740 Y-6.3113
G01 X-2.4788 Y-6.2133
G01 X-2.4799 Y-6.2019
G01 X-2.4952 Y-6.0999
G01 X-2.5204 Y-5.9985
G01 X-2.5237 Y-5.9876
G01 X-2.5586 Y-5.8904
G01 X-2.6031 Y-5.7959
G01 X-2.6074 Y-5.7878
G01 X-2.6616 Y-5.6974
G01 X-2.7237 Y-5.6134
G01 X-2.7310 Y-5.6046
G01 X-2.7992 Y-5.5293
G01 X-2.8049 Y-5.5238
G01 X-2.8776 Y-5.4579
G01 X-2.8847 Y-5.4520
G01 X-2.9681 Y-5.3902
G01 X-3.0236 Y-5.3566
G01 X-3.0236 Y5.6766
G01 X-2.9681 Y5.7102
G01 X-2.8847 Y5.7720
G01 X-2.8776 Y5.7779
G01 X-2.8049 Y5.8438
G01 X-2.7992 Y5.8493
G01 X-2.7310 Y5.9246
G01 X-2.7237 Y5.9334
G01 X-2.6616 Y6.0174
G01 X-2.6074 Y6.1078
G01 X-2.6031 Y6.1159
G01 X-2.5611 Y6.2046
G01 X-2.5568 Y6.2152
G01 X-2.5221 Y6.3124
G01 X-2.4966 Y6.4137
G01 X-2.4943 Y6.4249
G01 X-2.4793 Y6.5270
G01 X-2.4740 Y6.6313
G01 X-2.4740 Y6.6421
G01 X-2.4792 Y6.7458
G01 X-2.4943 Y6.8491
G01 X-2.4966 Y6.8603
G01 X-2.5218 Y6.9604
G01 X-2.5568 Y7.0588
G01 X-2.5611 Y7.0694
G01 X-2.6060 Y7.1637
G01 X-2.6589 Y7.2523
G01 X-2.6653 Y7.2618
G01 X-2.7268 Y7.3446
G01 X-2.7969 Y7.4221
G01 X-2.8049 Y7.4302
G01 X-2.8815 Y7.4994
G01 X-2.9653 Y7.5618
G01 X-2.9748 Y7.5681
G01 X-3.0633 Y7.6211
G01 X-3.1635 Y7.6685
G01 X-3.2606 Y7.7033
G01 X-3.2715 Y7.7066
G01 X-3.3729 Y7.7319
G01 X-3.4750 Y7.7471
G01 X-3.4863 Y7.7482
G01 X-3.5907 Y7.7532
G01 X-3.6938 Y7.7482
G01 X-3.7051 Y7.7471
G01 X-3.8072 Y7.7319
G01 X-3.9086 Y7.7066
G01 X-3.9195 Y7.7033
G01 X-4.0178 Y7.6680
G01 X-4.1111 Y7.6240
G01 X-4.1212 Y7.6186
G01 X-4.2107 Y7.5647
G01 X-4.2937 Y7.5033
G01 X-4.3025 Y7.4961
G01 X-4.3798 Y7.4258
G01 X-4.4492 Y7.3494
G01 X-4.4564 Y7.3406
G01 X-4.5185 Y7.2566
G01 X-4.5716 Y7.1681
G01 X-4.5770 Y7.1581
G01 X-4.6215 Y7.0636
G01 X-4.6564 Y6.9664
G01 X-4.6597 Y6.9555
G01 X-4.6847 Y6.8554
G01 X-4.7002 Y6.7521
G01 X-4.7013 Y6.7407
G01 X-4.7062 Y6.6405
G01 X-4.7061 Y6.6313
G01 X-4.7013 Y6.5333
G01 X-4.7002 Y6.5219
G01 X-4.6847 Y6.4186
G01 X-4.6584 Y6.3136
G01 X-4.6233 Y6.2152
G01 X-4.6190 Y6.2046
G01 X-4.5741 Y6.1103
G01 X-4.5194 Y6.0187
G01 X-4.5149 Y6.0122
G01 X-4.4533 Y5.9294
G01 X-4.3833 Y5.8519
G01 X-4.3752 Y5.8438
G01 X-4.3025 Y5.7779
G01 X-4.2942 Y5.7710
G01 X-4.2120 Y5.7102
G01 X-4.1565 Y5.6766
G01 X-4.1048 Y5.7058
G01 X-4.1048 Y-5.3858
G01 X-4.1815 Y-5.4319
G01 X-4.2629 Y-5.4921
G01 X-4.2678 Y-5.4962
G01 X-4.3428 Y-5.5642
G01 X-4.4109 Y-5.6393
G01 X-4.4149 Y-5.6442
G01 X-4.4752 Y-5.7256
G01 X-4.5289 Y-5.8152
G01 X-4.5736 Y-5.9096
G01 X-4.6078 Y-6.0050
G01 X-4.6096 Y-6.0110
G01 X-4.6342 Y-6.1093
G01 X-4.6491 Y-6.2095
G01 X-4.6497 Y-6.2158
G01 X-4.6546 Y-6.3170
G01 X-4.6496 Y-6.4198
G01 X-4.6342 Y-6.5247
G01 X-4.6088 Y-6.6260
G01 X-4.5736 Y-6.7244
G01 X-4.5289 Y-6.8188
G01 X-4.4752 Y-6.9084
G01 X-4.4130 Y-6.9923
G01 X-4.3428 Y-7.0698
G01 X-4.2678 Y-7.1378
G01 X-4.2629 Y-7.1419
G01 X-4.1841 Y-7.2003
G01 X-4.1788 Y-7.2038
G01 X-4.0919 Y-7.2558
G01 X-4.0003 Y-7.2992
G01 X-3.9945 Y-7.3017
G01 X-3.8991 Y-7.3357
G01 X-3.7977 Y-7.3611
G01 X-3.6944 Y-7.3764
G01 X-3.5932 Y-7.3815
G01 X-3.5869 Y-7.3815
G01 X-3.4857 Y-7.3764
G01 X-3.3824 Y-7.3611
G01 X-3.2810 Y-7.3357
G01 X-3.1827 Y-7.3005
G01 X-3.0882 Y-7.2558
G01 X-2.9986 Y-7.2021
G01 X-2.9147 Y-7.1399
G01 X-2.8373 Y-7.0698
G01 X-2.7672 Y-6.9923
G01 X-2.7049 Y-6.9084
G01 X-2.6512 Y-6.8188
G01 X-2.6065 Y-6.7244
G01 X-2.5713 Y-6.6260
G01 X-2.5460 Y-6.5247
G01 X-2.5306 Y-6.4213
G01 X-2.5255 Y-6.3186
G01 X-2.5304 Y-6.2158
G01 X-2.5310 Y-6.2095
G01 X-2.5460 Y-6.1093
G01 X-2.5705 Y-6.0110
G01 X-2.5723 Y-6.0050
G01 X-2.6065 Y-5.9096
G01 X-2.6498 Y-5.8180
G01 X-2.6528 Y-5.8124
G01 X-2.7049 Y-5.7256
G01 X-2.7652 Y-5.6442
G01 X-2.7692 Y-5.6393
G01 X-2.8373 Y-5.5642
G01 X-2.9123 Y-5.4962
G01 X-2.9172 Y-5.4921
G01 X-2.9986 Y-5.4319
G01 X-3.0753 Y-5.3858
G01 X-3.0753 Y5.7058
G01 X-2.9986 Y5.7519
G01 X-2.9172 Y5.8121
G01 X-2.9123 Y5.8162
G01 X-2.8373 Y5.8842
G01 X-2.7692 Y5.9593
G01 X-2.7652 Y5.9642
G01 X-2.7049 Y6.0456
G01 X-2.6528 Y6.1324
G01 X-2.6498 Y6.1380
G01 X-2.6078 Y6.2267
G01 X-2.6054 Y6.2326
G01 X-2.5713 Y6.3280
G01 X-2.5467 Y6.4262
G01 X-2.5454 Y6.4324
G01 X-2.5306 Y6.5327
G01 X-2.5256 Y6.6338
G01 X-2.5256 Y6.6402
G01 X-2.5306 Y6.7413
G01 X-2.5454 Y6.8416
G01 X-2.5467 Y6.8478
G01 X-2.5713 Y6.9460
G01 X-2.6054 Y7.0414
G01 X-2.6078 Y7.0473
G01 X-2.6512 Y7.1388
G01 X-2.7032 Y7.2258
G01 X-2.7067 Y7.2310
G01 X-2.7672 Y7.3123
G01 X-2.8351 Y7.3875
G01 X-2.8396 Y7.3919
G01 X-2.9147 Y7.4599
G01 X-2.9960 Y7.5203
G01 X-3.0013 Y7.5238
G01 X-3.0882 Y7.5758
G01 X-3.1827 Y7.6205
G01 X-3.2810 Y7.6557
G01 X-3.3824 Y7.6811
G01 X-3.4857 Y7.6964
G01 X-3.5901 Y7.7015
G01 X-3.6944 Y7.6964
G01 X-3.7977 Y7.6811
G01 X-3.8991 Y7.6557
G01 X-3.9974 Y7.6205
G01 X-4.0919 Y7.5758
G01 X-4.1815 Y7.5221
G01 X-4.2654 Y7.4599
G01 X-4.3428 Y7.3898
G01 X-4.4130 Y7.3123
G01 X-4.4752 Y7.2284
G01 X-4.5289 Y7.1388
G01 X-4.5736 Y7.0444
G01 X-4.6088 Y6.9460
G01 X-4.6342 Y6.8447
G01 X-4.6495 Y6.7413
G01 X-4.6546 Y6.6370
G01 X-4.6495 Y6.5327
G01 X-4.6342 Y6.4293
G01 X-4.6088 Y6.3280
G01 X-4.5736 Y6.2296
G01 X-4.5289 Y6.1352
G01 X-4.4752 Y6.0456
G01 X-4.4130 Y5.9617
G01 X-4.3428 Y5.8842
G01 X-4.2654 Y5.8141
G01 X-4.1815 Y5.7519
G01 X-4.1048 Y5.7058
G00 Z1.0000
G00 X-4.8905 Y6.4204
G01 F25.00
G01 Z-0.0400
G01 F120.00
G01 X-4.8776 Y6.5073
G01 X-4.8762 Y6.5184
G01 X-4.8705 Y6.6364
G01 X-4.8707 Y6.6478
G01 X-4.8762 Y6.7550
G01 X-4.8776 Y6.7667
G01 X-4.8777 Y6.7672
G01 X-4.8905 Y6.8536
G01 X-4.8765 Y6.8509
G01 X-4.8650 Y6.8493
G01 X-4.8523 Y6.8482
G01 X-4.8401 Y6.8478
G01 X-4.8279 Y6.8481
G01 X-4.8158 Y6.8491
G01 X-4.8031 Y6.8509
G01 X-4.8005 Y6.8513
G01 X-4.7999 Y6.8514
G01 X-4.7996 Y6.8515
G01 X-4.7976 Y6.8519
G01 X-4.7895 Y6.8535
G01 X-4.8024 Y6.7667
G01 X-4.8038 Y6.7550
G01 X-4.8093 Y6.6478
G01 X-4.8095 Y6.6364
G01 X-4.8037 Y6.5184
G01 X-4.8024 Y6.5073
G01 X-4.7895 Y6.4205
G01 X-4.8031 Y6.4231
G01 X-4.8158 Y6.4249
G01 X-4.8279 Y6.4259
G01 X-4.8401 Y6.4262
G01 X-4.8523 Y6.4258
G01 X-4.8650 Y6.4247
G01 X-4.8765 Y6.4231
G01 X-4.8905 Y6.4204
G01 X-4.9739 Y6.6313
G01 X-4.9739 Y6.6427
G01 X-4.9787 Y6.7407
G01 X-4.9791 Y6.7458
G01 X-4.9951 Y6.8541
G01 X-5.0216 Y6.9604
G01 X-5.0567 Y7.0588
G01 X-5.0610 Y7.0694
G01 X-5.1030 Y7.1581
G01 X-5.1083 Y7.1681
G01 X-5.1615 Y7.2566
G01 X-5.2236 Y7.3406
G01 X-5.2308 Y7.3494
G01 X-5.3002 Y7.4258
G01 X-5.3775 Y7.4961
G01 X-5.3863 Y7.5033
G01 X-5.4651 Y7.5618
G01 X-5.4746 Y7.5681
G01 X-5.5643 Y7.6217
G01 X-5.6634 Y7.6685
G01 X-5.7665 Y7.7053
G01 X-5.8728 Y7.7319
G01 X-5.9812 Y7.7479
G01 X-6.0906 Y7.7532
G01 X-6.2000 Y7.7477
G01 X-6.3083 Y7.7316
G01 X-6.4145 Y7.7049
G01 X-6.5177 Y7.6680
G01 X-6.6167 Y7.6211
G01 X-6.7106 Y7.5647
G01 X-6.7985 Y7.4994
G01 X-6.8796 Y7.4258
G01 X-6.9532 Y7.3446
G01 X-7.0184 Y7.2566
G01 X-7.0746 Y7.1626
G01 X-7.1214 Y7.0636
G01 X-7.1582 Y6.9604
G01 X-7.1848 Y6.8541
G01 X-7.2008 Y6.7458
G01 X-7.2060 Y6.6427
G01 X-7.2060 Y6.6313
G01 X-7.2007 Y6.5270
G01 X-7.1856 Y6.4249
G01 X-7.1834 Y6.4137
G01 X-7.1596 Y6.3185
G01 X-7.1563 Y6.3076
G01 X-7.1214 Y6.2104
G01 X-7.0746 Y6.1114
G01 X-7.0177 Y6.0164
G01 X-6.9524 Y5.9284
G01 X-6.8787 Y5.8473
G01 X-6.8024 Y5.7779
G01 X-6.7935 Y5.7707
G01 X-6.7106 Y5.7093
G01 X-6.6211 Y5.6554
G01 X-6.6110 Y5.6500
G01 X-6.5223 Y5.6081
G01 X-6.5118 Y5.6037
G01 X-6.4145 Y5.5691
G01 X-6.3083 Y5.5424
G01 X-6.1987 Y5.5261
G01 X-6.0956 Y5.5210
G01 X-6.0864 Y5.5209
G01 X-5.9862 Y5.5258
G01 X-5.9749 Y5.5269
G01 X-5.8716 Y5.5424
G01 X-5.7714 Y5.5674
G01 X-5.7605 Y5.5707
G01 X-5.6634 Y5.6055
G01 X-5.5632 Y5.6529
G01 X-5.4746 Y5.7059
G01 X-5.4651 Y5.7122
G01 X-5.3823 Y5.7738
G01 X-5.3048 Y5.8438
G01 X-5.2967 Y5.8519
G01 X-5.2275 Y5.9284
G01 X-5.1651 Y6.0122
G01 X-5.1606 Y6.0187
G01 X-5.1083 Y6.1059
G01 X-5.1030 Y6.1159
G01 X-5.0585 Y6.2104
G01 X-5.0236 Y6.3076
G01 X-5.0203 Y6.3185
G01 X-4.9953 Y6.4186
G01 X-4.9798 Y6.5219
G01 X-4.9787 Y6.5333
G01 X-4.9739 Y6.6313
G01 X-5.0255 Y6.6338
G01 X-5.0255 Y6.6402
G01 X-5.0305 Y6.7413
G01 X-5.0458 Y6.8447
G01 X-5.0712 Y6.9460
G01 X-5.1064 Y7.0444
G01 X-5.1497 Y7.1360
G01 X-5.1526 Y7.1416
G01 X-5.2048 Y7.2284
G01 X-5.2651 Y7.3098
G01 X-5.2691 Y7.3147
G01 X-5.3372 Y7.3898
G01 X-5.4146 Y7.4599
G01 X-5.4959 Y7.5203
G01 X-5.5012 Y7.5238
G01 X-5.5881 Y7.5758
G01 X-5.6796 Y7.6192
G01 X-5.6855 Y7.6217
G01 X-5.7809 Y7.6557
G01 X-5.8822 Y7.6811
G01 X-5.9824 Y7.6960
G01 X-5.9887 Y7.6967
G01 X-6.0899 Y7.7015
G01 X-6.1911 Y7.6967
G01 X-6.1974 Y7.6960
G01 X-6.2976 Y7.6811
G01 X-6.3990 Y7.6557
G01 X-6.4944 Y7.6217
G01 X-6.5002 Y7.6192
G01 X-6.5918 Y7.5758
G01 X-6.6787 Y7.5238
G01 X-6.6840 Y7.5203
G01 X-6.7653 Y7.4599
G01 X-6.8438 Y7.3886
G01 X-6.9128 Y7.3123
G01 X-6.9732 Y7.2310
G01 X-6.9768 Y7.2258
G01 X-7.0288 Y7.1388
G01 X-7.0722 Y7.0473
G01 X-7.0746 Y7.0414
G01 X-7.1086 Y6.9460
G01 X-7.1333 Y6.8478
G01 X-7.1346 Y6.8416
G01 X-7.1494 Y6.7413
G01 X-7.1544 Y6.6402
G01 X-7.1544 Y6.6338
G01 X-7.1494 Y6.5327
G01 X-7.1346 Y6.4324
G01 X-7.1333 Y6.4262
G01 X-7.1086 Y6.3280
G01 X-7.0746 Y6.2326
G01 X-7.0722 Y6.2267
G01 X-7.0288 Y6.1352
G01 X-6.9768 Y6.0482
G01 X-6.9732 Y6.0430
G01 X-6.9128 Y5.9617
G01 X-6.8449 Y5.8865
G01 X-6.8404 Y5.8821
G01 X-6.7653 Y5.8141
G01 X-6.6840 Y5.7537
G01 X-6.6787 Y5.7502
G01 X-6.5918 Y5.6982
G01 X-6.5002 Y5.6548
G01 X-6.4944 Y5.6523
G01 X-6.3990 Y5.6183
G01 X-6.2992 Y5.5932
G01 X-6.1943 Y5.5776
G01 X-6.0899 Y5.5725
G01 X-5.9856 Y5.5776
G01 X-5.8854 Y5.5924
G01 X-5.8792 Y5.5936
G01 X-5.7809 Y5.6183
G01 X-5.6855 Y5.6523
G01 X-5.6796 Y5.6548
G01 X-5.5909 Y5.6967
G01 X-5.5853 Y5.6997
G01 X-5.4985 Y5.7519
G01 X-5.4134 Y5.8151
G01 X-5.3372 Y5.8842
G01 X-5.2670 Y5.9617
G01 X-5.2048 Y6.0456
G01 X-5.1526 Y6.1324
G01 X-5.1497 Y6.1380
G01 X-5.1064 Y6.2296
G01 X-5.0722 Y6.3250
G01 X-5.0704 Y6.3310
G01 X-5.0465 Y6.4262
G01 X-5.0453 Y6.4324
G01 X-5.0305 Y6.5327
G01 X-5.0255 Y6.6338
G01 X-4.7197 Y6.9287
G01 X-4.7337 Y6.8726
G01 X-4.7360 Y6.8620
G01 X-4.7516 Y6.7568
G01 X-4.7529 Y6.7433
G01 X-4.7579 Y6.6364
G01 X-4.7529 Y6.5304
G01 X-4.7516 Y6.5172
G01 X-4.7360 Y6.4120
G01 X-4.7337 Y6.4014
G01 X-4.7196 Y6.3452
G01 X-4.7302 Y6.3507
G01 X-4.7405 Y6.3552
G01 X-4.7516 Y6.3591
G01 X-4.7620 Y6.3620
G01 X-4.8133 Y6.3725
G01 X-4.8264 Y6.3740
G01 X-4.8402 Y6.3745
G01 X-4.8527 Y6.3740
G01 X-4.8657 Y6.3725
G01 X-4.9176 Y6.3621
G01 X-4.9281 Y6.3592
G01 X-4.9393 Y6.3553
G01 X-4.9496 Y6.3508
G01 X-4.9603 Y6.3452
G01 X-4.9463 Y6.4014
G01 X-4.9440 Y6.4120
G01 X-4.9431 Y6.4173
G01 X-4.9287 Y6.5144
G01 X-4.9286 Y6.5156
G01 X-4.9283 Y6.5172
G01 X-4.9271 Y6.5304
G01 X-4.9221 Y6.6364
G01 X-4.9223 Y6.6452
G01 X-4.9271 Y6.7433
G01 X-4.9283 Y6.7568
G01 X-4.9440 Y6.8620
G01 X-4.9463 Y6.8726
G01 X-4.9603 Y6.9287
G01 X-4.9496 Y6.9232
G01 X-4.9393 Y6.9187
G01 X-4.9281 Y6.9148
G01 X-4.9176 Y6.9119
G01 X-4.8657 Y6.9015
G01 X-4.8527 Y6.8999
G01 X-4.8402 Y6.8994
G01 X-4.8264 Y6.9000
G01 X-4.8133 Y6.9015
G01 X-4.7620 Y6.9119
G01 X-4.7516 Y6.9149
G01 X-4.7405 Y6.9188
G01 X-4.7302 Y6.9232
G01 X-4.7197 Y6.9287
G00 Z1.0000
G00 X-2.3906 Y6.4204
G01 F25.00
G01 Z-0.0400
G01 F120.00
G01 X-2.3777 Y6.5073
G01 X-2.3764 Y6.5184
G01 X-2.3706 Y6.6364
G01 X-2.3709 Y6.6478
G01 X-2.3763 Y6.7550
G01 X-2.3777 Y6.7667
G01 X-2.3906 Y6.8536
G01 X-2.3766 Y6.8509
G01 X-2.3652 Y6.8493
G01 X-2.3524 Y6.8482
G01 X-2.3402 Y6.8478
G01 X-2.3280 Y6.8481
G01 X-2.3159 Y6.8491
G01 X-2.3032 Y6.8509
G01 X-2.2894 Y6.8536
G01 X-2.3023 Y6.7667
G01 X-2.3037 Y6.7550
G01 X-2.3091 Y6.6478
G01 X-2.3094 Y6.6364
G01 X-2.3036 Y6.5184
G01 X-2.3023 Y6.5073
G01 X-2.3022 Y6.5068
G01 X-2.2894 Y6.4204
G01 X-2.2977 Y6.4221
G01 X-2.3007 Y6.4227
G01 X-2.3010 Y6.4227
G01 X-2.3023 Y6.4229
G01 X-2.3032 Y6.4231
G01 X-2.3159 Y6.4249
G01 X-2.3280 Y6.4259
G01 X-2.3402 Y6.4262
G01 X-2.3524 Y6.4258
G01 X-2.3652 Y6.4247
G01 X-2.3766 Y6.4231
G01 X-2.3906 Y6.4204
G01 X-2.3168 Y6.3206
G01 X-2.3174 Y6.3207
G01 X-2.3190 Y6.3210
G01 X-2.3218 Y6.3215
G01 X-2.3260 Y6.3221
G01 X-2.3346 Y6.3228
G01 X-2.3448 Y6.3228
G01 X-2.3535 Y6.3221
G01 X-2.3620 Y6.3208
G01 X-2.4030 Y6.3126
G01 X-2.4113 Y6.3104
G01 X-2.4180 Y6.3082
G01 X-2.4275 Y6.3042
G01 X-2.4363 Y6.2996
G01 X-2.4750 Y6.2749
G01 X-2.4870 Y6.2657
G01 X-2.4922 Y6.2609
G01 X-2.4979 Y6.2548
G01 X-2.5049 Y6.2460
G01 X-2.5276 Y6.2140
G01 X-2.5340 Y6.2039
G01 X-2.5388 Y6.1944
G01 X-2.5787 Y6.1057
G01 X-2.6495 Y5.9879
G01 X-2.7348 Y5.8796
G01 X-2.8326 Y5.7818
G01 X-2.9191 Y5.7137
G01 X-2.9257 Y5.7075
G01 X-2.9485 Y5.6830
G01 X-2.9577 Y5.6716
G01 X-2.9634 Y5.6629
G01 X-2.9675 Y5.6552
G01 X-2.9820 Y5.6252
G01 X-2.9866 Y5.6133
G01 X-2.9890 Y5.6050
G01 X-2.9908 Y5.5965
G01 X-2.9958 Y5.5637
G01 X-2.9969 Y5.5533
G01 X-2.9971 Y-5.2268
G01 X-2.9962 Y-5.2408
G01 X-2.9912 Y-5.2743
G01 X-2.9894 Y-5.2834
G01 X-2.9871 Y-5.2918
G01 X-2.9825 Y-5.3040
G01 X-2.9675 Y-5.3352
G01 X-2.9625 Y-5.3443
G01 X-2.9577 Y-5.3517
G01 X-2.9485 Y-5.3630
G01 X-2.9257 Y-5.3875
G01 X-2.9191 Y-5.3938
G01 X-2.8326 Y-5.4618
G01 X-2.7348 Y-5.5596
G01 X-2.6495 Y-5.6679
G01 X-2.5787 Y-5.7857
G01 X-2.5388 Y-5.8744
G01 X-2.5340 Y-5.8839
G01 X-2.5276 Y-5.8940
G01 X-2.5049 Y-5.9260
G01 X-2.4988 Y-5.9338
G01 X-2.4891 Y-5.9438
G01 X-2.4773 Y-5.9533
G01 X-2.4388 Y-5.9781
G01 X-2.4312 Y-5.9824
G01 X-2.4234 Y-5.9861
G01 X-2.4153 Y-5.9891
G01 X-2.4058 Y-5.9919
G01 X-2.3627 Y-6.0007
G01 X-2.3506 Y-6.0024
G01 X-2.3391 Y-6.0029
G01 X-2.3288 Y-6.0024
G01 X-2.3203 Y-6.0012
G01 X-2.2786 Y-5.9929
G01 X-2.2675 Y-5.9900
G01 X-2.2553 Y-5.9854
G01 X-2.2476 Y-5.9816
G01 X-2.2415 Y-5.9781
G01 X-2.2030 Y-5.9533
G01 X-2.1912 Y-5.9438
G01 X-2.1815 Y-5.9338
G01 X-2.1754 Y-5.9260
G01 X-2.1527 Y-5.8940
G01 X-2.1463 Y-5.8839
G01 X-2.1414 Y-5.8744
G01 X-2.1017 Y-5.7859
G01 X-2.0302 Y-5.6679
G01 X-1.9454 Y-5.5595
G01 X-1.8476 Y-5.4618
G01 X-1.7611 Y-5.3938
G01 X-1.7546 Y-5.3875
G01 X-1.7317 Y-5.3630
G01 X-1.7271 Y-5.3577
G01 X-1.7221 Y-5.3510
G01 X-1.7175 Y-5.3440
G01 X-1.7132 Y-5.3362
G01 X-1.6986 Y-5.3068
G01 X-1.6933 Y-5.2939
G01 X-1.6909 Y-5.2859
G01 X-1.6889 Y-5.2765
G01 X-1.6839 Y-5.2437
G01 X-1.6828 Y-5.2333
G01 X-1.6828 Y5.5533
G01 X-1.6839 Y5.5637
G01 X-1.6889 Y5.5965
G01 X-1.6906 Y5.6047
G01 X-1.6933 Y5.6139
G01 X-1.6986 Y5.6268
G01 X-1.7132 Y5.6562
G01 X-1.7175 Y5.6640
G01 X-1.7221 Y5.6710
G01 X-1.7263 Y5.6767
G01 X-1.7317 Y5.6830
G01 X-1.7546 Y5.7075
G01 X-1.7611 Y5.7137
G01 X-1.8476 Y5.7818
G01 X-1.9454 Y5.8795
G01 X-2.0302 Y5.9879
G01 X-2.1017 Y6.1059
G01 X-2.1414 Y6.1944
G01 X-2.1463 Y6.2039
G01 X-2.1527 Y6.2140
G01 X-2.1754 Y6.2460
G01 X-2.1805 Y6.2526
G01 X-2.1900 Y6.2628
G01 X-2.1963 Y6.2683
G01 X-2.2020 Y6.2726
G01 X-2.2401 Y6.2973
G01 X-2.2501 Y6.3029
G01 X-2.2606 Y6.3075
G01 X-2.2730 Y6.3115
G01 X-2.3168 Y6.3206
G01 X-2.3270 Y6.2700
G01 X-2.3382 Y6.2712
G01 X-2.3494 Y6.2706
G01 X-2.3922 Y6.2621
G01 X-2.4014 Y6.2593
G01 X-2.4114 Y6.2543
G01 X-2.4466 Y6.2318
G01 X-2.4539 Y6.2260
G01 X-2.4603 Y6.2193
G01 X-2.4855 Y6.1842
G01 X-2.4889 Y6.1788
G01 X-2.4917 Y6.1732
G01 X-2.5328 Y6.0817
G01 X-2.6070 Y5.9585
G01 X-2.6961 Y5.8453
G01 X-2.7983 Y5.7431
G01 X-2.8847 Y5.6752
G01 X-2.8895 Y5.6706
G01 X-2.9125 Y5.6458
G01 X-2.9164 Y5.6407
G01 X-2.9205 Y5.6337
G01 X-2.9345 Y5.6048
G01 X-2.9375 Y5.5974
G01 X-2.9401 Y5.5865
G01 X-2.9449 Y5.5549
G01 X-2.9454 Y5.5468
G01 X-2.9454 Y-5.2301
G01 X-2.9447 Y-5.2366
G01 X-2.9399 Y-5.2681
G01 X-2.9375 Y-5.2774
G01 X-2.9345 Y-5.2848
G01 X-2.9205 Y-5.3137
G01 X-2.9173 Y-5.3193
G01 X-2.9125 Y-5.3258
G01 X-2.8895 Y-5.3506
G01 X-2.8847 Y-5.3553
G01 X-2.7983 Y-5.4231
G01 X-2.6961 Y-5.5253
G01 X-2.6070 Y-5.6385
G01 X-2.5328 Y-5.7618
G01 X-2.4917 Y-5.8532
G01 X-2.4889 Y-5.8588
G01 X-2.4855 Y-5.8641
G01 X-2.4603 Y-5.8993
G01 X-2.4539 Y-5.9060
G01 X-2.4466 Y-5.9118
G01 X-2.4114 Y-5.9343
G01 X-2.4029 Y-5.9387
G01 X-2.3922 Y-5.9421
G01 X-2.3525 Y-5.9500
G01 X-2.3446 Y-5.9511
G01 X-2.3366 Y-5.9512
G01 X-2.3286 Y-5.9503
G01 X-2.2879 Y-5.9420
G01 X-2.2818 Y-5.9403
G01 X-2.2758 Y-5.9380
G01 X-2.2688 Y-5.9343
G01 X-2.2337 Y-5.9118
G01 X-2.2264 Y-5.9060
G01 X-2.2199 Y-5.8993
G01 X-2.1948 Y-5.8641
G01 X-2.1914 Y-5.8588
G01 X-2.1885 Y-5.8532
G01 X-2.1475 Y-5.7618
G01 X-2.0728 Y-5.6385
G01 X-1.9841 Y-5.5252
G01 X-1.8820 Y-5.4231
G01 X-1.7956 Y-5.3553
G01 X-1.7907 Y-5.3506
G01 X-1.7669 Y-5.3248
G01 X-1.7633 Y-5.3198
G01 X-1.7601 Y-5.3145
G01 X-1.7450 Y-5.2843
G01 X-1.7421 Y-5.2771
G01 X-1.7396 Y-5.2665
G01 X-1.7348 Y-5.2350
G01 X-1.7343 Y-5.2268
G01 X-1.7344 Y5.5501
G01 X-1.7350 Y5.5566
G01 X-1.7399 Y5.5881
G01 X-1.7426 Y5.5985
G01 X-1.7457 Y5.6057
G01 X-1.7601 Y5.6345
G01 X-1.7633 Y5.6398
G01 X-1.7679 Y5.6459
G01 X-1.7907 Y5.6706
G01 X-1.7956 Y5.6753
G01 X-1.8820 Y5.7431
G01 X-1.9841 Y5.8452
G01 X-2.0728 Y5.9585
G01 X-2.1475 Y6.0818
G01 X-2.1885 Y6.1732
G01 X-2.1914 Y6.1788
G01 X-2.1948 Y6.1841
G01 X-2.2200 Y6.2193
G01 X-2.2252 Y6.2250
G01 X-2.2324 Y6.2309
G01 X-2.2675 Y6.2535
G01 X-2.2744 Y6.2573
G01 X-2.2803 Y6.2598
G01 X-2.2879 Y6.2620
G01 X-2.3270 Y6.2700
G01 X-2.2195 Y6.9289
G01 X-2.2356 Y6.8636
G01 X-2.2515 Y6.7568
G01 X-2.2528 Y6.7433
G01 X-2.2576 Y6.6452
G01 X-2.2578 Y6.6364
G01 X-2.2527 Y6.5304
G01 X-2.2515 Y6.5172
G01 X-2.2356 Y6.4104
G01 X-2.2195 Y6.3451
G01 X-2.2292 Y6.3502
G01 X-2.2400 Y6.3549
G01 X-2.2517 Y6.3591
G01 X-2.2621 Y6.3620
G01 X-2.3065 Y6.3712
G01 X-2.3100 Y6.3719
G01 X-2.3113 Y6.3721
G01 X-2.3119 Y6.3722
G01 X-2.3135 Y6.3725
G01 X-2.3265 Y6.3740
G01 X-2.3403 Y6.3745
G01 X-2.3528 Y6.3740
G01 X-2.3557 Y6.3738
G01 X-2.3569 Y6.3737
G01 X-2.3576 Y6.3736
G01 X-2.3592 Y6.3734
G01 X-2.3658 Y6.3725
G01 X-2.4178 Y6.3621
G01 X-2.4283 Y6.3592
G01 X-2.4394 Y6.3553
G01 X-2.4497 Y6.3508
G01 X-2.4605 Y6.3452
G01 X-2.4464 Y6.4014
G01 X-2.4441 Y6.4120
G01 X-2.4285 Y6.5172
G01 X-2.4273 Y6.5304
G01 X-2.4222 Y6.6364
G01 X-2.4272 Y6.7433
G01 X-2.4285 Y6.7568
G01 X-2.4441 Y6.8620
G01 X-2.4464 Y6.8726
G01 X-2.4605 Y6.9287
G01 X-2.4497 Y6.9232
G01 X-2.4394 Y6.9187
G01 X-2.4283 Y6.9148
G01 X-2.4178 Y6.9119
G01 X-2.3658 Y6.9015
G01 X-2.3528 Y6.8999
G01 X-2.3403 Y6.8994
G01 X-2.3265 Y6.9000
G01 X-2.3135 Y6.9015
G01 X-2.2621 Y6.9119
G01 X-2.2502 Y6.9154
G01 X-2.2400 Y6.9190
G01 X-2.2292 Y6.9238
G01 X-2.2195 Y6.9289
G00 Z1.0000
G00 X-1.6047 Y5.7058
G01 F25.00
G01 Z-0.0400
G01 F120.00
G01 X-1.6047 Y-5.3858
G01 X-1.6814 Y-5.4319
G01 X-1.7628 Y-5.4921
G01 X-1.7677 Y-5.4962
G01 X-1.8427 Y-5.5642
G01 X-1.9108 Y-5.6393
G01 X-1.9148 Y-5.6442
G01 X-1.9751 Y-5.7256
G01 X-2.0272 Y-5.8124
G01 X-2.0302 Y-5.8180
G01 X-2.0735 Y-5.9096
G01 X-2.1077 Y-6.0050
G01 X-2.1095 Y-6.0110
G01 X-2.1340 Y-6.1093
G01 X-2.1490 Y-6.2095
G01 X-2.1496 Y-6.2158
G01 X-2.1544 Y-6.3138
G01 X-2.1544 Y-6.3202
G01 X-2.1494 Y-6.4213
G01 X-2.1340 Y-6.5247
G01 X-2.1087 Y-6.6260
G01 X-2.0735 Y-6.7244
G01 X-2.0288 Y-6.8188
G01 X-1.9751 Y-6.9084
G01 X-1.9128 Y-6.9923
G01 X-1.8427 Y-7.0698
G01 X-1.7653 Y-7.1399
G01 X-1.6814 Y-7.2021
G01 X-1.5918 Y-7.2558
G01 X-1.4973 Y-7.3005
G01 X-1.3990 Y-7.3357
G01 X-1.2976 Y-7.3611
G01 X-1.1943 Y-7.3764
G01 X-1.0931 Y-7.3815
G01 X-1.0868 Y-7.3815
G01 X-0.9856 Y-7.3764
G01 X-0.8823 Y-7.3611
G01 X-0.7809 Y-7.3357
G01 X-0.6826 Y-7.3005
G01 X-0.5881 Y-7.2558
G01 X-0.4985 Y-7.2021
G01 X-0.4146 Y-7.1399
G01 X-0.3372 Y-7.0698
G01 X-0.2670 Y-6.9923
G01 X-0.2048 Y-6.9084
G01 X-0.1511 Y-6.8188
G01 X-0.1064 Y-6.7244
G01 X-0.0712 Y-6.6260
G01 X-0.0458 Y-6.5247
G01 X-0.0305 Y-6.4213
G01 X-0.0255 Y-6.3202
G01 X-0.0255 Y-6.3138
G01 X-0.0303 Y-6.2158
G01 X-0.0309 Y-6.2095
G01 X-0.0458 Y-6.1093
G01 X-0.0704 Y-6.0110
G01 X-0.0722 Y-6.0050
G01 X-0.1064 Y-5.9096
G01 X-0.1497 Y-5.8180
G01 X-0.1527 Y-5.8124
G01 X-0.2048 Y-5.7256
G01 X-0.2651 Y-5.6442
G01 X-0.2691 Y-5.6393
G01 X-0.3372 Y-5.5642
G01 X-0.4122 Y-5.4962
G01 X-0.4171 Y-5.4921
G01 X-0.4985 Y-5.4319
G01 X-0.5752 Y-5.3858
G01 X-0.5752 Y5.7058
G01 X-0.4985 Y5.7519
G01 X-0.4171 Y5.8121
G01 X-0.4122 Y5.8162
G01 X-0.3372 Y5.8842
G01 X-0.2691 Y5.9593
G01 X-0.2651 Y5.9642
G01 X-0.2048 Y6.0456
G01 X-0.1527 Y6.1324
G01 X-0.1497 Y6.1380
G01 X-0.1064 Y6.2296
G01 X-0.0722 Y6.3250
G01 X-0.0704 Y6.3310
G01 X-0.0458 Y6.4293
G01 X-0.0309 Y6.5295
G01 X-0.0303 Y6.5358
G01 X-0.0254 Y6.6354
G01 X-0.0305 Y6.7413
G01 X-0.0458 Y6.8447
G01 X-0.0712 Y6.9460
G01 X-0.1070 Y7.0458
G01 X-0.1511 Y7.1388
G01 X-0.2057 Y7.2297
G01 X-0.2681 Y7.3136
G01 X-0.3361 Y7.3886
G01 X-0.3655 Y7.4155
G01 X0.6272 Y8.4082
G01 X7.0588 Y8.4082
G01 X8.2812 Y7.1858
G01 X8.2812 Y1.8972
G01 X7.3128 Y0.9288
G01 X5.1130 Y0.9288
G01 X5.0625 Y0.9263
G01 X5.0157 Y0.9194
G01 X5.0095 Y0.9182
G01 X4.9621 Y0.9061
G01 X4.9190 Y0.8907
G01 X4.9131 Y0.8883
G01 X4.8703 Y0.8680
G01 X4.8297 Y0.8437
G01 X4.8244 Y0.8402
G01 X4.7864 Y0.8119
G01 X4.7501 Y0.7791
G01 X3.5471 Y-0.4239
G01 X3.5216 Y-0.4177
G01 X3.4311 Y-0.4043
G01 X3.3366 Y-0.3995
G01 X3.2405 Y-0.4041
G01 X3.1453 Y-0.4183
G01 X3.0581 Y-0.4401
G01 X3.0520 Y-0.4420
G01 X2.9659 Y-0.4729
G01 X2.8831 Y-0.5119
G01 X2.8776 Y-0.5149
G01 X2.7991 Y-0.5620
G01 X2.7219 Y-0.6194
G01 X2.6530 Y-0.6820
G01 X2.5915 Y-0.7497
G01 X2.5874 Y-0.7546
G01 X2.5330 Y-0.8281
G01 X2.4843 Y-0.9093
G01 X2.4452 Y-0.9920
G01 X2.4427 Y-0.9978
G01 X2.4130 Y-1.0810
G01 X2.4111 Y-1.0871
G01 X2.3890 Y-1.1758
G01 X2.3755 Y-1.2663
G01 X2.3749 Y-1.2726
G01 X2.3705 Y-1.3608
G01 X2.3705 Y-1.3672
G01 X2.3751 Y-1.4585
G01 X2.3890 Y-1.5522
G01 X2.4120 Y-1.6440
G01 X2.4427 Y-1.7302
G01 X2.4452 Y-1.7360
G01 X2.4829 Y-1.8159
G01 X2.4859 Y-1.8214
G01 X2.5330 Y-1.8999
G01 X2.5894 Y-1.9759
G01 X2.6508 Y-2.0437
G01 X2.6553 Y-2.0482
G01 X2.7231 Y-2.1096
G01 X2.7991 Y-2.1660
G01 X2.8803 Y-2.2147
G01 X2.9630 Y-2.2538
G01 X2.9688 Y-2.2563
G01 X3.0550 Y-2.2870
G01 X3.1468 Y-2.3100
G01 X3.2373 Y-2.3235
G01 X3.2436 Y-2.3241
G01 X3.3350 Y-2.3285
G01 X3.4295 Y-2.3239
G01 X3.5232 Y-2.3100
G01 X3.6150 Y-2.2870
G01 X3.7012 Y-2.2563
G01 X3.7070 Y-2.2538
G01 X3.7897 Y-2.2147
G01 X3.8682 Y-2.1677
G01 X3.8735 Y-2.1642
G01 X3.9444 Y-2.1116
G01 X3.9493 Y-2.1075
G01 X4.0170 Y-2.0460
G01 X4.0785 Y-1.9783
G01 X4.0826 Y-1.9734
G01 X4.1370 Y-1.8999
G01 X4.1841 Y-1.8214
G01 X4.1871 Y-1.8159
G01 X4.2248 Y-1.7360
G01 X4.2273 Y-1.7302
G01 X4.2580 Y-1.6440
G01 X4.2803 Y-1.5553
G01 X4.2816 Y-1.5491
G01 X4.2949 Y-1.4585
G01 X4.2995 Y-1.3624
G01 X4.2947 Y-1.2679
G01 X4.2813 Y-1.1774
G01 X4.2751 Y-1.1519
G01 X5.3262 Y-0.1008
G01 X7.5276 Y-0.1008
G01 X7.5765 Y-0.0983
G01 X7.6264 Y-0.0909
G01 X7.6754 Y-0.0786
G01 X7.7215 Y-0.0622
G01 X7.7687 Y-0.0400
G01 X7.8120 Y-0.0140
G01 X7.8526 Y0.0161
G01 X7.8889 Y0.0489
G01 X9.1600 Y1.3200
G01 X9.1939 Y1.3574
G01 X9.2222 Y1.3954
G01 X9.2257 Y1.4007
G01 X9.2500 Y1.4413
G01 X9.2703 Y1.4841
G01 X9.2727 Y1.4900
G01 X9.2886 Y1.5346
G01 X9.3002 Y1.5805
G01 X9.3014 Y1.5867
G01 X9.3083 Y1.6335
G01 X9.3108 Y1.6824
G01 X9.3108 Y7.3990
G01 X9.3083 Y7.4495
G01 X9.3012 Y7.4979
G01 X9.2895 Y7.5454
G01 X9.2876 Y7.5514
G01 X9.2716 Y7.5960
G01 X9.2500 Y7.6417
G01 X9.2240 Y7.6850
G01 X9.1959 Y7.7231
G01 X9.1919 Y7.7280
G01 X9.1600 Y7.7630
G01 X7.6349 Y9.2881
G01 X7.5986 Y9.3209
G01 X7.5606 Y9.3492
G01 X7.5553 Y9.3527
G01 X7.5147 Y9.3770
G01 X7.4719 Y9.3973
G01 X7.4660 Y9.3997
G01 X7.4214 Y9.4156
G01 X7.3740 Y9.4276
G01 X7.3225 Y9.4353
G01 X7.2720 Y9.4378
G01 X0.4124 Y9.4378
G01 X0.3635 Y9.4353
G01 X0.3136 Y9.4279
G01 X0.2646 Y9.4156
G01 X0.2170 Y9.3986
G01 X0.1713 Y9.3770
G01 X0.1280 Y9.3510
G01 X0.0874 Y9.3209
G01 X0.0523 Y9.2892
G01 X-1.4548 Y7.7822
G01 X-1.4876 Y7.7459
G01 X-1.5159 Y7.7079
G01 X-1.5194 Y7.7026
G01 X-1.5421 Y7.6647
G01 X-1.5451 Y7.6591
G01 X-1.5653 Y7.6163
G01 X-1.5774 Y7.5827
G01 X-1.5932 Y7.5751
G01 X-1.6814 Y7.5221
G01 X-1.7628 Y7.4619
G01 X-1.7677 Y7.4578
G01 X-1.8427 Y7.3898
G01 X-1.9108 Y7.3147
G01 X-1.9148 Y7.3098
G01 X-1.9742 Y7.2297
G01 X-2.0288 Y7.1388
G01 X-2.0735 Y7.0444
G01 X-2.1087 Y6.9460
G01 X-2.1340 Y6.8447
G01 X-2.1494 Y6.7413
G01 X-2.1545 Y6.6370
G01 X-2.1494 Y6.5327
G01 X-2.1346 Y6.4324
G01 X-2.1333 Y6.4262
G01 X-2.1087 Y6.3280
G01 X-2.0735 Y6.2296
G01 X-2.0288 Y6.1352
G01 X-1.9768 Y6.0482
G01 X-1.9733 Y6.0430
G01 X-1.9128 Y5.9617
G01 X-1.8449 Y5.8865
G01 X-1.8404 Y5.8821
G01 X-1.7677 Y5.8162
G01 X-1.7628 Y5.8121
G01 X-1.6814 Y5.7519
G01 X-1.6047 Y5.7058
G01 X-1.6564 Y5.6766
G01 X-1.6564 Y-5.3566
G01 X-1.7119 Y-5.3902
G01 X-1.7953 Y-5.4520
G01 X-1.8024 Y-5.4579
G01 X-1.8751 Y-5.5238
G01 X-1.8808 Y-5.5293
G01 X-1.9524 Y-5.6084
G01 X-2.0147 Y-5.6922
G01 X-2.0211 Y-5.7017
G01 X-2.0715 Y-5.7859
G01 X-2.0754 Y-5.7928
G01 X-2.1209 Y-5.8893
G01 X-2.1563 Y-5.9876
G01 X-2.1596 Y-5.9985
G01 X-2.1846 Y-6.0986
G01 X-2.2001 Y-6.2019
G01 X-2.2012 Y-6.2133
G01 X-2.2061 Y-6.3176
G01 X-2.2011 Y-6.4214
G01 X-2.2001 Y-6.4321
G01 X-2.1848 Y-6.5341
G01 X-2.1582 Y-6.6404
G01 X-2.1214 Y-6.7436
G01 X-2.0746 Y-6.8426
G01 X-2.0184 Y-6.9366
G01 X-1.9532 Y-7.0246
G01 X-1.8797 Y-7.1058
G01 X-1.8024 Y-7.1761
G01 X-1.7935 Y-7.1833
G01 X-1.7147 Y-7.2418
G01 X-1.7052 Y-7.2481
G01 X-1.6155 Y-7.3017
G01 X-1.5223 Y-7.3459
G01 X-1.5118 Y-7.3503
G01 X-1.4133 Y-7.3853
G01 X-1.3071 Y-7.4119
G01 X-1.1987 Y-7.4279
G01 X-1.0956 Y-7.4330
G01 X-1.0842 Y-7.4330
G01 X-0.9799 Y-7.4277
G01 X-0.8716 Y-7.4116
G01 X-0.7665 Y-7.3853
G01 X-0.6634 Y-7.3485
G01 X-0.5643 Y-7.3017
G01 X-0.4703 Y-7.2454
G01 X-0.3823 Y-7.1802
G01 X-0.3048 Y-7.1102
G01 X-0.2967 Y-7.1021
G01 X-0.2275 Y-7.0256
G01 X-0.1622 Y-6.9376
G01 X-0.1059 Y-6.8437
G01 X-0.0610 Y-6.7494
G01 X-0.0567 Y-6.7388
G01 X-0.0236 Y-6.6464
G01 X-0.0203 Y-6.6355
G01 X0.0049 Y-6.5341
G01 X0.0202 Y-6.4321
G01 X0.0213 Y-6.4207
G01 X0.0262 Y-6.3176
