(G-CODE GENERATED BY FLATCAM v8.994 - www.flatcam.org - Version Date: 2020/11/7)

(Name: Gerber_BottomLayer.GBL_cutout_cnc)
(Type: G-code from Geometry)
(Units: MM)

(Created on Friday, 15 July 2022 at 15:29)

(This preprocessor is the default preprocessor used by FlatCAM.)
(It is made to work with MACH3 compatible motion controllers.)

(TOOL DIAMETER: 3.175 mm)
(Feedrate_XY: 25.0 mm/min)
(Feedrate_Z: 25.0 mm/min)
(Feedrate rapids 1500.0 mm/min)

(Z_Cut: -1.8 mm)
(DepthPerCut: 0.6 mm <=>3 passes)
(Z_Move: 1.0 mm)
(Z Start: None mm)
(Z End: 15.0 mm)
(X,Y End: None mm)
(Steps per circle: 64)
(Preprocessor Geometry: default)

(X range:  -11.4284 ...   11.4284  mm)
(Y range:  -11.4284 ...   11.4284  mm)

(Spindle Speed: 1000.0 RPM)
G21
G90
G94

G01 F25.00

M5
G00 Z15.0000
G00 X0.0000 Y0.0000
T1
M6    
(MSG, Change to Tool Dia = 3.1750)
M0
G00 Z15.0000

M03 S1000.0
G01 F25.00
G00 X11.4284 Y-1.9875
G01 F25.00
G01 Z-0.6000
G01 F25.00
G01 X11.4284 Y-9.7409
G01 X11.4203 Y-9.9063
G01 X11.3960 Y-10.0701
G01 X11.3557 Y-10.2308
G01 X11.2999 Y-10.3867
G01 X11.2291 Y-10.5364
G01 X11.1440 Y-10.6784
G01 X11.0453 Y-10.8115
G01 X10.9341 Y-10.9342
G01 X10.8114 Y-11.0454
G01 X10.6784 Y-11.1440
G01 X10.5364 Y-11.2292
G01 X10.3867 Y-11.3000
G01 X10.2307 Y-11.3558
G01 X10.0701 Y-11.3960
G01 X9.9063 Y-11.4203
G01 X9.7409 Y-11.4284
G01 X-9.7409 Y-11.4284
G01 X-9.9063 Y-11.4203
G01 X-10.0701 Y-11.3960
G01 X-10.2308 Y-11.3558
G01 X-10.3867 Y-11.3000
G01 X-10.5364 Y-11.2292
G01 X-10.6784 Y-11.1440
G01 X-10.8115 Y-11.0454
G01 X-10.9342 Y-10.9342
G01 X-11.0454 Y-10.8115
G01 X-11.1440 Y-10.6784
G01 X-11.2292 Y-10.5364
G01 X-11.3000 Y-10.3867
G01 X-11.3558 Y-10.2308
G01 X-11.3960 Y-10.0701
G01 X-11.4203 Y-9.9063
G01 X-11.4284 Y-9.7409
G01 X-11.4284 Y-1.9875
G00 X-11.4284 Y-1.9875
G01 F25.00
G01 Z-1.2000
G01 F25.00
G01 X-11.4284 Y-9.7409
G01 X-11.4203 Y-9.9063
G01 X-11.3960 Y-10.0701
G01 X-11.3558 Y-10.2308
G01 X-11.3000 Y-10.3867
G01 X-11.2292 Y-10.5364
G01 X-11.1440 Y-10.6784
G01 X-11.0454 Y-10.8115
G01 X-10.9342 Y-10.9342
G01 X-10.8115 Y-11.0454
G01 X-10.6784 Y-11.1440
G01 X-10.5364 Y-11.2292
G01 X-10.3867 Y-11.3000
G01 X-10.2308 Y-11.3558
G01 X-10.0701 Y-11.3960
G01 X-9.9063 Y-11.4203
G01 X-9.7409 Y-11.4284
G01 X9.7409 Y-11.4284
G01 X9.9063 Y-11.4203
G01 X10.0701 Y-11.3960
G01 X10.2307 Y-11.3558
G01 X10.3867 Y-11.3000
G01 X10.5364 Y-11.2292
G01 X10.6784 Y-11.1440
G01 X10.8114 Y-11.0454
G01 X10.9341 Y-10.9342
G01 X11.0453 Y-10.8115
G01 X11.1440 Y-10.6784
G01 X11.2291 Y-10.5364
G01 X11.2999 Y-10.3867
G01 X11.3557 Y-10.2308
G01 X11.3960 Y-10.0701
G01 X11.4203 Y-9.9063
G01 X11.4284 Y-9.7409
G01 X11.4284 Y-1.9875
G00 X11.4284 Y-1.9875
G01 F25.00
G01 Z-1.8000
G01 F25.00
G01 X11.4284 Y-9.7409
G01 X11.4203 Y-9.9063
G01 X11.3960 Y-10.0701
G01 X11.3557 Y-10.2308
G01 X11.2999 Y-10.3867
G01 X11.2291 Y-10.5364
G01 X11.1440 Y-10.6784
G01 X11.0453 Y-10.8115
G01 X10.9341 Y-10.9342
G01 X10.8114 Y-11.0454
G01 X10.6784 Y-11.1440
G01 X10.5364 Y-11.2292
G01 X10.3867 Y-11.3000
G01 X10.2307 Y-11.3558
G01 X10.0701 Y-11.3960
G01 X9.9063 Y-11.4203
G01 X9.7409 Y-11.4284
G01 X-9.7409 Y-11.4284
G01 X-9.9063 Y-11.4203
G01 X-10.0701 Y-11.3960
G01 X-10.2308 Y-11.3558
G01 X-10.3867 Y-11.3000
G01 X-10.5364 Y-11.2292
G01 X-10.6784 Y-11.1440
G01 X-10.8115 Y-11.0454
G01 X-10.9342 Y-10.9342
G01 X-11.0454 Y-10.8115
G01 X-11.1440 Y-10.6784
G01 X-11.2292 Y-10.5364
G01 X-11.3000 Y-10.3867
G01 X-11.3558 Y-10.2308
G01 X-11.3960 Y-10.0701
G01 X-11.4203 Y-9.9063
G01 X-11.4284 Y-9.7409
G01 X-11.4284 Y-1.9875
G00 Z1.0000
G00 X-11.4284 Y2.1875
G01 F25.00
G01 Z-0.6000
G01 F25.00
G01 X-11.4284 Y9.7409
G01 X-11.4203 Y9.9063
G01 X-11.3960 Y10.0701
G01 X-11.3558 Y10.2307
G01 X-11.3000 Y10.3867
G01 X-11.2292 Y10.5364
G01 X-11.1440 Y10.6784
G01 X-11.0454 Y10.8114
G01 X-10.9342 Y10.9341
G01 X-10.8115 Y11.0453
G01 X-10.6784 Y11.1440
G01 X-10.5364 Y11.2291
G01 X-10.3867 Y11.2999
G01 X-10.2308 Y11.3557
G01 X-10.0701 Y11.3960
G01 X-9.9063 Y11.4203
G01 X-9.7409 Y11.4284
G01 X9.7409 Y11.4284
G01 X9.9063 Y11.4203
G01 X10.0701 Y11.3960
G01 X10.2307 Y11.3557
G01 X10.3867 Y11.2999
G01 X10.5364 Y11.2291
G01 X10.6784 Y11.1440
G01 X10.8114 Y11.0453
G01 X10.9341 Y10.9341
G01 X11.0453 Y10.8114
G01 X11.1440 Y10.6784
G01 X11.2291 Y10.5364
G01 X11.2999 Y10.3867
G01 X11.3557 Y10.2307
G01 X11.3960 Y10.0701
G01 X11.4203 Y9.9063
G01 X11.4284 Y9.7409
G01 X11.4284 Y2.1875
G00 X11.4284 Y2.1875
G01 F25.00
G01 Z-1.2000
G01 F25.00
G01 X11.4284 Y9.7409
G01 X11.4203 Y9.9063
G01 X11.3960 Y10.0701
G01 X11.3557 Y10.2307
G01 X11.2999 Y10.3867
G01 X11.2291 Y10.5364
G01 X11.1440 Y10.6784
G01 X11.0453 Y10.8114
G01 X10.9341 Y10.9341
G01 X10.8114 Y11.0453
G01 X10.6784 Y11.1440
G01 X10.5364 Y11.2291
G01 X10.3867 Y11.2999
G01 X10.2307 Y11.3557
G01 X10.0701 Y11.3960
G01 X9.9063 Y11.4203
G01 X9.7409 Y11.4284
G01 X-9.7409 Y11.4284
G01 X-9.9063 Y11.4203
G01 X-10.0701 Y11.3960
G01 X-10.2308 Y11.3557
G01 X-10.3867 Y11.2999
G01 X-10.5364 Y11.2291
G01 X-10.6784 Y11.1440
G01 X-10.8115 Y11.0453
G01 X-10.9342 Y10.9341
G01 X-11.0454 Y10.8114
G01 X-11.1440 Y10.6784
G01 X-11.2292 Y10.5364
G01 X-11.3000 Y10.3867
G01 X-11.3558 Y10.2307
G01 X-11.3960 Y10.0701
G01 X-11.4203 Y9.9063
G01 X-11.4284 Y9.7409
G01 X-11.4284 Y2.1875
G00 X-11.4284 Y2.1875
G01 F25.00
G01 Z-1.8000
G01 F25.00
G01 X-11.4284 Y9.7409
G01 X-11.4203 Y9.9063
G01 X-11.3960 Y10.0701
G01 X-11.3558 Y10.2307
G01 X-11.3000 Y10.3867
G01 X-11.2292 Y10.5364
G01 X-11.1440 Y10.6784
G01 X-11.0454 Y10.8114
G01 X-10.9342 Y10.9341
G01 X-10.8115 Y11.0453
G01 X-10.6784 Y11.1440
G01 X-10.5364 Y11.2291
G01 X-10.3867 Y11.2999
G01 X-10.2308 Y11.3557
G01 X-10.0701 Y11.3960
G01 X-9.9063 Y11.4203
G01 X-9.7409 Y11.4284
G01 X9.7409 Y11.4284
G01 X9.9063 Y11.4203
G01 X10.0701 Y11.3960
G01 X10.2307 Y11.3557
G01 X10.3867 Y11.2999
G01 X10.5364 Y11.2291
G01 X10.6784 Y11.1440
G01 X10.8114 Y11.0453
G01 X10.9341 Y10.9341
G01 X11.0453 Y10.8114
G01 X11.1440 Y10.6784
G01 X11.2291 Y10.5364
G01 X11.2999 Y10.3867
G01 X11.3557 Y10.2307
G01 X11.3960 Y10.0701
G01 X11.4203 Y9.9063
G01 X11.4284 Y9.7409
G01 X11.4284 Y2.1875
G00 Z1.0000
M05
G00 Z1.0000
G00 Z15.00


